; generated by PrusaSlicer 2.7.1+win64 on 2024-05-09 at 10:28:56 UTC

; 

; external perimeters extrusion width = 0.42mm
; perimeters extrusion width = 0.44mm
; infill extrusion width = 0.44mm
; solid infill extrusion width = 0.44mm
; top infill extrusion width = 0.40mm
; support material extrusion width = 0.36mm
; first layer extrusion width = 0.42mm

M201 X500 Y500 Z100 E5000 ; sets maximum accelerations, mm/sec^2
M203 X500 Y500 Z10 E60 ; sets maximum feedrates, mm / sec
M204 S500 T1000 ; sets acceleration (S) and retract acceleration (R), mm/sec^2
M205 X8.00 Y8.00 Z0.40 E5.00 ; sets the jerk limits, mm/sec
M205 S0 T0 ; sets the minimum extruding and travel feed rate, mm/sec

; printing object Main-shaft-test id:0 copy 0
; stop printing object Main-shaft-test id:0 copy 0

;TYPE:Custom
G90 ; use absolute coordinates
M83 ; extruder relative mode
M104 S150 ; set temporary nozzle temp to prevent oozing during homing
M140 S60 ; set final bed temp
G4 S30 ; allow partial nozzle warmup
G28 ; home all axis and restore leveling
G1 Z50 F240
G1 X2.0 Y10 F3000
M104 S215 ; set final nozzle temp
M190 S60 ; wait for bed temp to stabilize
M109 S215 ; wait for nozzle temp to stabilize
G1 Z0.28 F240
G92 E0
G1 X2.0 Y140 E10 F1500 ; prime the nozzle
G1 X2.3 Y140 F5000
G92 E0
G1 X2.3 Y10 E10 F1200 ; prime the nozzle
G92 E0
G21 ; set units to millimeters
G90 ; use absolute coordinates
M83 ; use relative distances for extrusion
; Filament gcode
M107
;LAYER_CHANGE
;Z:0.2
;HEIGHT:0.2
;BEFORE_LAYER_CHANGE
G92 E0
;0.2


G1 E-.8 F1800
G1 Z.2 F9000
;AFTER_LAYER_CHANGE
;0.2
G1 X95.107 Y20.279
G1 Z.2
G1 E.8 F1800
M204 S500
;TYPE:Skirt/Brim
;WIDTH:0.42
G1 F1200
G1 X95.404 Y19.191 E.03536
G1 X95.947 Y17.791 E.04708
G1 X96.618 Y16.527 E.04487
G1 X99.579 Y12.384 E.15967
G1 X102.787 Y9.128 E.14332
G1 X104.734 Y8.321 E.06608
G1 X109.977 Y8.321 E.16439
G1 X111.924 Y9.128 E.06608
G1 X115.132 Y12.384 E.14332
G1 X117.963 Y16.318 E.15197
G1 X118.523 Y17.297 E.03536
G1 X119.04 Y18.443 E.03942
G1 X119.405 Y19.51 E.03536
G1 X119.697 Y20.732 E.03939
G1 X119.903 Y22.642 E.06023
G1 X119.879 Y23.899 E.03942
G1 X119.765 Y24.933 E.03262
G1 X119.235 Y27.093 E.06973
G1 X118.857 Y28.063 E.03264
G1 X118.254 Y29.264 E.04214
G1 X117.431 Y30.521 E.04711
G1 X116.777 Y31.33 E.03262
G1 X115.836 Y32.289 E.04213
G1 X115.04 Y32.96 E.03264
G1 X113.935 Y33.724 E.04212
G1 X112.949 Y34.271 E.03535
G1 X111.797 Y34.774 E.03941
G1 X110.809 Y35.102 E.03264
G1 X109.499 Y35.402 E.04214
G1 X108.381 Y35.544 E.03534
G1 X107.124 Y35.584 E.03943
G1 X105.999 Y35.512 E.03535
G1 X104.672 Y35.296 E.04215
G1 X103.227 Y34.888 E.04708
G1 X102.18 Y34.469 E.03536
G1 X100.986 Y33.851 E.04215
G1 X100.113 Y33.286 E.0326
G1 X99.058 Y32.453 E.04215
G1 X98.306 Y31.734 E.03262
G1 X97.428 Y30.717 E.04213
G1 X96.826 Y29.868 E.03263
G1 X96.155 Y28.703 E.04215
G1 X95.724 Y27.756 E.03262
G1 X95.285 Y26.486 E.04213
G1 X95.041 Y25.474 E.03264
G1 X94.837 Y23.986 E.04709
G1 X94.808 Y22.642 E.04215
G1 X94.883 Y21.604 E.03263
G1 X95.097 Y20.338 E.04026
G1 X95.477 Y20.433 F9000
G1 F1200
G1 X95.737 Y19.385 E.03386
G1 X96.226 Y18.091 E.04337
G1 X96.939 Y16.724 E.04834
G1 X99.884 Y12.605 E.15876
G1 X103.054 Y9.395 E.14145
G1 X104.734 Y8.698 E.05703
G1 X109.977 Y8.698 E.16439
G1 X111.657 Y9.395 E.05703
G1 X114.827 Y12.605 E.14145
G1 X117.394 Y16.14 E.13698
G1 X118.039 Y17.19 E.03864
G1 X118.515 Y18.16 E.03388
G1 X119.181 Y20.128 E.06514
G1 X119.38 Y21.112 E.03148
G1 X119.513 Y22.338 E.03867
G1 X119.477 Y24.188 E.05802
G1 X119.298 Y25.408 E.03866
G1 X119.041 Y26.456 E.03383
G1 X118.635 Y27.621 E.03868
G1 X118.218 Y28.535 E.0315
G1 X117.565 Y29.668 E.041
G1 X116.937 Y30.547 E.03387
G1 X116.128 Y31.477 E.03865
G1 X115.345 Y32.221 E.03387
G1 X114.314 Y33.026 E.04101
G1 X113.062 Y33.789 E.04597
G1 X112.086 Y34.252 E.03387
G1 X110.855 Y34.696 E.04103
G1 X109.882 Y34.944 E.03148
G1 X108.589 Y35.147 E.04104
G1 X107.587 Y35.207 E.03147
G1 X106.279 Y35.162 E.04104
G1 X104.829 Y34.944 E.04597
G1 X103.856 Y34.696 E.03148
G1 X102.625 Y34.252 E.04103
G1 X101.716 Y33.825 E.03149
G1 X100.591 Y33.157 E.04102
G1 X99.72 Y32.518 E.03387
G1 X98.746 Y31.644 E.04103
G1 X97.774 Y30.547 E.04596
G1 X97.146 Y29.668 E.03387
G1 X96.527 Y28.602 E.03865
G1 X96.076 Y27.621 E.03385
G1 X95.649 Y26.384 E.04103
G1 X95.413 Y25.408 E.03148
G1 X95.226 Y24.113 E.04102
G1 X95.179 Y23.109 E.03151
G1 X95.24 Y21.802 E.04102
G1 X95.383 Y20.808 E.03149
G1 X95.462 Y20.491 E.01024
;WIPE_START
G1 F7200
G1 X95.477 Y20.433 E-.01423
G1 X95.737 Y19.385 E-.25645
G1 X96.226 Y18.091 E-.32854
G1 X96.617 Y17.342 E-.20078
;WIPE_END
G1 X98.103 Y21.021 F9000
G1 E.8 F1800
G1 F1200
G1 X98.257 Y20.253 E.02456
G1 X98.527 Y19.49 E.02538
G1 X99.223 Y18.095 E.04888
G1 X99.939 Y17.075 E.03907
G1 X100.776 Y16.161 E.03886
G1 X102.155 Y15.082 E.0549
G1 X102.516 Y14.04 E.03458
G1 X103.206 Y13.005 E.039
G1 X104.219 Y12.101 E.04257
G1 X105.405 Y11.537 E.04118
G1 X106.407 Y11.362 E.03189
G1 X108.404 Y11.366 E.06261
G1 X109.436 Y11.581 E.03305
G1 X110.435 Y12.058 E.03471
G1 X111.693 Y13.23 E.05391
G1 X112.344 Y14.393 E.04179
G1 X112.517 Y15.041 E.02103
G1 X114.053 Y16.277 E.06182
G1 X115.226 Y17.69 E.05758
G1 X115.774 Y18.602 E.03336
G1 X116.22 Y19.581 E.03373
G1 X116.51 Y20.448 E.02866
G1 X116.737 Y21.457 E.03243
G1 X116.852 Y22.466 E.03184
G1 X116.834 Y23.86 E.04371
G1 X116.468 Y25.767 E.06088
G1 X116.126 Y26.717 E.03166
G1 X115.676 Y27.644 E.03231
G1 X114.608 Y29.189 E.05889
G1 X113.356 Y30.414 E.05492
G1 X111.716 Y31.488 E.06147
G1 X110.021 Y32.165 E.05723
G1 X108.17 Y32.511 E.05904
G1 X106.418 Y32.499 E.05493
G1 X104.645 Y32.151 E.05665
G1 X102.904 Y31.44 E.05896
G1 X101.342 Y30.404 E.05877
G1 X100.596 Y29.726 E.03161
G1 X99.928 Y28.975 E.03151
G1 X98.917 Y27.426 E.058
G1 X98.224 Y25.7 E.05832
G1 X97.886 Y23.947 E.05598
G1 X97.889 Y22.087 E.05832
G1 X98.091 Y21.08 E.0322
G1 X98.421 Y21.177 F9000
G1 F1200
G1 X98.874 Y19.638 E.0503
G1 X99.548 Y18.286 E.04737
G1 X100.225 Y17.32 E.03699
G1 X101.046 Y16.425 E.03808
G1 X101.945 Y15.67 E.03681
G1 X102.525 Y15.29 E.02174
G1 X102.843 Y14.227 E.03479
G1 X103.477 Y13.268 E.03605
G1 X104.406 Y12.429 E.03925
G1 X105.543 Y11.889 E.03947
G1 X106.422 Y11.739 E.02796
G1 X108.384 Y11.743 E.06152
G1 X109.297 Y11.933 E.02924
G1 X110.202 Y12.355 E.03131
G1 X111.379 Y13.441 E.05021
G1 X112.003 Y14.554 E.04001
G1 X112.191 Y15.291 E.02385
G1 X113.223 Y16.03 E.0398
G1 X113.792 Y16.549 E.02415
G1 X114.918 Y17.908 E.05534
G1 X115.435 Y18.768 E.03146
G1 X116.144 Y20.54 E.05984
G1 X116.364 Y21.51 E.03119
G1 X116.476 Y22.497 E.03115
G1 X116.458 Y23.822 E.04155
G1 X116.109 Y25.65 E.05835
G1 X115.775 Y26.58 E.03098
G1 X115.342 Y27.469 E.031
G1 X114.317 Y28.95 E.05647
G1 X113.112 Y30.126 E.05279
G1 X111.534 Y31.157 E.0591
G1 X109.905 Y31.806 E.05498
G1 X108.144 Y32.135 E.05617
G1 X106.445 Y32.123 E.05327
G1 X104.745 Y31.787 E.05433
G1 X103.086 Y31.11 E.05618
G1 X101.587 Y30.117 E.05638
G1 X100.871 Y29.468 E.0303
G1 X100.216 Y28.732 E.03089
G1 X99.248 Y27.245 E.05563
G1 X98.584 Y25.588 E.05597
G1 X98.261 Y23.903 E.05379
G1 X98.223 Y22.836 E.03348
G1 X98.388 Y21.289 E.04878
G1 X98.404 Y21.234 E.0018
G1 X98.808 Y21.315 F9000
G1 F1200
G1 X98.975 Y20.486 E.02651
G1 X99.221 Y19.785 E.02329
G1 X99.873 Y18.477 E.04582
G1 X100.526 Y17.547 E.03563
G1 X101.315 Y16.689 E.03655
G1 X102.178 Y15.967 E.03528
G1 X102.886 Y15.505 E.02651
G1 X102.92 Y15.154 E.01106
G1 X103.192 Y14.374 E.0259
G1 X103.747 Y13.532 E.03162
G1 X104.637 Y12.728 E.03761
G1 X105.678 Y12.242 E.03602
G1 X106.436 Y12.116 E.02409
G1 X108.363 Y12.12 E.06042
G1 X109.197 Y12.297 E.02673
G1 X110.013 Y12.683 E.0283
G1 X111.099 Y13.695 E.04654
G1 X111.66 Y14.713 E.03644
G1 X111.861 Y15.532 E.02644
G1 X112.989 Y16.325 E.04323
G1 X113.531 Y16.822 E.02306
G1 X114.61 Y18.125 E.05304
G1 X115.097 Y18.934 E.02961
G1 X115.779 Y20.633 E.0574
G1 X115.99 Y21.563 E.0299
G1 X116.1 Y22.528 E.03045
G1 X116.083 Y23.785 E.03942
G1 X115.75 Y25.533 E.05579
G1 X115.423 Y26.443 E.03032
G1 X115.008 Y27.294 E.02969
G1 X114.025 Y28.71 E.05405
G1 X112.868 Y29.838 E.05066
G1 X111.352 Y30.827 E.05675
G1 X109.789 Y31.447 E.05272
G1 X108.117 Y31.759 E.05333
G1 X106.472 Y31.747 E.05158
G1 X104.862 Y31.429 E.05146
G1 X103.268 Y30.779 E.05397
G1 X101.832 Y29.83 E.05397
G1 X101.132 Y29.196 E.02961
G1 X100.505 Y28.489 E.02963
G1 X99.579 Y27.064 E.05328
G1 X98.944 Y25.476 E.05362
G1 X98.635 Y23.859 E.05162
G1 X98.641 Y22.149 E.05362
G1 X98.796 Y21.374 E.02478
G1 X99.125 Y21.452 F9000
G1 F1200
G1 X99.568 Y19.933 E.04961
G1 X100.198 Y18.669 E.04428
G1 X100.828 Y17.775 E.03429
G1 X101.584 Y16.954 E.03499
G1 X102.411 Y16.264 E.03377
G1 X103.25 Y15.718 E.03139
G1 X103.285 Y15.252 E.01465
G1 X103.54 Y14.52 E.0243
G1 X104.02 Y13.794 E.02729
G1 X104.823 Y13.058 E.03415
G1 X105.813 Y12.595 E.03427
G1 X106.45 Y12.493 E.02023
G1 X108.342 Y12.497 E.05932
G1 X109.094 Y12.66 E.02413
G1 X109.823 Y13.01 E.02536
G1 X110.818 Y13.948 E.04287
G1 X111.317 Y14.871 E.0329
G1 X111.476 Y15.74 E.0277
G1 X112.755 Y16.621 E.0487
G1 X113.269 Y17.093 E.02188
G1 X114.292 Y18.328 E.05028
G1 X114.758 Y19.101 E.0283
G1 X115.413 Y20.726 E.05493
G1 X115.617 Y21.616 E.02863
G1 X115.724 Y22.558 E.02973
G1 X115.708 Y23.747 E.03728
G1 X115.391 Y25.417 E.0533
G1 X115.08 Y26.287 E.02897
G1 X114.674 Y27.118 E.029
G1 X113.734 Y28.471 E.05166
G1 X112.624 Y29.551 E.04856
G1 X111.169 Y30.497 E.05442
G1 X109.673 Y31.088 E.05043
G1 X108.09 Y31.383 E.05049
G1 X106.499 Y31.37 E.04989
G1 X104.98 Y31.071 E.04854
G1 X103.45 Y30.449 E.05178
G1 X102.077 Y29.543 E.05158
G1 X101.393 Y28.924 E.02892
G1 X100.794 Y28.246 E.02837
G1 X99.91 Y26.884 E.05091
G1 X99.304 Y25.365 E.05128
G1 X99.01 Y23.816 E.04943
G1 X98.977 Y22.829 E.03096
G1 X99.118 Y21.512 E.04153
G1 X99.517 Y21.592 F9000
G1 F1200
G1 X99.693 Y20.718 E.02795
G1 X99.915 Y20.081 E.02115
G1 X100.522 Y18.861 E.04273
G1 X101.128 Y18.002 E.03296
G1 X101.852 Y17.219 E.03344
G1 X102.643 Y16.561 E.03226
G1 X103.616 Y15.962 E.03583
G1 X103.65 Y15.35 E.01922
G1 X103.888 Y14.666 E.02271
G1 X104.291 Y14.056 E.02292
G1 X105.056 Y13.356 E.03251
G1 X105.945 Y12.949 E.03066
G1 X106.463 Y12.87 E.01643
G1 X108.32 Y12.874 E.05823
G1 X108.99 Y13.023 E.02152
G1 X109.631 Y13.336 E.02237
G1 X110.535 Y14.199 E.03919
G1 X110.956 Y14.984 E.02793
G1 X111.09 Y15.524 E.01744
G1 X111.103 Y15.956 E.01355
G1 X112.521 Y16.917 E.05371
G1 X113.561 Y17.975 E.04652
G1 X113.974 Y18.531 E.02172
G1 X114.42 Y19.267 E.02698
G1 X115.048 Y20.82 E.05252
G1 X115.244 Y21.669 E.02732
G1 X115.348 Y22.589 E.02903
G1 X115.332 Y23.71 E.03515
G1 X115.032 Y25.301 E.05076
G1 X114.34 Y26.943 E.05587
G1 X113.443 Y28.231 E.04921
G1 X112.38 Y29.263 E.04645
G1 X110.987 Y30.166 E.05205
G1 X109.557 Y30.729 E.04819
G1 X108.063 Y31.006 E.04764
G1 X106.527 Y30.994 E.04816
G1 X105.08 Y30.707 E.04625
G1 X103.631 Y30.118 E.04904
G1 X102.321 Y29.256 E.04917
G1 X101.082 Y28.003 E.05525
G1 X100.242 Y26.703 E.04853
G1 X99.665 Y25.254 E.0489
G1 X99.385 Y23.773 E.04726
G1 X99.393 Y22.211 E.04898
G1 X99.505 Y21.65 E.01794
G1 X99.854 Y21.688 F9000
G1 F1200
G1 X99.862 Y21.614 E.00233
G1 X100.262 Y20.228 E.04523
G1 X100.847 Y19.054 E.04113
G1 X101.429 Y18.23 E.03163
G1 X102.103 Y17.501 E.03113
G1 X102.858 Y16.871 E.03083
G1 X103.986 Y16.194 E.04125
G1 X104.016 Y15.446 E.02347
G1 X104.237 Y14.812 E.02105
G1 X104.565 Y14.316 E.01864
G1 X105.241 Y13.686 E.02897
G1 X106.076 Y13.304 E.02879
G1 X106.475 Y13.247 E.01264
G1 X108.298 Y13.251 E.05716
G1 X108.883 Y13.385 E.01882
G1 X109.436 Y13.66 E.01936
G1 X110.251 Y14.449 E.03557
G1 X110.596 Y15.097 E.02302
G1 X110.719 Y15.592 E.01599
G1 X110.729 Y16.208 E.01932
G1 X111.585 Y16.685 E.03073
G1 X112.734 Y17.625 E.04655
G1 X113.275 Y18.222 E.02526
G1 X114.081 Y19.434 E.04564
G1 X114.682 Y20.914 E.05008
G1 X114.972 Y22.619 E.05423
G1 X114.957 Y23.674 E.03308
G1 X114.673 Y25.185 E.04821
G1 X114.007 Y26.767 E.05382
G1 X113.152 Y27.991 E.04681
G1 X112.136 Y28.975 E.04435
G1 X110.805 Y29.836 E.0497
G1 X109.458 Y30.365 E.04537
G1 X108.035 Y30.63 E.04538
G1 X106.554 Y30.618 E.04644
G1 X105.198 Y30.349 E.04334
G1 X103.812 Y29.787 E.04689
G1 X102.566 Y28.969 E.04673
G1 X101.372 Y27.761 E.05326
G1 X100.573 Y26.524 E.04617
G1 X100.025 Y25.143 E.04658
G1 X99.759 Y23.729 E.04511
G1 X99.732 Y22.823 E.02842
G1 X99.847 Y21.748 E.0339
G1 X100.235 Y21.825 F9000
G1 F1200
G1 X100.411 Y20.948 E.02805
G1 X100.61 Y20.376 E.01899
G1 X101.171 Y19.247 E.03953
G1 X101.715 Y18.476 E.02959
G1 X102.354 Y17.782 E.02958
G1 X103.073 Y17.181 E.02938
G1 X104.358 Y16.426 E.04673
G1 X104.383 Y15.538 E.02785
G1 X104.566 Y14.997 E.01791
G1 X104.842 Y14.573 E.01586
G1 X105.43 Y14.014 E.02544
G1 X106.16 Y13.673 E.02526
G1 X108.274 Y13.628 E.0663
G1 X108.772 Y13.746 E.01605
G1 X109.239 Y13.982 E.01641
G1 X109.965 Y14.696 E.03193
G1 X110.236 Y15.213 E.0183
G1 X110.342 Y15.622 E.01325
G1 X110.355 Y16.449 E.02593
G1 X111.38 Y17.002 E.03652
G1 X112.025 Y17.485 E.02527
G1 X112.99 Y18.468 E.04319
G1 X113.339 Y18.938 E.01836
G1 X113.743 Y19.601 E.02434
G1 X114.317 Y21.008 E.04765
G1 X114.596 Y22.65 E.05222
G1 X114.581 Y23.638 E.03098
G1 X114.314 Y25.069 E.04564
G1 X113.673 Y26.59 E.05175
G1 X112.861 Y27.751 E.04442
G1 X111.893 Y28.687 E.04222
G1 X110.639 Y29.497 E.04681
G1 X109.359 Y30.001 E.04313
G1 X108.006 Y30.254 E.04316
G1 X106.582 Y30.242 E.04465
G1 X105.316 Y29.99 E.04047
G1 X103.993 Y29.456 E.04473
G1 X102.81 Y28.681 E.04434
G1 X101.661 Y27.519 E.05124
G1 X100.905 Y26.344 E.04381
G1 X100.386 Y25.033 E.04421
G1 X100.134 Y23.686 E.04297
G1 X100.144 Y22.276 E.04421
G1 X100.223 Y21.884 E.01254
G1 X100.583 Y21.923 F9000
G1 F1200
G1 X100.599 Y21.774 E.0047
G1 X100.957 Y20.523 E.0408
G1 X101.495 Y19.439 E.03794
G1 X102.001 Y18.722 E.02752
G1 X102.606 Y18.063 E.02805
G1 X103.289 Y17.491 E.02793
G1 X103.933 Y17.071 E.02411
G1 X104.731 Y16.691 E.02771
G1 X104.75 Y15.627 E.03337
G1 X104.898 Y15.178 E.01482
G1 X105.122 Y14.826 E.01308
G1 X105.622 Y14.339 E.02188
G1 X106.246 Y14.041 E.02168
G1 X106.503 Y14.001 E.00816
G1 X108.252 Y14.005 E.05484
G1 X108.622 Y14.093 E.01192
G1 X109.041 Y14.305 E.01472
G1 X109.676 Y14.94 E.02816
G1 X109.971 Y15.689 E.02524
G1 X109.98 Y16.69 E.03139
G1 X110.7 Y17.027 E.02493
G1 X111.778 Y17.77 E.04105
G1 X112.704 Y18.715 E.04148
G1 X113.405 Y19.768 E.03966
G1 X113.952 Y21.103 E.04524
G1 X114.22 Y22.68 E.05015
G1 X114.206 Y23.602 E.02891
G1 X113.955 Y24.954 E.04312
G1 X113.34 Y26.414 E.04967
G1 X112.571 Y27.51 E.04198
G1 X111.649 Y28.4 E.04018
G1 X110.473 Y29.159 E.04389
G1 X109.259 Y29.637 E.04091
G1 X107.977 Y29.878 E.0409
G1 X106.63 Y29.868 E.04224
G1 X105.434 Y29.632 E.03822
G1 X104.173 Y29.125 E.04261
G1 X103.054 Y28.393 E.04193
G1 X101.95 Y27.277 E.04922
G1 X101.237 Y26.164 E.04144
G1 X100.747 Y24.923 E.04183
G1 X100.509 Y23.643 E.04082
G1 X100.486 Y22.82 E.02581
G1 X100.576 Y21.983 E.02639
G1 X100.96 Y22.077 F9000
G1 F1200
G1 X101.304 Y20.67 E.04541
G1 X101.819 Y19.633 E.0363
G1 X102.287 Y18.968 E.0255
G1 X102.859 Y18.343 E.02656
G1 X103.504 Y17.8 E.02644
G1 X104.117 Y17.401 E.02293
G1 X105.108 Y16.944 E.03422
G1 X105.118 Y15.716 E.0385
G1 X105.403 Y15.078 E.02191
G1 X105.819 Y14.663 E.01842
G1 X106.335 Y14.408 E.01805
G1 X108.229 Y14.382 E.05939
G1 X108.844 Y14.628 E.02077
G1 X109.353 Y15.137 E.02257
G1 X109.598 Y15.752 E.02076
G1 X109.603 Y16.931 E.03697
G1 X110.513 Y17.355 E.03148
G1 X111.544 Y18.066 E.03927
G1 X112.418 Y18.961 E.03922
G1 X113.066 Y19.935 E.03668
G1 X113.442 Y20.759 E.0284
G1 X113.75 Y21.884 E.03657
G1 X113.844 Y22.711 E.0261
G1 X113.83 Y23.567 E.02684
G1 X113.596 Y24.84 E.04058
G1 X113.007 Y26.237 E.04754
G1 X112.281 Y27.269 E.03956
G1 X111.405 Y28.112 E.03812
G1 X110.306 Y28.821 E.04101
G1 X109.159 Y29.274 E.03867
G1 X107.948 Y29.502 E.03864
G1 X106.679 Y29.493 E.03979
G1 X105.552 Y29.274 E.036
G1 X104.353 Y28.794 E.04049
G1 X103.297 Y28.105 E.03953
G1 X102.239 Y27.035 E.04718
G1 X101.568 Y25.984 E.0391
G1 X101.108 Y24.813 E.03945
G1 X100.884 Y23.6 E.03868
G1 X100.896 Y22.341 E.03948
G1 X100.946 Y22.135 E.00665
G1 X101.31 Y22.174 F9000
G1 F1200
G1 X101.336 Y21.933 E.0076
G1 X101.651 Y20.817 E.03636
G1 X102.143 Y19.826 E.03469
G1 X103.112 Y18.624 E.04841
