; generated by PrusaSlicer 2.7.1+win64 on 2024-05-24 at 09:36:07 UTC

; 

; external perimeters extrusion width = 0.42mm
; perimeters extrusion width = 0.44mm
; infill extrusion width = 0.44mm
; solid infill extrusion width = 0.44mm
; top infill extrusion width = 0.40mm
; support material extrusion width = 0.36mm
; first layer extrusion width = 0.42mm

M201 X500 Y500 Z100 E5000 ; sets maximum accelerations, mm/sec^2
M203 X500 Y500 Z10 E60 ; sets maximum feedrates, mm / sec
M204 S500 T1000 ; sets acceleration (S) and retract acceleration (R), mm/sec^2
M205 X8.00 Y8.00 Z0.40 E5.00 ; sets the jerk limits, mm/sec
M205 S0 T0 ; sets the minimum extruding and travel feed rate, mm/sec

; printing object Jet Engine-Exhaust-Jet-Expander-4 id:0 copy 0
; stop printing object Jet Engine-Exhaust-Jet-Expander-4 id:0 copy 0

;TYPE:Custom
G90 ; use absolute coordinates
M83 ; extruder relative mode
M104 S150 ; set temporary nozzle temp to prevent oozing during homing
M140 S60 ; set final bed temp
G4 S30 ; allow partial nozzle warmup
G28 ; home all axis and restore leveling
G1 Z50 F240
G1 X2.0 Y10 F3000
M104 S215 ; set final nozzle temp
M190 S60 ; wait for bed temp to stabilize
M109 S215 ; wait for nozzle temp to stabilize
G1 Z0.28 F240
G92 E0
G1 X2.0 Y140 E10 F1500 ; prime the nozzle
G1 X2.3 Y140 F5000
G92 E0
G1 X2.3 Y10 E10 F1200 ; prime the nozzle
G92 E0
G21 ; set units to millimeters
G90 ; use absolute coordinates
M83 ; use relative distances for extrusion
; Filament gcode
M107
;LAYER_CHANGE
;Z:0.2
;HEIGHT:0.2
;BEFORE_LAYER_CHANGE
G92 E0
;0.2


G1 E-.8 F1800
G1 Z.2 F9000
;AFTER_LAYER_CHANGE
;0.2
G1 X74.827 Y34.684
G1 Z.2
G1 E.8 F1800
M204 S500
;TYPE:Skirt/Brim
;WIDTH:0.42
G1 F1200
G1 X76.226 Y31.664 E.10436
G1 X78.061 Y28.555 E.11319
G1 X80.197 Y25.644 E.11321
G1 X82.608 Y22.966 E.11298
G1 X85.276 Y20.54 E.11307
G1 X88.172 Y18.39 E.11309
G1 X91.269 Y16.538 E.11314
G1 X94.536 Y15.004 E.11316
G1 X97.937 Y13.805 E.11307
G1 X101.439 Y12.949 E.11304
G1 X105.011 Y12.447 E.1131
G1 X108.615 Y12.303 E.11309
G1 X112.22 Y12.517 E.11323
G1 X115.78 Y13.089 E.11305
G1 X119.262 Y14.013 E.11295
G1 X122.492 Y15.217 E.10808
G1 X125.726 Y16.794 E.11281
G1 X128.796 Y18.691 E.11315
G1 X131.663 Y20.888 E.11325
G1 X134.293 Y23.352 E.113
G1 X136.667 Y26.072 E.1132
G1 X138.756 Y29.009 E.11301
G1 X140.543 Y32.14 E.11303
G1 X142.009 Y35.435 E.11308
G1 X143.141 Y38.863 E.11319
G1 X143.925 Y42.382 E.11304
G1 X144.356 Y45.965 E.11315
G1 X144.428 Y49.567 E.11296
G1 X144.141 Y53.165 E.11317
G1 X143.494 Y56.717 E.1132
G1 X142.498 Y60.185 E.11313
G1 X141.164 Y63.536 E.11309
G1 X139.505 Y66.733 E.11293
G1 X137.529 Y69.756 E.11324
G1 X135.268 Y72.564 E.11304
G1 X132.732 Y75.134 E.11321
G1 X129.962 Y77.437 E.11295
G1 X126.972 Y79.453 E.11307
G1 X123.789 Y81.163 E.11329
G1 X120.461 Y82.547 E.11301
G1 X117.012 Y83.592 E.113
G1 X113.47 Y84.289 E.11319
G1 X109.878 Y84.629 E.11313
G1 X107.83 Y84.66 E.06422
G1 X104.232 Y84.438 E.11303
G1 X100.673 Y83.859 E.11306
G1 X97.188 Y82.926 E.11312
G1 X93.816 Y81.655 E.11299
G1 X90.582 Y80.048 E.11323
G1 X87.528 Y78.132 E.11304
G1 X84.918 Y76.124 E.10325
G1 X82.284 Y73.666 E.11296
G1 X79.905 Y70.951 E.11318
G1 X77.81 Y68.019 E.11299
G1 X76.014 Y64.887 E.1132
G1 X74.542 Y61.598 E.11298
G1 X73.404 Y58.173 E.11316
G1 X72.61 Y54.654 E.11311
G1 X72.175 Y51.075 E.11304
G1 X72.095 Y47.549 E.11058
G1 X72.208 Y45.422 E.06678
G1 X72.692 Y41.85 E.11302
G1 X73.529 Y38.34 E.11314
G1 X74.712 Y34.932 E.11311
G1 X74.801 Y34.738 E.00669
; printing object Jet Engine-Exhaust-Jet-Expander-4 id:0 copy 0
;WIPE_START
G1 F7200
G1 X74.827 Y34.684 E-.01423
G1 X76.218 Y31.682 E-.78577
;WIPE_END
G1 X78.115 Y36.383 F9000
G1 E.8 F1800
;TYPE:External perimeter
;WIDTH:0.549388
G1 F1200
G1 X78.736 Y34.943 E.06604
;WIDTH:0.549216
G1 X79.464 Y33.454 E.06978
;WIDTH:0.5474
G1 X79.47 Y33.442 E.00056
;WIDTH:0.55088
G1 X80.282 Y31.983 E.07052
;WIDTH:0.54927
G1 X81.103 Y30.662 E.06548
;WIDTH:0.54939
G1 X81.107 Y30.655 E.00034
;WIDTH:0.550078
G1 X82.064 Y29.279 E.07068
;WIDTH:0.549788
G1 X83.013 Y28.044 E.06564
G1 X84.031 Y26.85 E.06613
;WIDTH:0.549102
G1 X84.039 Y26.841 E.00051
;WIDTH:0.549658
G1 X85.182 Y25.624 E.07035
;WIDTH:0.550154
G1 X86.314 Y24.538 E.06616
;WIDTH:0.55
G1 X87.562 Y23.449 E.06984
;WIDTH:0.548128
G1 X87.569 Y23.443 E.00039
;WIDTH:0.549506
G1 X88.807 Y22.471 E.0663
;WIDTH:0.549396
G1 X90.158 Y21.511 E.0698
;WIDTH:0.548194
G1 X90.169 Y21.504 E.00055
;WIDTH:0.55211
G1 X91.581 Y20.612 E.07071
;WIDTH:0.550084
G1 X92.934 Y19.843 E.06563
;WIDTH:0.55019
G1 X94.335 Y19.137 E.06617
;WIDTH:0.550062
G1 X94.346 Y19.132 E.00051
;WIDTH:0.550244
G1 X95.863 Y18.458 E.07003
G1 X97.327 Y17.896 E.06615
;WIDTH:0.548468
G1 X97.339 Y17.892 E.00053
;WIDTH:0.548306
G1 X98.912 Y17.374 E.06959
;WIDTH:0.547336
G1 X98.924 Y17.37 E.00053
;WIDTH:0.550998
G1 X100.537 Y16.934 E.07059
;WIDTH:0.54895
G1 X102.069 Y16.595 E.06602
;WIDTH:0.550666
G1 X103.716 Y16.321 E.07049
;WIDTH:0.549452
G1 X105.276 Y16.137 E.06616
;WIDTH:0.549662
G1 X106.841 Y16.032 E.06609
;WIDTH:0.549514
G1 X108.497 Y16.001 E.06977
;WIDTH:0.549208
G1 X108.505 Y16.001 E.00034
;WIDTH:0.54977
G1 X110.168 Y16.057 E.07013
;WIDTH:0.549878
G1 X110.175 Y16.057 E.0003
;WIDTH:0.55013
G1 X111.745 Y16.187 E.06644
G1 X113.386 Y16.408 E.06983
;WIDTH:0.549752
G1 X113.394 Y16.409 E.00034
;WIDTH:0.550424
G1 X114.942 Y16.694 E.06642
G1 X116.554 Y17.077 E.06992
;WIDTH:0.548754
G1 X118.063 Y17.513 E.06607
;WIDTH:0.54774
G1 X118.075 Y17.517 E.00053
;WIDTH:0.550972
G1 X119.64 Y18.059 E.06997
;WIDTH:0.551126
G1 X121.096 Y18.643 E.06629
;WIDTH:0.549088
G1 X121.102 Y18.646 E.00028
;WIDTH:0.549898
G1 X122.623 Y19.35 E.07065
;WIDTH:0.550466
G1 X124.015 Y20.075 E.06624
;WIDTH:0.551936
G1 X125.454 Y20.925 E.07074
;WIDTH:0.549798
G1 X126.756 Y21.777 E.06558
G1 X128.103 Y22.764 E.07038
;WIDTH:0.548432
G1 X128.11 Y22.769 E.00036
;WIDTH:0.54857
G1 X129.332 Y23.761 E.06618
;WIDTH:0.552314
G1 X130.573 Y24.878 E.07072
;WIDTH:0.551068
G1 X131.68 Y25.973 E.06579
G1 X132.805 Y27.206 E.07052
;WIDTH:0.549652
G1 X133.804 Y28.416 E.06611
;WIDTH:0.549216
G1 X134.801 Y29.756 E.07031
;WIDTH:0.548968
G1 X134.806 Y29.762 E.00033
;WIDTH:0.54994
G1 X135.676 Y31.059 E.06584
;WIDTH:0.550042
G1 X135.679 Y31.065 E.00028
;WIDTH:0.551402
G1 X136.539 Y32.503 E.07084
;WIDTH:0.550826
G1 X137.28 Y33.886 E.06626
;WIDTH:0.551174
G1 X137.989 Y35.398 E.07058
;WIDTH:0.548774
G1 X138.585 Y36.836 E.06547
G1 X139.143 Y38.411 E.07028
;WIDTH:0.547718
G1 X139.145 Y38.418 E.00031
;WIDTH:0.549708
G1 X139.593 Y39.913 E.06577
;WIDTH:0.54981
G1 X139.595 Y39.92 E.00031
;WIDTH:0.549978
G1 X139.993 Y41.547 E.07062
;WIDTH:0.548386
G1 X140.291 Y43.075 E.06543
;WIDTH:0.548504
G1 X140.293 Y43.082 E.00031
;WIDTH:0.551138
G1 X140.527 Y44.741 E.0708
;WIDTH:0.548516
G1 X140.672 Y46.305 E.06603
;WIDTH:0.549536
G1 X140.736 Y47.864 E.06573
G1 X140.738 Y47.971 E.00451
;WIDTH:0.54928
G1 X140.728 Y49.544 E.06623
;WIDTH:0.550618
G1 X140.63 Y51.198 E.06995
G1 X140.463 Y52.757 E.06619
;WIDTH:0.549648
G1 X140.462 Y52.77 E.00055
;WIDTH:0.549834
G1 X140.198 Y54.414 E.07018
G1 X139.877 Y55.943 E.06585
;WIDTH:0.549276
G1 X139.874 Y55.955 E.00052
;WIDTH:0.549918
G1 X139.45 Y57.557 E.06986
;WIDTH:0.550018
G1 X138.977 Y59.052 E.06612
;WIDTH:0.548376
G1 X138.973 Y59.064 E.00053
;WIDTH:0.55163
G1 X138.387 Y60.629 E.07069
;WIDTH:0.550172
G1 X137.766 Y62.071 E.06622
G1 X137.034 Y63.558 E.06991
;WIDTH:0.547472
G1 X137.031 Y63.564 E.00028
;WIDTH:0.548516
G1 X136.268 Y64.941 E.06618
;WIDTH:0.549154
G1 X135.391 Y66.346 E.06972
;WIDTH:0.549298
G1 X134.498 Y67.636 E.06606
;WIDTH:0.548796
G1 X134.493 Y67.642 E.00033
;WIDTH:0.552202
G1 X133.468 Y68.969 E.07101
;WIDTH:0.549066
G1 X132.452 Y70.164 E.06601
;WIDTH:0.549574
G1 X131.312 Y71.369 E.06988
;WIDTH:0.549682
G1 X130.182 Y72.455 E.06604
;WIDTH:0.546074
G1 X130.173 Y72.464 E.00053
;WIDTH:0.54799
G1 X128.989 Y73.492 E.06585
;WIDTH:0.549484
G1 X127.686 Y74.519 E.06988
G1 X126.405 Y75.426 E.06611
;WIDTH:0.547146
G1 X126.395 Y75.432 E.00049
;WIDTH:0.54979
G1 X124.997 Y76.324 E.06989
G1 X123.632 Y77.097 E.06611
;WIDTH:0.552478
G1 X122.142 Y77.851 E.07075
;WIDTH:0.548308
G1 X122.131 Y77.856 E.00051
;WIDTH:0.548726
G1 X120.696 Y78.491 E.066
;WIDTH:0.550234
G1 X119.149 Y79.087 E.06993
G1 X117.657 Y79.576 E.06623
;WIDTH:0.549764
G1 X117.646 Y79.579 E.00048
;WIDTH:0.550528
G1 X116.035 Y80.023 E.07053
G1 X114.515 Y80.357 E.06569
;WIDTH:0.551384
G1 X112.868 Y80.638 E.07064
;WIDTH:0.550448
G1 X111.31 Y80.821 E.0662
;WIDTH:0.55181
G1 X109.644 Y80.937 E.07067
;WIDTH:0.54972
G1 X107.965 Y80.963 E.07076
;WIDTH:0.549862
G1 X106.406 Y80.914 E.06575
G1 X104.842 Y80.784 E.06615
;WIDTH:0.552232
G1 X103.186 Y80.568 E.07072
;WIDTH:0.5475
G1 X103.173 Y80.566 E.00055
;WIDTH:0.55036
G1 X101.543 Y80.263 E.06995
;WIDTH:0.550488
G1 X100.018 Y79.903 E.06613
;WIDTH:0.548708
G1 X98.509 Y79.466 E.06607
;WIDTH:0.550136
G1 X96.929 Y78.925 E.07043
;WIDTH:0.548594
G1 X96.917 Y78.921 E.00053
;WIDTH:0.54997
G1 X95.367 Y78.297 E.07045
G1 X93.954 Y77.645 E.06561
G1 X92.565 Y76.919 E.06608
;WIDTH:0.551036
G1 X91.122 Y76.078 E.07057
;WIDTH:0.547894
G1 X91.111 Y76.07 E.00057
;WIDTH:0.548148
G1 X89.726 Y75.158 E.06967
;WIDTH:0.54828
G1 X89.719 Y75.153 E.00036
;WIDTH:0.549832
G1 X88.459 Y74.233 E.06576
G1 X87.241 Y73.244 E.06613
;WIDTH:0.550776
G1 X85.994 Y72.135 E.07047
;WIDTH:0.548466
G1 X85.985 Y72.125 E.00057
;WIDTH:0.549656
G1 X84.809 Y70.957 E.06984
;WIDTH:0.549802
G1 X84.803 Y70.951 E.00036
;WIDTH:0.550802
G1 X83.749 Y69.799 E.06594
G1 X82.752 Y68.588 E.06624
;WIDTH:0.551506
G1 X81.75 Y67.254 E.07056
;WIDTH:0.550548
G1 X80.821 Y65.864 E.07057
;WIDTH:0.550034
G1 X80.816 Y65.856 E.0004
;WIDTH:0.550604
G1 X80.005 Y64.509 E.06637
G1 X79.224 Y63.038 E.07031
G1 X78.557 Y61.629 E.06581
;WIDTH:0.549862
G1 X77.958 Y60.176 E.06625
;WIDTH:0.551242
G1 X77.394 Y58.605 E.07055
;WIDTH:0.549554
G1 X77.39 Y58.592 E.00057
;WIDTH:0.550258
G1 X76.914 Y56.992 E.07042
;WIDTH:0.549796
G1 X76.537 Y55.467 E.06621
;WIDTH:0.550258
G1 X76.24 Y53.941 E.06558
G1 X76.001 Y52.288 E.07046
;WIDTH:0.548708
G1 X76 Y52.275 E.00055
;WIDTH:0.552344
G1 X75.851 Y50.613 E.07068
;WIDTH:0.549168
G1 X75.782 Y49.056 E.06561
G1 X75.795 Y47.488 E.06601
;WIDTH:0.547458
G1 X75.795 Y47.476 E.0005
;WIDTH:0.548896
G1 X75.888 Y45.806 E.07037
;WIDTH:0.550098
G1 X76.071 Y44.147 E.07039
;WIDTH:0.549718
G1 X76.316 Y42.596 E.06617
;WIDTH:0.55016
G1 X76.662 Y40.965 E.07032
;WIDTH:0.549928
G1 X77.057 Y39.457 E.06572
G1 X77.531 Y37.962 E.06612
;WIDTH:0.548314
G1 X77.535 Y37.951 E.00049
;WIDTH:0.549096
G1 X78.094 Y36.439 E.06785
; stop printing object Jet Engine-Exhaust-Jet-Expander-4 id:0 copy 0
M106 S255
;LAYER_CHANGE
;Z:0.4
;HEIGHT:0.2
;BEFORE_LAYER_CHANGE
G92 E0
;0.4


;WIPE_START
G1 F7200
G1 X78.115 Y36.383 E-.0142
G1 X78.736 Y34.943 E-.37245
;WIPE_END
G1 E-.41335 F1800
G1 Z.4 F9000
;AFTER_LAYER_CHANGE
;0.4
M104 S205 ; set temperature
M140 S55 ; set bed temperature
G1 X75.419 Y33.406
G1 E.8 F1800
;TYPE:Skirt/Brim
;WIDTH:0.42
G1 F1332
G1 X76.226 Y31.664 E.0602
G1 X78.061 Y28.555 E.11319
G1 X80.197 Y25.644 E.11321
G1 X82.608 Y22.966 E.11298
G1 X85.276 Y20.54 E.11307
G1 X88.172 Y18.39 E.11309
G1 X91.269 Y16.538 E.11314
G1 X94.536 Y15.004 E.11316
G1 X97.937 Y13.805 E.11307
G1 X101.439 Y12.949 E.11304
G1 X105.011 Y12.447 E.1131
G1 X108.615 Y12.303 E.11309
G1 X112.22 Y12.517 E.11323
G1 X115.78 Y13.089 E.11305
G1 X119.262 Y14.013 E.11295
G1 X122.492 Y15.217 E.10808
G1 X125.726 Y16.794 E.11281
G1 X128.796 Y18.691 E.11315
G1 X131.663 Y20.888 E.11325
G1 X134.293 Y23.352 E.113
G1 X136.667 Y26.072 E.1132
G1 X138.756 Y29.009 E.11301
G1 X140.543 Y32.14 E.11303
G1 X142.009 Y35.435 E.11308
G1 X143.141 Y38.863 E.11319
G1 X143.925 Y42.382 E.11304
G1 X144.356 Y45.965 E.11315
G1 X144.428 Y49.567 E.11296
G1 X144.141 Y53.165 E.11317
G1 X143.494 Y56.717 E.1132
G1 X142.498 Y60.185 E.11313
G1 X141.164 Y63.536 E.11309
G1 X139.505 Y66.733 E.11293
G1 X137.529 Y69.756 E.11324
G1 X135.268 Y72.564 E.11304
G1 X132.732 Y75.134 E.11321
G1 X129.962 Y77.437 E.11295
G1 X126.972 Y79.453 E.11307
G1 X123.789 Y81.163 E.11329
G1 X120.461 Y82.547 E.11301
G1 X117.012 Y83.592 E.113
G1 X113.47 Y84.289 E.11319
G1 X109.878 Y84.629 E.11313
G1 X107.83 Y84.66 E.06422
G1 X104.232 Y84.438 E.11303
G1 X100.673 Y83.859 E.11306
G1 X97.188 Y82.926 E.11312
G1 X93.816 Y81.655 E.11299
G1 X90.582 Y80.048 E.11323
G1 X87.528 Y78.132 E.11304
G1 X84.918 Y76.124 E.10325
G1 X82.284 Y73.666 E.11296
G1 X79.905 Y70.951 E.11318
G1 X77.81 Y68.019 E.11299
G1 X76.014 Y64.887 E.1132
G1 X74.542 Y61.598 E.11298
G1 X73.404 Y58.173 E.11316
G1 X72.61 Y54.654 E.11311
G1 X72.175 Y51.075 E.11304
G1 X72.095 Y47.549 E.11058
G1 X72.208 Y45.422 E.06678
G1 X72.692 Y41.85 E.11302
G1 X73.529 Y38.34 E.11314
G1 X74.712 Y34.932 E.11311
G1 X75.394 Y33.46 E.05087
; printing object Jet Engine-Exhaust-Jet-Expander-4 id:0 copy 0
;WIPE_START
G1 F7200
G1 X75.419 Y33.406 E-.01413
G1 X76.226 Y31.664 E-.45596
G1 X76.932 Y30.468 E-.32991
;WIPE_END
G1 X78.085 Y36.37 F9000
G1 E.8 F1800
;TYPE:External perimeter
;WIDTH:0.579434
G1 F1332
G1 X78.664 Y35.034 E.06496
;WIDTH:0.585786
G1 X79.434 Y33.439 E.07995
;WIDTH:0.57802
G1 X79.442 Y33.426 E.00068
;WIDTH:0.578928
G1 X80.301 Y31.89 E.07844
;WIDTH:0.579172
G1 X80.306 Y31.88 E.0005
;WIDTH:0.579884
G1 X81.083 Y30.632 E.06564
G1 X82.092 Y29.188 E.07865
;WIDTH:0.578218
G1 X82.099 Y29.179 E.00051
;WIDTH:0.5803
G1 X82.996 Y28.014 E.0657
;WIDTH:0.580198
G1 X83.943 Y26.908 E.06505
;WIDTH:0.585808
G1 X85.149 Y25.611 E.07995
;WIDTH:0.580152
G1 X86.212 Y24.594 E.06572
;WIDTH:0.586682
G1 X87.54 Y23.424 E.08002
;WIDTH:0.578734
G1 X88.7 Y22.517 E.0656
;WIDTH:0.586068
G1 X90.139 Y21.484 E.08
;WIDTH:0.578768
G1 X90.152 Y21.476 E.00068
;WIDTH:0.58004
G1 X91.642 Y20.539 E.07861
;WIDTH:0.58026
G1 X91.651 Y20.533 E.00048
;WIDTH:0.580556
G1 X92.918 Y19.814 E.06513
G1 X94.232 Y19.156 E.0657
;WIDTH:0.586782
G1 X95.849 Y18.429 E.08018
;WIDTH:0.58081
G1 X95.863 Y18.423 E.00068
;WIDTH:0.580654
G1 X97.223 Y17.904 E.06509
;WIDTH:0.585168
G1 X98.901 Y17.343 E.07977
;WIDTH:0.577916
G1 X98.917 Y17.338 E.00075
;WIDTH:0.579034
G1 X100.617 Y16.882 E.07846
;WIDTH:0.579276
G1 X100.628 Y16.879 E.00051
;WIDTH:0.5795
G1 X102.065 Y16.563 E.06565
G1 X103.8 Y16.277 E.07845
;WIDTH:0.578926
G1 X103.813 Y16.275 E.00059
;WIDTH:0.580008
G1 X105.273 Y16.104 E.06565
;WIDTH:0.586536
G1 X107.042 Y15.996 E.08011
;WIDTH:0.579556
G1 X108.497 Y15.968 E.06494
;WIDTH:0.579742
G1 X108.506 Y15.968 E.0004
;WIDTH:0.586556
G1 X110.282 Y16.036 E.08034
;WIDTH:0.580378
G1 X111.749 Y16.154 E.06577
G1 X113.491 Y16.394 E.07859
;WIDTH:0.580184
G1 X113.502 Y16.396 E.0005
;WIDTH:0.58086
G1 X114.95 Y16.662 E.06585
G1 X116.66 Y17.074 E.07868
;WIDTH:0.579234
G1 X118.072 Y17.481 E.06553
;WIDTH:0.578316
G1 X118.086 Y17.486 E.00066
;WIDTH:0.58124
G1 X119.746 Y18.066 E.07871
;WIDTH:0.581516
G1 X121.108 Y18.613 E.06573
;WIDTH:0.579574
G1 X121.121 Y18.618 E.00062
;WIDTH:0.584688
G1 X122.726 Y19.369 E.07983
;WIDTH:0.580894
G1 X124.031 Y20.046 E.06576
;WIDTH:0.586374
G1 X125.554 Y20.954 E.08012
;WIDTH:0.580208
G1 X126.786 Y21.759 E.06575
G1 X128.202 Y22.802 E.07857
;WIDTH:0.579006
G1 X128.211 Y22.81 E.00054
;WIDTH:0.57916
G1 X129.353 Y23.736 E.06556
;WIDTH:0.580442
G1 X130.447 Y24.716 E.06565
;WIDTH:0.581476
G1 X131.703 Y25.949 E.07882
G1 X132.693 Y27.035 E.06581
;WIDTH:0.586502
G1 X133.829 Y28.395 E.08009
;WIDTH:0.579786
G1 X134.706 Y29.574 E.0656
;WIDTH:0.585944
G1 X135.702 Y31.04 E.08003
;WIDTH:0.580538
G1 X136.461 Y32.3 E.06576
;WIDTH:0.579524
G1 X136.467 Y32.311 E.00056
;WIDTH:0.581218
G1 X137.303 Y33.859 E.07875
G1 X137.931 Y35.189 E.06583
;WIDTH:0.57937
G1 X138.621 Y36.837 E.07969
;WIDTH:0.579258
G1 X139.105 Y38.209 E.06488
;WIDTH:0.58485
G1 X139.625 Y39.903 E.07985
;WIDTH:0.580306
G1 X139.977 Y41.33 E.06568
;WIDTH:0.578124
G1 X139.98 Y41.342 E.00055
;WIDTH:0.578914
G1 X140.323 Y43.068 E.07843
;WIDTH:0.579076
G1 X140.325 Y43.077 E.00041
;WIDTH:0.57927
G1 X140.534 Y44.536 E.06573
;WIDTH:0.579058
G1 X140.704 Y46.289 E.07852
G1 X140.766 Y47.758 E.06555
;WIDTH:0.577878
G1 X140.766 Y47.768 E.00044
;WIDTH:0.579654
G1 X140.761 Y49.546 E.07935
;WIDTH:0.580822
G1 X140.651 Y51.302 E.07869
