; generated by PrusaSlicer 2.7.1+win64 on 2024-05-23 at 12:51:30 UTC

; 

; external perimeters extrusion width = 0.42mm
; perimeters extrusion width = 0.44mm
; infill extrusion width = 0.44mm
; solid infill extrusion width = 0.44mm
; top infill extrusion width = 0.40mm
; support material extrusion width = 0.36mm
; first layer extrusion width = 0.42mm

M201 X500 Y500 Z100 E5000 ; sets maximum accelerations, mm/sec^2
M203 X500 Y500 Z10 E60 ; sets maximum feedrates, mm / sec
M204 S500 T1000 ; sets acceleration (S) and retract acceleration (R), mm/sec^2
M205 X8.00 Y8.00 Z0.40 E5.00 ; sets the jerk limits, mm/sec
M205 S0 T0 ; sets the minimum extruding and travel feed rate, mm/sec

; printing object jet-expander-2 id:0 copy 0
; stop printing object jet-expander-2 id:0 copy 0

;TYPE:Custom
G90 ; use absolute coordinates
M83 ; extruder relative mode
M104 S150 ; set temporary nozzle temp to prevent oozing during homing
M140 S60 ; set final bed temp
G4 S30 ; allow partial nozzle warmup
G28 ; home all axis and restore leveling
G1 Z50 F240
G1 X2.0 Y10 F3000
M104 S215 ; set final nozzle temp
M190 S60 ; wait for bed temp to stabilize
M109 S215 ; wait for nozzle temp to stabilize
G1 Z0.28 F240
G92 E0
G1 X2.0 Y140 E10 F1500 ; prime the nozzle
G1 X2.3 Y140 F5000
G92 E0
G1 X2.3 Y10 E10 F1200 ; prime the nozzle
G92 E0
G21 ; set units to millimeters
G90 ; use absolute coordinates
M83 ; use relative distances for extrusion
; Filament gcode
M107
;LAYER_CHANGE
;Z:0.2
;HEIGHT:0.2
;BEFORE_LAYER_CHANGE
G92 E0
;0.2


G1 E-.8 F1800
G1 Z.2 F9000
;AFTER_LAYER_CHANGE
;0.2
G1 X33.584 Y73.695
G1 Z.2
G1 E.8 F1800
M204 S500
;TYPE:Skirt/Brim
;WIDTH:0.42
G1 F1200
G1 X45.803 Y69.586 E.4042
G1 X46.871 Y69.413 E.03392
G1 X61.919 Y69.413 E.47182
G1 X63.429 Y69.769 E.04864
G1 X76.514 Y76.312 E.4587
G1 X81.127 Y79.385 E.17379
G1 X90.287 Y87.236 E.37826
G1 X91.785 Y88.721 E.06614
G1 X92.418 Y89.599 E.03394
G1 X95.035 Y94.833 E.18348
G1 X95.391 Y96.343 E.04864
G1 X95.391 Y127.093 E.96414
G1 X94.049 Y136.73 E.30508
G1 X93.726 Y137.762 E.03391
G1 X92.207 Y140.742 E.10487
G1 X89.59 Y144.668 E.14794
G1 X87.86 Y146.491 E.0788
G1 X87.262 Y146.967 E.02396
G1 X76.794 Y153.509 E.38704
G1 X71.28 Y156.283 E.19353
G1 X59.061 Y160.392 E.4042
G1 X57.993 Y160.565 E.03392
G1 X42.946 Y160.565 E.47179
G1 X41.435 Y160.209 E.04867
G1 X28.35 Y153.666 E.4587
G1 X23.737 Y150.593 E.17379
G1 X14.578 Y142.742 E.37824
G1 X13.079 Y141.257 E.06616
G1 X12.447 Y140.379 E.03392
G1 X9.83 Y135.145 E.18348
G1 X9.473 Y133.635 E.04865
G1 X9.473 Y102.885 E.96414
G1 X10.816 Y93.248 E.30508
G1 X11.138 Y92.216 E.0339
G1 X12.657 Y89.236 E.10487
G1 X15.274 Y85.31 E.14794
G1 X17.005 Y83.487 E.07882
G1 X17.603 Y83.011 E.02396
G1 X28.071 Y76.469 E.38704
G1 X33.531 Y73.722 E.19164
; printing object jet-expander-2 id:0 copy 0
;WIPE_START
G1 F7200
G1 X33.584 Y73.695 E-.01413
G1 X36.72 Y72.64 E-.78587
;WIPE_END
G1 X61.919 Y74.099 F9000
G1 E.8 F1800
;TYPE:Support material
G1 F1200
G1 X63.227 Y74.099 E.04101
G1 X63.227 Y75.407 E.04101
G1 X64.536 Y75.407 E.04104
G1 X64.536 Y76.716 E.04104
G1 X69.77 Y76.716 E.16411
G1 X69.77 Y78.024 E.04101
G1 X72.387 Y78.024 E.08205
G1 X72.387 Y79.333 E.04104
G1 X75.004 Y79.333 E.08205
G1 X75.004 Y80.641 E.04101
G1 X76.312 Y80.641 E.04101
G1 X76.312 Y81.949 E.04101
G1 X78.929 Y81.949 E.08205
G1 X78.929 Y83.258 E.04104
G1 X80.238 Y83.258 E.04104
G1 X80.238 Y84.566 E.04101
G1 X81.546 Y84.566 E.04101
G1 X81.546 Y85.875 E.04104
G1 X82.855 Y85.875 E.04104
G1 X82.855 Y87.183 E.04101
G1 X84.163 Y87.183 E.04101
G1 X84.163 Y89.8 E.08205
G1 X88.089 Y89.8 E.1231
G1 X88.089 Y91.109 E.04104
G1 X89.397 Y91.109 E.04101
G1 X89.397 Y96.343 E.16411
G1 X92.014 Y96.343 E.08205
G1 X92.014 Y127.093 E.96414
G1 X90.706 Y127.093 E.04101
G1 X90.706 Y136.252 E.28717
G1 X89.397 Y136.252 E.04104
G1 X89.397 Y138.869 E.08205
G1 X86.78 Y138.869 E.08205
G1 X86.78 Y142.795 E.1231
G1 X85.472 Y142.795 E.04101
G1 X85.472 Y144.103 E.04101
G1 X81.546 Y144.103 E.1231
G1 X81.546 Y145.412 E.04104
G1 X80.238 Y145.412 E.04101
G1 X80.238 Y146.72 E.04101
G1 X78.929 Y146.72 E.04104
G1 X78.929 Y148.029 E.04104
G1 X76.312 Y148.029 E.08205
G1 X76.312 Y149.337 E.04101
G1 X75.004 Y149.337 E.04101
G1 X75.004 Y150.646 E.04104
G1 X72.387 Y150.646 E.08205
G1 X72.387 Y151.954 E.04101
G1 X69.77 Y151.954 E.08205
G1 X69.77 Y153.263 E.04104
G1 X64.536 Y153.263 E.16411
G1 X64.536 Y154.571 E.04101
G1 X57.993 Y154.571 E.20515
G1 X57.993 Y157.188 E.08205
G1 X42.946 Y157.188 E.47179
G1 X42.946 Y155.88 E.04101
G1 X41.637 Y155.88 E.04104
G1 X41.637 Y154.571 E.04104
G1 X40.329 Y154.571 E.04101
G1 X40.329 Y153.263 E.04101
G1 X35.095 Y153.263 E.16411
G1 X35.095 Y151.954 E.04104
G1 X32.478 Y151.954 E.08205
G1 X32.478 Y150.646 E.04101
G1 X29.861 Y150.646 E.08205
G1 X29.861 Y149.337 E.04104
G1 X28.552 Y149.337 E.04104
G1 X28.552 Y148.029 E.04101
G1 X25.935 Y148.029 E.08205
G1 X25.935 Y146.72 E.04104
G1 X24.627 Y146.72 E.04101
G1 X24.627 Y145.412 E.04101
G1 X23.318 Y145.412 E.04104
G1 X23.318 Y144.103 E.04104
G1 X22.01 Y144.103 E.04101
G1 X22.01 Y142.795 E.04101
G1 X20.701 Y142.795 E.04104
G1 X20.701 Y140.178 E.08205
G1 X16.776 Y140.178 E.12307
G1 X16.776 Y138.869 E.04104
G1 X15.467 Y138.869 E.04104
G1 X15.467 Y133.635 E.16411
G1 X12.85 Y133.635 E.08205
G1 X12.85 Y102.885 E.96414
G1 X14.159 Y102.885 E.04104
G1 X14.159 Y93.726 E.28717
G1 X15.467 Y93.726 E.04101
G1 X15.467 Y91.109 E.08205
G1 X18.084 Y91.109 E.08205
G1 X18.084 Y87.183 E.1231
G1 X19.393 Y87.183 E.04104
G1 X19.393 Y85.875 E.04101
G1 X23.318 Y85.875 E.12307
G1 X23.318 Y84.566 E.04104
G1 X24.627 Y84.566 E.04104
G1 X24.627 Y83.258 E.04101
G1 X25.935 Y83.258 E.04101
G1 X25.935 Y81.949 E.04104
G1 X28.552 Y81.949 E.08205
G1 X28.552 Y80.641 E.04101
G1 X29.861 Y80.641 E.04104
G1 X29.861 Y79.333 E.04101
G1 X32.478 Y79.333 E.08205
G1 X32.478 Y78.024 E.04104
G1 X35.095 Y78.024 E.08205
G1 X35.095 Y76.716 E.04101
G1 X40.329 Y76.716 E.16411
G1 X40.329 Y75.407 E.04104
G1 X46.871 Y75.407 E.20512
G1 X46.871 Y72.79 E.08205
G1 X61.919 Y72.79 E.47182
G1 X61.919 Y74.042 E.03926
;WIPE_START
G1 F7200
G1 X61.919 Y72.79 E-.29735
G1 X59.803 Y72.79 E-.50265
;WIPE_END
G1 X45.07 Y150.446 F9000
G1 E.8 F1800
G1 F1200
G1 X45.384 Y150.232 E.01191
G1 X49.196 Y150.781 E.12076
G1 X52.371 Y150.927 E.09966
G1 X55.629 Y150.785 E.10225
G1 X58.246 Y150.456 E.0827
G1 X58.553 Y150.681 E.01193
G1 X58.926 Y153.034 E.0747
G1 X58.698 Y153.345 E.01209
G1 X56.838 Y153.601 E.05887
G1 X54.308 Y153.806 E.07959
G1 X52.151 Y153.848 E.06764
G1 X51.8 Y154.664 E.02785
G1 X51.12 Y155.344 E.03015
G1 X50.254 Y155.706 E.02943
G1 X49.292 Y155.714 E.03016
G1 X48.59 Y155.465 E.02335
G1 X47.862 Y154.872 E.02944
G1 X47.477 Y154.233 E.02339
G1 X47.302 Y153.509 E.02335
G1 X44.832 Y153.103 E.07848
G1 X44.615 Y152.784 E.0121
G1 X45.059 Y150.501 E.07292
;WIPE_START
G1 F7200
G1 X44.615 Y152.784 E-.55237
G1 X44.832 Y153.103 E-.09163
G1 X45.48 Y153.21 E-.156
;WIPE_END
G1 X47.526 Y83.912 F9000
G1 E.8 F1800
G1 F1200
G1 X57.339 Y83.912 E.30768
G1 X57.339 Y85.221 E.04104
G1 X61.265 Y85.221 E.1231
G1 X61.265 Y86.529 E.04101
G1 X63.882 Y86.529 E.08205
G1 X63.882 Y87.838 E.04104
G1 X66.499 Y87.838 E.08205
G1 X66.499 Y89.146 E.04101
G1 X69.116 Y89.146 E.08205
G1 X69.116 Y90.455 E.04104
G1 X70.424 Y90.455 E.04101
G1 X70.424 Y91.763 E.04101
G1 X71.733 Y91.763 E.04104
G1 X71.733 Y93.072 E.04104
G1 X73.041 Y93.072 E.04101
G1 X73.041 Y94.38 E.04101
G1 X74.35 Y94.38 E.04104
G1 X74.35 Y95.689 E.04104
G1 X75.658 Y95.689 E.04101
G1 X75.658 Y96.997 E.04101
G1 X76.967 Y96.997 E.04104
G1 X76.967 Y98.306 E.04104
G1 X78.275 Y98.306 E.04101
G1 X78.275 Y100.923 E.08205
G1 X79.584 Y100.923 E.04104
G1 X79.584 Y103.54 E.08205
G1 X80.892 Y103.54 E.04101
G1 X80.892 Y106.157 E.08205
G1 X82.201 Y106.157 E.04104
G1 X82.201 Y110.082 E.12307
G1 X83.509 Y110.082 E.04101
G1 X83.509 Y119.896 E.30771
G1 X82.201 Y119.896 E.04101
G1 X82.201 Y123.821 E.12307
G1 X80.892 Y123.821 E.04104
G1 X80.892 Y126.438 E.08205
G1 X79.584 Y126.438 E.04101
G1 X79.584 Y129.055 E.08205
G1 X78.275 Y129.055 E.04104
G1 X78.275 Y131.672 E.08205
G1 X76.967 Y131.672 E.04101
G1 X76.967 Y132.981 E.04104
G1 X75.658 Y132.981 E.04104
G1 X75.658 Y134.289 E.04101
G1 X74.35 Y134.289 E.04101
G1 X74.35 Y135.598 E.04104
G1 X73.041 Y135.598 E.04104
G1 X73.041 Y136.906 E.04101
G1 X71.733 Y136.906 E.04101
G1 X71.733 Y138.215 E.04104
G1 X70.424 Y138.215 E.04104
G1 X70.424 Y139.523 E.04101
G1 X69.116 Y139.523 E.04101
G1 X69.116 Y140.832 E.04104
G1 X66.499 Y140.832 E.08205
G1 X66.499 Y142.14 E.04101
G1 X63.882 Y142.14 E.08205
G1 X63.882 Y143.449 E.04104
G1 X61.265 Y143.449 E.08205
G1 X61.265 Y144.757 E.04101
G1 X57.339 Y144.757 E.1231
G1 X57.339 Y146.066 E.04104
G1 X47.526 Y146.066 E.30768
G1 X47.526 Y144.757 E.04104
G1 X43.6 Y144.757 E.1231
G1 X43.6 Y143.449 E.04101
G1 X40.983 Y143.449 E.08205
G1 X40.983 Y142.14 E.04104
G1 X38.366 Y142.14 E.08205
G1 X38.366 Y140.832 E.04101
G1 X35.749 Y140.832 E.08205
G1 X35.749 Y139.523 E.04104
G1 X34.441 Y139.523 E.04101
G1 X34.441 Y138.215 E.04101
G1 X33.132 Y138.215 E.04104
G1 X33.132 Y136.906 E.04104
G1 X31.824 Y136.906 E.04101
G1 X31.824 Y135.598 E.04101
G1 X30.515 Y135.598 E.04104
G1 X30.515 Y134.289 E.04104
G1 X29.207 Y134.289 E.04101
G1 X29.207 Y132.981 E.04101
G1 X27.898 Y132.981 E.04104
G1 X27.898 Y131.672 E.04104
G1 X26.59 Y131.672 E.04101
G1 X26.59 Y129.055 E.08205
G1 X25.281 Y129.055 E.04104
G1 X25.281 Y126.438 E.08205
G1 X23.973 Y126.438 E.04101
G1 X23.973 Y123.821 E.08205
G1 X22.664 Y123.821 E.04104
G1 X22.664 Y119.896 E.12307
G1 X21.356 Y119.896 E.04101
G1 X21.356 Y110.082 E.30771
G1 X22.664 Y110.082 E.04101
G1 X22.664 Y106.157 E.12307
G1 X23.973 Y106.157 E.04104
G1 X23.973 Y103.54 E.08205
G1 X25.281 Y103.54 E.04101
G1 X25.281 Y100.923 E.08205
G1 X26.59 Y100.923 E.04104
G1 X26.59 Y98.306 E.08205
G1 X27.898 Y98.306 E.04101
G1 X27.898 Y96.997 E.04104
G1 X29.207 Y96.997 E.04104
G1 X29.207 Y95.689 E.04101
G1 X30.515 Y95.689 E.04101
G1 X30.515 Y94.38 E.04104
G1 X31.824 Y94.38 E.04104
G1 X31.824 Y93.072 E.04101
G1 X33.132 Y93.072 E.04101
G1 X33.132 Y91.763 E.04104
G1 X34.441 Y91.763 E.04104
G1 X34.441 Y90.455 E.04101
G1 X35.749 Y90.455 E.04101
G1 X35.749 Y89.146 E.04104
G1 X38.366 Y89.146 E.08205
G1 X38.366 Y87.838 E.04101
G1 X40.983 Y87.838 E.08205
G1 X40.983 Y86.529 E.04104
G1 X43.6 Y86.529 E.08205
G1 X43.6 Y85.221 E.04101
G1 X47.526 Y85.221 E.1231
G1 X47.526 Y83.969 E.03926
;WIPE_START
G1 F7200
G1 X47.526 Y85.221 E-.29735
G1 X45.41 Y85.221 E-.50265
;WIPE_END
G1 X86.054 Y127.688 F9000
G1 E.8 F1800
G1 F1200
G1 X86.402 Y127.534 E.01193
G1 X88.627 Y128.388 E.07473
G1 X88.782 Y128.741 E.01209
G1 X87.365 Y132.016 E.11188
G1 X85.944 Y134.662 E.09417
G1 X86.359 Y135.163 E.0204
G1 X86.646 Y135.826 E.02265
G1 X86.728 Y136.545 E.02269
G1 X86.598 Y137.256 E.02266
G1 X86.398 Y137.696 E.01515
G1 X85.964 Y138.246 E.02197
G1 X85.152 Y138.76 E.03013
G1 X84.182 Y138.923 E.03084
G1 X83.227 Y138.692 E.03081
G1 X81.639 Y140.628 E.07851
G1 X81.255 Y140.657 E.01207
G1 X79.457 Y139.094 E.0747
G1 X79.429 Y138.715 E.01192
G1 X81.383 Y136.282 E.09784
G1 X83.108 Y133.713 E.09702
G1 X84.679 Y130.854 E.10228
G1 X86.033 Y127.74 E.10647
;WIPE_START
G1 F7200
G1 X84.69 Y130.829 E-.8
;WIPE_END
G1 X16.069 Y127.021 F9000
G1 E.8 F1800
G1 F1200
G1 X18.045 Y126.341 E.06552
G1 X18.387 Y126.506 E.01191
G1 X19.517 Y129.415 E.09785
G1 X20.88 Y132.193 E.09702
G1 X22.569 Y134.983 E.10226
G1 X24.624 Y137.757 E.10824
G1 X24.583 Y138.136 E.01195
G1 X22.731 Y139.635 E.07471
G1 X22.348 Y139.593 E.01208
G1 X21.197 Y138.11 E.05886
G1 X19.754 Y136.022 E.07958
G1 X18.639 Y134.175 E.06765
G1 X17.779 Y134.281 E.02717
G1 X17.05 Y134.126 E.02337
G1 X16.25 Y133.633 E.02946
G1 X15.785 Y133.051 E.02336
G1 X15.48 Y132.163 E.02944
G1 X15.536 Y131.203 E.03015
G1 X15.955 Y130.338 E.03014
G1 X16.507 Y129.806 E.02404
G1 X15.625 Y127.464 E.07847
G1 X15.792 Y127.117 E.01207
G1 X16.015 Y127.04 E.0074
;WIPE_START
G1 F7200
G1 X15.792 Y127.117 E-.05603
G1 X15.625 Y127.464 E-.09146
G1 X16.507 Y129.806 E-.59436
G1 X16.331 Y129.976 E-.05815
;WIPE_END
G1 X80.507 Y91.66 F9000
G1 E.8 F1800
G1 F1200
G1 X82.134 Y90.343 E.06563
G1 X82.517 Y90.385 E.01208
G1 X84.645 Y93.25 E.1119
G1 X86.226 Y95.804 E.09418
G1 X87.086 Y95.698 E.02717
G1 X87.794 Y95.844 E.02267
G1 X88.428 Y96.19 E.02265
G1 X88.936 Y96.705 E.02268
G1 X89.344 Y97.6 E.03084
G1 X89.374 Y98.561 E.03015
G1 X89.034 Y99.46 E.03014
G1 X88.357 Y100.172 E.03081
G1 X89.24 Y102.514 E.07848
G1 X89.073 Y102.861 E.01207
G1 X86.82 Y103.637 E.07471
G1 X86.478 Y103.472 E.01191
G1 X85.348 Y100.563 E.09785
G1 X83.985 Y97.785 E.09702
G1 X82.295 Y94.995 E.10228
G1 X80.241 Y92.221 E.10822
G1 X80.282 Y91.843 E.01192
G1 X80.463 Y91.695 E.00733
;WIPE_START
G1 F7200
G1 X80.282 Y91.843 E-.05553
G1 X80.241 Y92.221 E-.0903
G1 X81.88 Y94.435 E-.65417
;WIPE_END
G1 X23.225 Y89.35 F9000
G1 E.8 F1800
G1 F1200
G1 X23.609 Y89.321 E.01207
G1 X25.407 Y90.884 E.0747
G1 X25.436 Y91.263 E.01192
G1 X23.481 Y93.696 E.09786
G1 X21.757 Y96.265 E.09701
G1 X20.186 Y99.124 E.10228
G1 X18.811 Y102.29 E.10823
G1 X18.462 Y102.444 E.01196
G1 X16.237 Y101.59 E.07473
G1 X16.082 Y101.237 E.01209
G1 X16.791 Y99.499 E.05885
G1 X17.878 Y97.205 E.07959
G1 X18.92 Y95.316 E.06764
G1 X18.399 Y94.624 E.02716
G1 X18.168 Y93.915 E.02338
G1 X18.16 Y93.172 E.0233
G1 X18.455 Y92.302 E.0288
G1 X19.083 Y91.574 E.03015
G1 X19.942 Y91.143 E.03013
G1 X20.901 Y91.073 E.03015
G1 X21.638 Y91.286 E.02405
G1 X23.188 Y89.393 E.07671
;WIPE_START
G1 F7200
G1 X21.638 Y91.286 E-.58107
G1 X20.901 Y91.073 E-.1822
G1 X20.747 Y91.084 E-.03673
;WIPE_END
G1 X55.091 Y74.221 F9000
G1 E.8 F1800
G1 F1200
G1 X56.035 Y74.401 E.03013
G1 X56.839 Y74.929 E.03016
G1 X57.379 Y75.724 E.03013
G1 X57.563 Y76.469 E.02406
G1 X60.033 Y76.875 E.07848
G1 X60.25 Y77.194 E.0121
G1 X59.795 Y79.532 E.07468
G1 X59.481 Y79.747 E.01193
G1 X56.397 Y79.27 E.09785
G1 X53.31 Y79.062 E.09701
G1 X50.049 Y79.13 E.10227
G1 X46.619 Y79.522 E.10825
G1 X46.312 Y79.297 E.01193
G1 X45.939 Y76.944 E.0747
G1 X46.167 Y76.633 E.01209
G1 X49.712 Y76.222 E.1119
G1 X52.714 Y76.13 E.09417
G1 X53.052 Y75.333 E.02714
G1 X53.55 Y74.778 E.02338
G1 X54.171 Y74.407 E.02268
G1 X55.035 Y74.224 E.02769
;WIPE_START
G1 F7200
G1 X54.171 Y74.407 E-.20975
G1 X53.55 Y74.778 E-.1718
G1 X53.052 Y75.333 E-.1771
G1 X52.714 Y76.13 E-.20561
G1 X52.564 Y76.135 E-.03574
;WIPE_END
G1 X91.397 Y126.923 F9000
G1 E.8 F1800
G1 F1200
G1 X91.397 Y96.682 E.94819
G1 X90.978 Y96.682 E.01314
G1 X90.978 Y126.753 E.94286
G1 X90.559 Y126.753 E.01314
G1 X90.559 Y96.682 E.94286
G1 X90.14 Y96.682 E.01314
G1 X90.14 Y135.913 E1.23006
G1 X89.721 Y135.913 E.01314
G1 X89.721 Y96.513 E1.23536
G1 X89.302 Y136.082 F9000
G1 F1200
G1 X89.302 Y103.141 E1.03284
G1 X88.883 Y103.285 E.01389
G1 X88.883 Y128.127 E.7789
G1 X88.464 Y127.962 E.01412
G1 X88.464 Y103.43 E.76918
G1 X88.045 Y103.574 E.01389
G1 X88.045 Y127.801 E.75962
G1 X87.626 Y127.64 E.01407
G1 X87.626 Y103.718 E.75006
G1 X87.207 Y103.863 E.0139
G1 X87.207 Y127.48 E.74049
G1 X86.788 Y127.319 E.01407
G1 X86.788 Y103.999 E.73118
G1 X86.369 Y103.797 E.01458
G1 X86.369 Y127.178 E.73309
G1 X85.95 Y127.362 E.01435
G1 X85.95 Y103.003 E.76376
G1 X85.531 Y101.889 E.03732
G1 X85.531 Y128.087 E.82142
G1 X85.113 Y129.102 E.03442
G1 X85.113 Y100.877 E.88498
G1 X84.694 Y99.942 E.03213
G1 X84.694 Y130.036 E.94358
G1 X84.275 Y130.901 E.03014
G1 X84.275 Y99.078 E.99779
G1 X83.856 Y98.266 E.02865
G1 X83.856 Y131.713 E1.04871
G1 X83.437 Y132.477 E.02732
G1 X83.437 Y120.235 E.38384
G1 X83.018 Y120.235 E.01314
G1 X83.018 Y133.2 E.40651
G1 X82.599 Y133.886 E.0252
G1 X82.599 Y120.235 E.42802
G1 X82.54 Y120.235 E.00185
G1 X82.54 Y124.161 E.1231
G1 X82.18 Y124.161 E.01129
G1 X82.18 Y134.539 E.32539
G1 X81.761 Y135.163 E.02357
G1 X81.761 Y124.161 E.34496
G1 X81.342 Y124.161 E.01314
G1 X81.342 Y135.759 E.36365
G1 X80.923 Y136.33 E.02221
G1 X80.923 Y126.778 E.2995
G1 X80.504 Y126.778 E.01314
G1 X80.504 Y136.878 E.31668
G1 X80.085 Y137.405 E.02111
G1 X80.085 Y126.778 E.3332
G1 X79.923 Y126.778 E.00508
G1 X79.923 Y129.395 E.08205
G1 X79.666 Y129.395 E.00806
G1 X79.666 Y138.175 E.27529
G1 X89.302 Y102.182 F9000
G1 F1200
