; generated by PrusaSlicer 2.7.1+win64 on 2024-05-18 at 08:11:17 UTC

; 

; external perimeters extrusion width = 0.42mm
; perimeters extrusion width = 0.44mm
; infill extrusion width = 0.44mm
; solid infill extrusion width = 0.44mm
; top infill extrusion width = 0.40mm
; support material extrusion width = 0.36mm
; first layer extrusion width = 0.42mm

M201 X500 Y500 Z100 E5000 ; sets maximum accelerations, mm/sec^2
M203 X500 Y500 Z10 E60 ; sets maximum feedrates, mm / sec
M204 S500 T1000 ; sets acceleration (S) and retract acceleration (R), mm/sec^2
M205 X8.00 Y8.00 Z0.40 E5.00 ; sets the jerk limits, mm/sec
M205 S0 T0 ; sets the minimum extruding and travel feed rate, mm/sec

; printing object transformer-3 id:0 copy 0
; stop printing object transformer-3 id:0 copy 0

;TYPE:Custom
G90 ; use absolute coordinates
M83 ; extruder relative mode
M104 S150 ; set temporary nozzle temp to prevent oozing during homing
M140 S60 ; set final bed temp
G4 S30 ; allow partial nozzle warmup
G28 ; home all axis and restore leveling
G1 Z50 F240
G1 X2.0 Y10 F3000
M104 S215 ; set final nozzle temp
M190 S60 ; wait for bed temp to stabilize
M109 S215 ; wait for nozzle temp to stabilize
G1 Z0.28 F240
G92 E0
G1 X2.0 Y140 E10 F1500 ; prime the nozzle
G1 X2.3 Y140 F5000
G92 E0
G1 X2.3 Y10 E10 F1200 ; prime the nozzle
G92 E0
G21 ; set units to millimeters
G90 ; use absolute coordinates
M83 ; use relative distances for extrusion
; Filament gcode
M107
;LAYER_CHANGE
;Z:0.2
;HEIGHT:0.2
;BEFORE_LAYER_CHANGE
G92 E0
;0.2


G1 E-.8 F1800
G1 Z.2 F9000
;AFTER_LAYER_CHANGE
;0.2
G1 X168.533 Y100.098
G1 Z.2
G1 E.8 F1800
M204 S500
;TYPE:Skirt/Brim
;WIDTH:0.42
G1 F1200
G1 X169.614 Y98.35 E.06444
G1 X170.864 Y96.72 E.06441
G1 X172.271 Y95.222 E.06444
G1 X173.821 Y93.873 E.06443
G1 X175.498 Y92.685 E.06444
G1 X177.285 Y91.672 E.06441
G1 X179.08 Y90.875 E.06158
G1 X181.03 Y90.229 E.06441
G1 X183.036 Y89.782 E.06444
G1 X185.076 Y89.538 E.06442
G1 X187.101 Y89.498 E.0635
G1 X188.59 Y89.596 E.04679
G1 X190.621 Y89.909 E.06443
G1 X192.61 Y90.423 E.06441
G1 X194.539 Y91.134 E.06446
G1 X196.386 Y92.034 E.06442
G1 X198.134 Y93.114 E.06442
G1 X199.765 Y94.364 E.06443
G1 X201.262 Y95.771 E.06442
G1 X202.612 Y97.321 E.06445
G1 X203.749 Y98.921 E.06154
G1 X204.771 Y100.704 E.06444
G1 X205.609 Y102.58 E.06442
G1 X206.255 Y104.531 E.06444
G1 X206.702 Y106.537 E.06444
G1 X206.947 Y108.577 E.06442
G1 X206.986 Y110.632 E.06444
G1 X206.819 Y112.68 E.06443
G1 X206.575 Y114.122 E.04586
G1 X206.061 Y116.111 E.06441
G1 X205.351 Y118.039 E.06442
G1 X204.45 Y119.887 E.06446
G1 X203.37 Y121.634 E.0644
G1 X202.12 Y123.265 E.06443
G1 X200.713 Y124.763 E.06444
G1 X199.163 Y126.112 E.06443
G1 X197.486 Y127.3 E.06444
G1 X195.698 Y128.313 E.06443
G1 X193.818 Y129.143 E.06444
G1 X191.953 Y129.756 E.06155
G1 X189.947 Y130.203 E.06444
G1 X187.907 Y130.447 E.06442
G1 X185.853 Y130.486 E.06441
G1 X183.804 Y130.319 E.06446
G1 X182.363 Y130.076 E.04582
G1 X180.373 Y129.562 E.06444
G1 X178.445 Y128.851 E.06443
G1 X176.598 Y127.951 E.06442
G1 X174.85 Y126.871 E.06442
G1 X173.219 Y125.621 E.06443
G1 X171.721 Y124.213 E.06446
G1 X170.372 Y122.664 E.0644
G1 X169.185 Y120.986 E.06445
G1 X168.171 Y119.199 E.06442
G1 X167.341 Y117.319 E.06444
G1 X166.729 Y115.454 E.06154
G1 X166.281 Y113.448 E.06445
G1 X166.037 Y111.408 E.06442
G1 X165.998 Y109.353 E.06444
G1 X166.165 Y107.305 E.06443
G1 X166.536 Y105.284 E.06443
G1 X167.107 Y103.31 E.06443
G1 X167.645 Y101.919 E.04676
G1 X168.507 Y100.152 E.06164
G1 X168.845 Y100.317 F9000
G1 F1200
G1 X168.861 Y100.285 E.00112
G1 X169.921 Y98.569 E.06324
G1 X171.148 Y96.968 E.06325
G1 X172.528 Y95.497 E.06324
G1 X173.987 Y94.222 E.06075
G1 X175.628 Y93.049 E.06325
G1 X177.379 Y92.047 E.06325
G1 X179.221 Y91.225 E.06324
G1 X181.136 Y90.591 E.06325
G1 X183.105 Y90.153 E.06325
G1 X185.108 Y89.913 E.06325
G1 X187.095 Y89.875 E.06231
G1 X188.546 Y89.971 E.04559
G1 X190.54 Y90.277 E.06325
G1 X192.493 Y90.781 E.06324
G1 X194.386 Y91.478 E.06325
G1 X196.199 Y92.361 E.06323
G1 X197.915 Y93.422 E.06326
G1 X199.516 Y94.648 E.06323
G1 X200.987 Y96.029 E.06326
G1 X202.312 Y97.55 E.06325
G1 X203.478 Y99.196 E.06325
G1 X204.437 Y100.88 E.06076
G1 X205.259 Y102.722 E.06324
G1 X205.893 Y104.637 E.06325
G1 X206.332 Y106.606 E.06325
G1 X206.571 Y108.609 E.06325
G1 X206.609 Y110.625 E.06322
G1 X206.444 Y112.636 E.06327
G1 X206.207 Y114.04 E.04464
G1 X205.703 Y115.993 E.06324
G1 X205.006 Y117.886 E.06325
G1 X204.123 Y119.7 E.06326
G1 X203.063 Y121.416 E.06324
G1 X201.836 Y123.017 E.06325
G1 X200.455 Y124.488 E.06326
G1 X198.996 Y125.763 E.06075
G1 X197.355 Y126.936 E.06325
G1 X195.605 Y127.938 E.06323
G1 X193.763 Y128.76 E.06324
G1 X191.847 Y129.394 E.06328
G1 X189.879 Y129.832 E.06322
G1 X187.876 Y130.072 E.06325
G1 X185.859 Y130.109 E.06325
G1 X183.848 Y129.945 E.06326
G1 X182.444 Y129.708 E.04464
G1 X180.491 Y129.204 E.06324
G1 X178.598 Y128.507 E.06325
G1 X176.784 Y127.624 E.06326
G1 X175.068 Y126.563 E.06326
G1 X173.467 Y125.337 E.06323
G1 X171.997 Y123.956 E.06324
G1 X170.672 Y122.435 E.06325
G1 X169.506 Y120.789 E.06325
G1 X168.51 Y119.034 E.06327
G1 X167.696 Y117.189 E.06323
G1 X167.091 Y115.348 E.06076
G1 X166.652 Y113.379 E.06325
G1 X166.413 Y111.376 E.06325
G1 X166.375 Y109.36 E.06322
G1 X166.539 Y107.349 E.06326
G1 X166.776 Y105.945 E.04464
G1 X167.28 Y103.991 E.06327
G1 X167.978 Y102.099 E.06323
G1 X168.819 Y100.371 E.06026
; printing object transformer-3 id:0 copy 0
;WIPE_START
G1 F7200
G1 X168.845 Y100.317 E-.01423
G1 X168.861 Y100.285 E-.0085
G1 X169.921 Y98.569 E-.47904
G1 X170.685 Y97.572 E-.29823
;WIPE_END
G1 X171.603 Y102.46 F9000
G1 E.8 F1800
;TYPE:Perimeter
;WIDTH:0.419999
G1 F1200
G1 X172.131 Y101.496 E.03446
G1 X172.74 Y100.543 E.03546
G1 X173.07 Y100.08 E.01783
G1 X173.754 Y99.214 E.0346
G1 X174.13 Y98.786 E.01786
G1 X174.897 Y97.994 E.03457
G1 X175.314 Y97.605 E.01788
G1 X176.151 Y96.898 E.03435
G1 X177.033 Y96.247 E.03437
G1 X178.005 Y95.627 E.03615
G1 X178.973 Y95.097 E.0346
G1 X179.486 Y94.85 E.01785
G1 X180.502 Y94.419 E.0346
G1 X181.037 Y94.224 E.01785
G1 X182.086 Y93.899 E.03443
G1 X182.882 Y93.705 E.02569
G1 X183.722 Y93.538 E.02685
G1 X184.26 Y93.457 E.01706
G1 X185.385 Y93.344 E.03545
G1 X185.926 Y93.317 E.01698
G1 X187.022 Y93.316 E.03436
G1 X188.17 Y93.392 E.03607
G1 X188.708 Y93.455 E.01698
G1 X189.815 Y93.642 E.0352
G1 X190.882 Y93.895 E.03438
G1 X191.436 Y94.056 E.01809
G1 X191.957 Y94.227 E.01719
G1 X193.013 Y94.634 E.03548
G1 X193.508 Y94.854 E.01698
G1 X194.517 Y95.364 E.03545
G1 X195.011 Y95.646 E.01784
G1 X195.935 Y96.236 E.03437
G1 X196.839 Y96.903 E.03522
G1 X197.258 Y97.245 E.01696
G1 X198.097 Y98.004 E.03547
G1 X198.879 Y98.814 E.0353
G1 X199.591 Y99.658 E.03462
G1 X199.92 Y100.088 E.01698
G1 X200.614 Y101.109 E.03871
G1 X200.893 Y101.573 E.01698
G1 X201.435 Y102.575 E.03572
G1 X201.771 Y103.298 E.025
G1 X202.096 Y104.093 E.02693
G1 X202.454 Y105.136 E.03458
G1 X202.601 Y105.655 E.01691
G1 X202.859 Y106.755 E.03543
G1 X202.955 Y107.281 E.01676
G1 X203.057 Y108.052 E.02438
G1 X203.145 Y108.967 E.02882
G1 X203.168 Y109.508 E.01698
G1 X203.168 Y110.55 E.03267
G1 X203.093 Y111.671 E.03523
G1 X203.029 Y112.208 E.01696
G1 X202.841 Y113.324 E.03548
G1 X202.587 Y114.393 E.03445
G1 X202.251 Y115.473 E.03546
G1 X202.065 Y115.982 E.01699
G1 X201.627 Y117.016 E.03521
G1 X201.12 Y118.018 E.03521
G1 X200.852 Y118.489 E.01699
G1 X200.243 Y119.442 E.03546
G1 X199.93 Y119.884 E.01698
G1 X199.229 Y120.771 E.03545
G1 X198.491 Y121.586 E.03447
G1 X197.684 Y122.367 E.03521
G1 X196.826 Y123.092 E.03522
G1 X196.396 Y123.421 E.01698
G1 X195.47 Y124.056 E.0352
G1 X194.503 Y124.629 E.03524
G1 X193.523 Y125.124 E.03442
G1 X192.481 Y125.566 E.03549
G1 X191.973 Y125.752 E.01696
G1 X190.9 Y126.085 E.03523
G1 X189.807 Y126.345 E.03523
G1 X189.267 Y126.446 E.01722
G1 X188.724 Y126.528 E.01722
G1 X187.598 Y126.641 E.03548
G1 X187.057 Y126.668 E.01698
G1 X185.934 Y126.668 E.03521
G1 X184.814 Y126.593 E.0352
G1 X184.276 Y126.53 E.01698
G1 X183.16 Y126.342 E.03548
G1 X182.632 Y126.225 E.01696
G1 X181.541 Y125.927 E.03546
G1 X181.026 Y125.757 E.017
G1 X179.97 Y125.351 E.03547
G1 X179.468 Y125.128 E.01722
G1 X178.974 Y124.888 E.01722
G1 X177.989 Y124.349 E.03521
G1 X177.042 Y123.744 E.03523
G1 X176.601 Y123.43 E.01697
G1 X175.713 Y122.729 E.03547
G1 X175.299 Y122.367 E.01724
G1 X174.898 Y121.992 E.01721
G1 X174.117 Y121.185 E.03521
G1 X173.392 Y120.327 E.03522
G1 X173.063 Y119.897 E.01698
G1 X172.423 Y118.964 E.03547
G1 X172.14 Y118.503 E.01696
G1 X171.596 Y117.511 E.03547
G1 X171.36 Y117.023 E.017
G1 X170.921 Y115.989 E.03522
G1 X170.561 Y114.954 E.03436
G1 X170.401 Y114.408 E.01784
G1 X170.139 Y113.308 E.03545
G1 X170.038 Y112.768 E.01722
G1 X169.956 Y112.224 E.01725
G1 X169.843 Y111.099 E.03545
G1 X169.816 Y110.558 E.01698
G1 X169.816 Y109.427 E.03546
G1 X169.843 Y108.886 E.01698
G1 X169.955 Y107.769 E.0352
G1 X170.142 Y106.661 E.03523
G1 X170.261 Y106.124 E.01725
G1 X170.397 Y105.592 E.01722
G1 X170.729 Y104.52 E.03519
G1 X171.141 Y103.454 E.03583
G1 X171.578 Y102.515 E.03247
G1 X171.265 Y102.293 F9000
G1 F1200
G1 X171.808 Y101.301 E.03546
G1 X172.427 Y100.332 E.03605
G1 X172.769 Y99.853 E.01845
G1 X173.465 Y98.973 E.03518
G1 X173.853 Y98.531 E.01844
G1 X174.633 Y97.724 E.03519
G1 X175.063 Y97.323 E.01844
G1 X175.917 Y96.602 E.03504
G1 X176.817 Y95.938 E.03507
G1 X177.816 Y95.301 E.03715
G1 X178.8 Y94.762 E.03518
G1 X179.33 Y94.506 E.01845
G1 X180.363 Y94.068 E.03518
G1 X180.916 Y93.867 E.01845
G1 X181.985 Y93.536 E.03509
G1 X182.8 Y93.336 E.02631
G1 X183.657 Y93.167 E.02739
G1 X184.213 Y93.083 E.01763
G1 X185.357 Y92.968 E.03605
G1 X185.917 Y92.939 E.01758
G1 X187.034 Y92.939 E.03502
G1 X188.205 Y93.016 E.0368
G1 X188.761 Y93.081 E.01755
G1 X189.89 Y93.272 E.0359
G1 X190.978 Y93.53 E.03506
G1 X191.547 Y93.696 E.01858
G1 X192.084 Y93.872 E.01772
G1 X193.157 Y94.286 E.03606
G1 X193.67 Y94.513 E.01759
G1 X194.696 Y95.031 E.03604
G1 X195.206 Y95.324 E.01844
G1 X196.148 Y95.925 E.03503
G1 X197.07 Y96.605 E.03592
G1 X197.504 Y96.959 E.01756
G1 X198.357 Y97.731 E.03607
G1 X199.161 Y98.564 E.0363
G1 X199.886 Y99.422 E.03522
G1 X200.226 Y99.867 E.01756
G1 X200.935 Y100.911 E.03957
G1 X201.224 Y101.392 E.01759
G1 X201.776 Y102.414 E.03642
G1 X202.119 Y103.153 E.02554
G1 X202.452 Y103.969 E.02763
G1 X202.816 Y105.03 E.03517
G1 X202.968 Y105.568 E.01753
G1 X203.23 Y106.686 E.036
G1 X203.327 Y107.224 E.01714
G1 X203.432 Y108.014 E.02499
G1 X203.521 Y108.948 E.02942
G1 X203.545 Y109.508 E.01757
G1 X203.545 Y110.563 E.03308
G1 X203.468 Y111.705 E.03589
G1 X203.403 Y112.262 E.01758
G1 X203.212 Y113.396 E.03606
G1 X202.95 Y114.496 E.03545
G1 X202.609 Y115.594 E.03605
G1 X202.416 Y116.12 E.01757
G1 X201.969 Y117.175 E.03593
G1 X201.453 Y118.197 E.0359
G1 X201.175 Y118.684 E.01758
G1 X200.556 Y119.653 E.03605
G1 X200.231 Y120.11 E.01758
G1 X199.519 Y121.012 E.03603
G1 X198.76 Y121.851 E.03547
G1 X197.937 Y122.647 E.0359
G1 X197.063 Y123.386 E.03589
G1 X196.617 Y123.726 E.01758
G1 X195.673 Y124.374 E.0359
G1 X194.688 Y124.958 E.0359
G1 X193.678 Y125.468 E.03548
G1 X192.62 Y125.917 E.03604
G1 X192.093 Y126.11 E.0176
G1 X191 Y126.449 E.03588
G1 X189.886 Y126.714 E.0359
G1 X189.33 Y126.818 E.01774
G1 X188.771 Y126.902 E.01772
G1 X187.626 Y127.017 E.03608
G1 X187.067 Y127.046 E.01755
G1 X185.922 Y127.046 E.0359
G1 X184.779 Y126.969 E.03592
G1 X184.222 Y126.904 E.01758
G1 X183.088 Y126.712 E.03606
G1 X182.541 Y126.592 E.01756
G1 X181.432 Y126.288 E.03605
G1 X180.899 Y126.113 E.01759
G1 X179.826 Y125.699 E.03606
G1 X179.309 Y125.47 E.01773
G1 X178.801 Y125.224 E.0177
G1 X177.796 Y124.673 E.03594
G1 X176.831 Y124.057 E.0359
G1 X176.374 Y123.732 E.01758
G1 X175.472 Y123.019 E.03605
G1 X175.046 Y122.647 E.01773
G1 X174.633 Y122.261 E.01772
G1 X173.837 Y121.438 E.0359
G1 X173.098 Y120.563 E.03591
G1 X172.758 Y120.118 E.01756
G1 X172.107 Y119.17 E.03606
G1 X171.813 Y118.692 E.0176
G1 X171.261 Y117.684 E.03603
G1 X171.016 Y117.179 E.0176
G1 X170.569 Y116.125 E.0359
G1 X170.202 Y115.069 E.03505
G1 X170.036 Y114.505 E.01843
G1 X169.77 Y113.386 E.03606
G1 X169.667 Y112.831 E.0177
G1 X169.582 Y112.272 E.01773
G1 X169.467 Y111.127 E.03608
G1 X169.439 Y110.568 E.01755
G1 X169.439 Y109.417 E.03609
G1 X169.467 Y108.858 E.01755
G1 X169.581 Y107.718 E.03592
G1 X169.772 Y106.589 E.0359
G1 X169.894 Y106.037 E.01773
G1 X170.034 Y105.489 E.01773
G1 X170.373 Y104.396 E.03588
G1 X170.794 Y103.306 E.03664
G1 X171.24 Y102.347 E.03316
G1 X170.927 Y102.125 F9000
;TYPE:External perimeter
G1 F1200
G1 X171.486 Y101.106 E.03644
G1 X172.114 Y100.121 E.03663
G1 X172.467 Y99.627 E.01904
G1 X173.175 Y98.732 E.03578
G1 X173.575 Y98.275 E.01904
G1 X174.369 Y97.455 E.03579
G1 X174.813 Y97.041 E.01903
G1 X175.683 Y96.306 E.03571
G1 X176.6 Y95.629 E.03574
G1 X177.627 Y94.974 E.03819
G1 X178.628 Y94.426 E.03578
G1 X179.174 Y94.162 E.01902
G1 X180.225 Y93.717 E.03579
G1 X180.796 Y93.509 E.01905
G1 X181.885 Y93.172 E.03574
G1 X182.719 Y92.968 E.02692
G1 X183.592 Y92.795 E.0279
G1 X184.166 Y92.708 E.0182
G1 X185.329 Y92.591 E.03665
G1 X185.907 Y92.562 E.01815
G1 X187.047 Y92.562 E.03574
G1 X188.239 Y92.64 E.03745
G1 X188.815 Y92.708 E.01819
G1 X189.966 Y92.902 E.0366
G1 X191.074 Y93.166 E.03571
G1 X191.659 Y93.336 E.0191
G1 X192.211 Y93.517 E.01821
G1 X193.302 Y93.937 E.03665
G1 X193.831 Y94.172 E.01815
G1 X194.874 Y94.699 E.03664
G1 X195.402 Y95.001 E.01907
G1 X196.362 Y95.614 E.03571
G1 X197.302 Y96.307 E.03662
G1 X197.75 Y96.673 E.01814
G1 X198.617 Y97.457 E.03665
G1 X199.443 Y98.314 E.03732
G1 X200.18 Y99.185 E.03577
G1 X200.531 Y99.646 E.01817
G1 X201.257 Y100.714 E.04049
G1 X201.555 Y101.21 E.01814
G1 X202.117 Y102.254 E.03718
G1 X202.467 Y103.008 E.02606
G1 X202.808 Y103.846 E.02837
G1 X203.178 Y104.924 E.03574
G1 X203.335 Y105.481 E.01814
G1 X203.601 Y106.617 E.03658
G1 X203.7 Y107.168 E.01755
G1 X203.807 Y107.977 E.02559
G1 X203.898 Y108.929 E.02999
G1 X203.922 Y109.508 E.01817
G1 X203.922 Y110.575 E.03345
G1 X203.844 Y111.74 E.03661
G1 X203.776 Y112.315 E.01815
G1 X203.582 Y113.468 E.03666
G1 X203.312 Y114.598 E.03643
G1 X202.966 Y115.715 E.03666
G1 X202.767 Y116.259 E.01816
G1 X202.311 Y117.334 E.03661
G1 X201.785 Y118.375 E.03657
G1 X201.498 Y118.879 E.01819
G1 X200.869 Y119.864 E.03664
G1 X200.533 Y120.336 E.01817
G1 X199.809 Y121.254 E.03666
G1 X199.029 Y122.115 E.03643
G1 X198.19 Y122.927 E.03661
G1 X197.299 Y123.68 E.03658
G1 X196.838 Y124.032 E.01819
G1 X195.876 Y124.692 E.03658
G1 X194.872 Y125.287 E.03659
G1 X193.834 Y125.811 E.03646
G1 X192.758 Y126.268 E.03665
G1 X192.214 Y126.467 E.01816
G1 X191.099 Y126.813 E.0366
G1 X189.964 Y127.083 E.03658
G1 X189.393 Y127.189 E.01821
G1 X188.818 Y127.277 E.01824
G1 X187.655 Y127.394 E.03665
G1 X187.076 Y127.423 E.01818
G1 X185.909 Y127.423 E.03659
G1 X184.744 Y127.345 E.03661
G1 X184.169 Y127.277 E.01815
G1 X183.016 Y127.083 E.03666
G1 X182.451 Y126.958 E.01814
G1 X181.323 Y126.649 E.03667
G1 X180.773 Y126.468 E.01815
G1 X179.682 Y126.048 E.03665
G1 X179.151 Y125.812 E.01822
G1 X178.628 Y125.559 E.01822
G1 X177.604 Y124.998 E.03661
G1 X176.62 Y124.37 E.0366
G1 X176.148 Y124.034 E.01817
G1 X175.231 Y123.309 E.03665
G1 X174.793 Y122.927 E.01822
G1 X174.369 Y122.53 E.01821
G1 X173.557 Y121.691 E.03661
G1 X172.804 Y120.799 E.0366
G1 X172.452 Y120.339 E.01816
G1 X171.791 Y119.375 E.03665
G1 X171.487 Y118.882 E.01816
G1 X170.925 Y117.856 E.03668
G1 X170.673 Y117.335 E.01815
G1 X170.217 Y116.261 E.03658
G1 X169.843 Y115.184 E.03575
G1 X169.672 Y114.602 E.01902
G1 X169.401 Y113.465 E.03665
G1 X169.295 Y112.893 E.01824
G1 X169.208 Y112.319 E.0182
G1 X169.091 Y111.156 E.03665
G1 X169.062 Y110.577 E.01818
G1 X169.062 Y109.408 E.03665
G1 X169.091 Y108.829 E.01818
G1 X169.207 Y107.668 E.03658
G1 X169.402 Y106.517 E.0366
G1 X169.527 Y105.95 E.0182
G1 X169.671 Y105.387 E.01822
G1 X170.017 Y104.272 E.0366
G1 X170.447 Y103.159 E.03741
G1 X170.902 Y102.18 E.03385
;WIPE_START
G1 F7200
G1 X170.927 Y102.125 E-.01435
G1 X171.486 Y101.106 E-.27604
G1 X172.114 Y100.121 E-.27744
G1 X172.467 Y99.627 E-.1442
G1 X172.697 Y99.336 E-.08797
;WIPE_END
G1 X176.623 Y107.668 F9000
