; generated by PrusaSlicer 2.7.1+win64 on 2024-05-18 at 15:58:27 UTC

; 

; external perimeters extrusion width = 0.42mm
; perimeters extrusion width = 0.44mm
; infill extrusion width = 0.44mm
; solid infill extrusion width = 0.44mm
; top infill extrusion width = 0.40mm
; support material extrusion width = 0.36mm
; first layer extrusion width = 0.42mm

M201 X500 Y500 Z100 E5000 ; sets maximum accelerations, mm/sec^2
M203 X500 Y500 Z10 E60 ; sets maximum feedrates, mm / sec
M204 S500 T1000 ; sets acceleration (S) and retract acceleration (R), mm/sec^2
M205 X8.00 Y8.00 Z0.40 E5.00 ; sets the jerk limits, mm/sec
M205 S0 T0 ; sets the minimum extruding and travel feed rate, mm/sec

; printing object tool-1 id:0 copy 0
; stop printing object tool-1 id:0 copy 0

;TYPE:Custom
G90 ; use absolute coordinates
M83 ; extruder relative mode
M104 S150 ; set temporary nozzle temp to prevent oozing during homing
M140 S60 ; set final bed temp
G4 S30 ; allow partial nozzle warmup
G28 ; home all axis and restore leveling
G1 Z50 F240
G1 X2.0 Y10 F3000
M104 S215 ; set final nozzle temp
M190 S60 ; wait for bed temp to stabilize
M109 S215 ; wait for nozzle temp to stabilize
G1 Z0.28 F240
G92 E0
G1 X2.0 Y140 E10 F1500 ; prime the nozzle
G1 X2.3 Y140 F5000
G92 E0
G1 X2.3 Y10 E10 F1200 ; prime the nozzle
G92 E0
G21 ; set units to millimeters
G90 ; use absolute coordinates
M83 ; use relative distances for extrusion
; Filament gcode
M107
;LAYER_CHANGE
;Z:0.2
;HEIGHT:0.2
;BEFORE_LAYER_CHANGE
G92 E0
;0.2


G1 E-.8 F1800
G1 Z.2 F9000
;AFTER_LAYER_CHANGE
;0.2
G1 X14.143 Y92.201
G1 Z.2
G1 E.8 F1800
M204 S500
;TYPE:Skirt/Brim
;WIDTH:0.42
G1 F1200
G1 X40.967 Y92.201 E.84105
G1 X42.643 Y92.596 E.05399
G1 X44.273 Y94.175 E.07116
G1 X46.563 Y98.428 E.15145
G1 X47.011 Y100.208 E.05755
G1 X46.969 Y102.079 E.05868
G1 X45.038 Y114.813 E.40383
G1 X44.397 Y116.411 E.05398
G1 X43.11 Y117.554 E.05397
G1 X41.326 Y118.004 E.05769
G1 X37.672 Y118.004 E.11457
G1 X36.714 Y117.88 E.03029
G1 X14.494 Y112.016 E.72055
G1 X12.797 Y111.04 E.06138
G1 X11.489 Y109.732 E.058
G1 X10.583 Y108.268 E.05398
G1 X10.389 Y107.077 E.03784
G1 X10.389 Y95.955 E.34872
G1 X10.784 Y94.28 E.05396
G1 X11.885 Y92.956 E.05399
G1 X14.086 Y92.22 E.07277
G1 X14.143 Y92.578 F9000
G1 F1200
G1 X40.967 Y92.578 E.84105
G1 X42.551 Y92.972 E.05118
G1 X43.941 Y94.354 E.06146
G1 X46.231 Y98.607 E.15145
G1 X46.634 Y100.208 E.05176
G1 X46.596 Y102.023 E.05692
G1 X44.665 Y114.756 E.4038
G1 X44.038 Y116.263 E.05118
G1 X42.778 Y117.299 E.05115
G1 X41.326 Y117.627 E.04667
G1 X37.672 Y117.627 E.11457
G1 X36.811 Y117.515 E.02722
G1 X14.59 Y111.651 E.72058
G1 X13.064 Y110.774 E.05519
G1 X11.755 Y109.465 E.05804
G1 X10.914 Y108.067 E.05115
G1 X10.766 Y107.077 E.03139
G1 X10.766 Y95.955 E.34872
G1 X11.16 Y94.372 E.05115
G1 X12.25 Y93.158 E.05116
G1 X14.086 Y92.596 E.0602
; printing object tool-1 id:0 copy 0
;WIPE_START
G1 F7200
G1 X14.143 Y92.578 E-.0142
G1 X17.452 Y92.578 E-.7858
;WIPE_END
G1 X38.94 Y100.541 F9000
G1 E.8 F1800
;TYPE:Support material interface
;WIDTH:0.36
G1 F1200
G1 X39.325 Y100.497 E.01022
G1 X39.325 Y100.208 E.00762
G1 X39.834 Y100.208 E.01342
G1 X39.834 Y100.497 E.00762
G1 X40.342 Y100.497 E.01339
G1 X40.342 Y100.208 E.00762
G1 X40.851 Y100.208 E.01342
G1 X40.851 Y100.498 E.00765
G1 X41.359 Y100.499 E.01339
G1 X41.359 Y100.208 E.00767
G1 X41.868 Y100.208 E.01342
G1 X41.868 Y100.5 E.0077
G1 X42.376 Y100.501 E.01339
G1 X42.376 Y100.208 E.00773
G1 X42.885 Y100.208 E.01342
G1 X42.885 Y100.545 E.00889
G1 X43.079 Y100.739 E.00723
G1 X43.079 Y101.516 E.02049
G1 X43.257 Y101.516 E.00469
G1 X43.257 Y100.208 E.03449
G1 X43.039 Y100.208 E.00575
;WIPE_START
G1 F7200
G1 X43.257 Y100.208 E-.05177
G1 X43.257 Y101.516 E-.31065
G1 X43.079 Y101.516 E-.04227
G1 X43.079 Y100.739 E-.18454
G1 X42.885 Y100.545 E-.06516
G1 X42.885 Y100.208 E-.08004
G1 X42.609 Y100.208 E-.06557
;WIPE_END
G1 X40.967 Y99.843 F9000
G1 E.8 F1800
;TYPE:Support material
;WIDTH:0.42
G1 F1200
G1 X37.659 Y99.843 E.10372
G1 X37.659 Y101.881 E.0639
G1 X38.386 Y101.881 E.02279
G1 X37.718 Y104.916 E.09744
G1 X37.244 Y108.386 E.10981
G1 X27.228 Y108.386 E.31404
G1 X27.228 Y107.077 E.04104
G1 X23.957 Y107.077 E.10256
G1 X23.957 Y108.386 E.04104
G1 X15.452 Y108.386 E.26667
G1 X15.452 Y107.077 E.04104
G1 X14.143 Y107.077 E.04104
G1 X14.143 Y95.955 E.34872
G1 X40.967 Y95.955 E.84105
G1 X40.967 Y99.787 E.12015
G1 X40.228 Y99.674 F9000
G1 F1200
G1 X40.228 Y96.294 E.10598
G1 X39.809 Y96.294 E.01314
G1 X39.809 Y99.504 E.10065
G1 X39.39 Y99.504 E.01314
G1 X39.39 Y96.294 E.10065
G1 X38.971 Y96.294 E.01314
G1 X38.971 Y99.504 E.10065
G1 X38.552 Y99.504 E.01314
G1 X38.552 Y96.294 E.10065
G1 X38.133 Y96.294 E.01314
G1 X38.133 Y99.504 E.10065
G1 X37.714 Y99.504 E.01314
G1 X37.714 Y96.294 E.10065
G1 X37.295 Y96.294 E.01314
G1 X37.295 Y105.377 E.28479
G1 X37.714 Y103.226 E.06871
G1 X37.714 Y102.05 E.03687
G1 X36.876 Y108.216 F9000
G1 F1200
G1 X36.876 Y96.294 E.37381
G1 X36.457 Y96.294 E.01314
G1 X36.457 Y108.047 E.36851
G1 X36.038 Y108.047 E.01314
G1 X36.038 Y96.294 E.36851
G1 X35.619 Y96.294 E.01314
G1 X35.619 Y108.047 E.36851
G1 X35.2 Y108.047 E.01314
G1 X35.2 Y96.294 E.36851
G1 X34.781 Y96.294 E.01314
G1 X34.781 Y108.047 E.36851
G1 X34.362 Y108.047 E.01314
G1 X34.362 Y96.294 E.36851
G1 X33.943 Y96.294 E.01314
G1 X33.943 Y108.047 E.36851
G1 X33.524 Y108.047 E.01314
G1 X33.524 Y96.294 E.36851
G1 X33.105 Y96.294 E.01314
G1 X33.105 Y108.047 E.36851
G1 X32.686 Y108.047 E.01314
G1 X32.686 Y96.294 E.36851
G1 X32.267 Y96.294 E.01314
G1 X32.267 Y108.047 E.36851
G1 X31.848 Y108.047 E.01314
G1 X31.848 Y96.294 E.36851
G1 X31.429 Y96.294 E.01314
G1 X31.429 Y108.047 E.36851
G1 X31.01 Y108.047 E.01314
G1 X31.01 Y96.294 E.36851
G1 X30.591 Y96.294 E.01314
G1 X30.591 Y108.047 E.36851
G1 X30.172 Y108.047 E.01314
G1 X30.172 Y96.294 E.36851
G1 X29.753 Y96.294 E.01314
G1 X29.753 Y108.047 E.36851
G1 X29.334 Y108.047 E.01314
G1 X29.334 Y96.294 E.36851
G1 X28.915 Y96.294 E.01314
G1 X28.915 Y108.047 E.36851
G1 X28.496 Y108.047 E.01314
G1 X28.496 Y96.294 E.36851
G1 X28.077 Y96.294 E.01314
G1 X28.077 Y108.047 E.36851
G1 X27.658 Y108.047 E.01314
G1 X27.658 Y96.294 E.36851
G1 X27.239 Y96.294 E.01314
G1 X27.239 Y106.738 E.32746
G1 X26.82 Y106.738 E.01314
G1 X26.82 Y96.294 E.32746
G1 X26.401 Y96.294 E.01314
G1 X26.401 Y106.738 E.32746
G1 X25.982 Y106.738 E.01314
G1 X25.982 Y96.294 E.32746
G1 X25.564 Y96.294 E.01311
G1 X25.564 Y106.738 E.32746
G1 X25.145 Y106.738 E.01314
G1 X25.145 Y96.294 E.32746
G1 X24.726 Y96.294 E.01314
G1 X24.726 Y106.738 E.32746
G1 X24.307 Y106.738 E.01314
G1 X24.307 Y96.294 E.32746
G1 X23.888 Y96.294 E.01314
G1 X23.888 Y106.738 E.32746
G1 X23.618 Y106.738 E.00847
G1 X23.618 Y108.047 E.04104
G1 X23.469 Y108.047 E.00467
G1 X23.469 Y96.294 E.36851
G1 X23.05 Y96.294 E.01314
G1 X23.05 Y108.047 E.36851
G1 X22.631 Y108.047 E.01314
G1 X22.631 Y96.294 E.36851
G1 X22.212 Y96.294 E.01314
G1 X22.212 Y108.047 E.36851
G1 X21.793 Y108.047 E.01314
G1 X21.793 Y96.294 E.36851
G1 X21.374 Y96.294 E.01314
G1 X21.374 Y108.047 E.36851
G1 X20.955 Y108.047 E.01314
G1 X20.955 Y96.294 E.36851
G1 X20.536 Y96.294 E.01314
G1 X20.536 Y108.047 E.36851
G1 X20.117 Y108.047 E.01314
G1 X20.117 Y96.294 E.36851
G1 X19.698 Y96.294 E.01314
G1 X19.698 Y108.047 E.36851
G1 X19.279 Y108.047 E.01314
G1 X19.279 Y96.294 E.36851
G1 X18.86 Y96.294 E.01314
G1 X18.86 Y108.047 E.36851
G1 X18.441 Y108.047 E.01314
G1 X18.441 Y96.294 E.36851
G1 X18.022 Y96.294 E.01314
G1 X18.022 Y108.047 E.36851
G1 X17.603 Y108.047 E.01314
G1 X17.603 Y96.294 E.36851
G1 X17.184 Y96.294 E.01314
G1 X17.184 Y108.047 E.36851
G1 X16.765 Y108.047 E.01314
G1 X16.765 Y96.294 E.36851
G1 X16.346 Y96.294 E.01314
G1 X16.346 Y108.047 E.36851
G1 X15.927 Y108.047 E.01314
G1 X15.927 Y96.294 E.36851
G1 X15.508 Y96.294 E.01314
G1 X15.508 Y106.738 E.32746
G1 X15.089 Y106.738 E.01314
G1 X15.089 Y96.294 E.32746
G1 X14.67 Y96.294 E.01314
G1 X14.67 Y106.908 E.33279
;WIPE_START
G1 F7200
G1 X14.67 Y103.54 E-.8
;WIPE_END
G1 X38.154 Y101.516 F9000
G1 E.8 F1800
;TYPE:Support material interface
;WIDTH:0.36
G1 F1200
G1 X38.023 Y101.516 E.00345
G1 X38.023 Y100.208 E.03449
G1 X38.308 Y100.208 E.00751
G1 X38.308 Y101.516 E.03449
G1 X38.541 Y101.516 E.00614
G1 X38.817 Y100.634 E.02437
G1 X38.817 Y100.208 E.01123
G1 X39.171 Y100.208 E.00933
;WIPE_START
G1 F7200
G1 X38.817 Y100.208 E-.08407
G1 X38.817 Y100.634 E-.10118
G1 X38.541 Y101.516 E-.21949
G1 X38.308 Y101.516 E-.05534
G1 X38.308 Y100.208 E-.31065
G1 X38.185 Y100.208 E-.02927
;WIPE_END
G1 X40.967 Y100.863 F9000
G1 E.8 F1800
;TYPE:Support material
;WIDTH:0.42
G1 F1200
G1 X40.967 Y101.022 E.00499
G1 X39.056 Y101.023 E.05992
G1 X39.12 Y100.861 E.00546
G1 X40.911 Y100.863 E.05616
;WIPE_START
G1 F7200
G1 X39.12 Y100.861 E-.42536
G1 X39.056 Y101.023 E-.04137
G1 X40.46 Y101.022 E-.33327
;WIPE_END
G1 X41.472 Y102.551 F9000
G1 E.8 F1800
;TYPE:Perimeter
;WIDTH:0.419999
G1 F1200
G1 X41.264 Y103.349 E.02586
G1 X40.928 Y104.883 E.04924
G1 X40.64 Y106.535 E.05258
G1 X40.42 Y108.241 E.05393
G1 X40.278 Y109.955 E.05393
G1 X40.232 Y110.916 E.03017
G1 X40.21 Y112.622 E.05349
G1 X40.228 Y113.186 E.01769
G1 X38.736 Y113.186 E.04678
G1 X38.736 Y108.808 E.13727
G1 X38.802 Y108.117 E.02176
G1 X38.984 Y106.645 E.0465
G1 X39.221 Y105.185 E.04638
G1 X39.495 Y103.808 E.04402
G1 X39.796 Y102.55 E.04056
G1 X41.412 Y102.551 E.05067
G1 X41.96 Y102.174 F9000
G1 F1200
G1 X41.632 Y103.429 E.04067
G1 X41.3 Y104.948 E.04875
G1 X41.011 Y106.6 E.05258
G1 X40.794 Y108.289 E.05339
G1 X40.654 Y109.986 E.05339
G1 X40.609 Y110.921 E.02935
G1 X40.587 Y112.611 E.05299
G1 X40.617 Y113.563 E.02986
G1 X38.359 Y113.563 E.0708
G1 X38.359 Y108.79 E.14965
G1 X38.427 Y108.076 E.02249
G1 X38.611 Y106.592 E.04689
G1 X38.849 Y105.118 E.04681
G1 X39.127 Y103.727 E.04448
G1 X39.499 Y102.173 E.0501
G1 X41.9 Y102.174 E.07528
G1 X42.362 Y102.09 F9000
;TYPE:External perimeter
G1 F1200
G1 X42 Y103.51 E.04595
G1 X41.671 Y105.012 E.04821
G1 X41.383 Y106.665 E.05261
G1 X41.168 Y108.337 E.05286
G1 X41.029 Y110.017 E.05286
G1 X40.986 Y110.926 E.02853
G1 X40.964 Y112.599 E.05246
G1 X41.005 Y113.94 E.04207
G1 X37.982 Y113.94 E.09478
G1 X37.982 Y108.772 E.16204
G1 X38.053 Y108.035 E.02322
G1 X38.238 Y106.538 E.04729
G1 X38.478 Y105.051 E.04723
G1 X38.758 Y103.647 E.04489
G1 X39.208 Y101.796 E.05973
G1 X42.362 Y101.797 E.09889
G1 X42.362 Y102.03 E.00731
;WIPE_START
G1 F7200
G1 X42.362 Y102.09 E-.01425
G1 X42 Y103.51 E-.34804
G1 X41.671 Y105.012 E-.36518
G1 X41.619 Y105.313 E-.07253
;WIPE_END
G1 X40.55 Y102.671 F9000
G1 E.8 F1800
;TYPE:Solid infill
;WIDTH:0.423968
G1 F1200
G1 X41.018 Y103.14 E.02099
G1 X40.917 Y103.577 E.01421
G1 X40.18 Y102.841 E.033
G1 X40.025 Y102.84 E.00491
G1 X39.951 Y103.15 E.0101
G1 X40.82 Y104.019 E.03894
G1 X40.723 Y104.461 E.01434
G1 X39.847 Y103.585 E.03925
G1 X39.748 Y104.025 E.01429
G1 X40.629 Y104.906 E.03948
G1 X40.549 Y105.365 E.01476
G1 X39.658 Y104.474 E.03992
G1 X39.569 Y104.923 E.0145
G1 X40.469 Y105.824 E.04035
G1 X40.389 Y106.283 E.01476
G1 X39.484 Y105.377 E.04057
G1 X39.409 Y105.841 E.01489
G1 X40.319 Y106.751 E.04078
G1 X40.258 Y107.229 E.01527
G1 X39.334 Y106.305 E.0414
G1 X39.261 Y106.771 E.01494
G1 X40.196 Y107.706 E.0419
G1 X40.135 Y108.184 E.01527
G1 X39.202 Y107.251 E.04181
G1 X39.143 Y107.731 E.01532
G1 X40.092 Y108.68 E.04252
G1 X40.051 Y109.178 E.01583
G1 X39.085 Y108.212 E.04328
G1 X39.038 Y108.704 E.01566
G1 X40.01 Y109.675 E.04353
G1 X39.976 Y110.181 E.01607
G1 X39.027 Y109.231 E.04255
G1 X39.027 Y109.77 E.01708
G1 X39.951 Y110.695 E.04143
G1 X39.938 Y111.22 E.01664
G1 X39.027 Y110.309 E.04082
G1 X39.027 Y110.848 E.01708
G1 X39.931 Y111.752 E.04051
G1 X39.924 Y112.283 E.01683
G1 X39.027 Y111.387 E.04017
G1 X39.027 Y111.926 E.01708
G1 X39.926 Y112.825 E.04028
G1 X39.928 Y112.896 E.00225
G1 X39.458 Y112.896 E.01489
G1 X38.857 Y112.295 E.02693
; stop printing object tool-1 id:0 copy 0
M106 S255
;LAYER_CHANGE
;Z:0.29
;HEIGHT:0.09
;BEFORE_LAYER_CHANGE
G92 E0
;0.29


;WIPE_START
G1 F7200
G1 X39.458 Y112.896 E-.20186
G1 X39.928 Y112.896 E-.11163
G1 X39.926 Y112.825 E-.01687
G1 X39.027 Y111.926 E-.30195
G1 X39.027 Y111.387 E-.12801
G1 X39.145 Y111.505 E-.03968
;WIPE_END
G1 Z.29 F9000
;AFTER_LAYER_CHANGE
;0.29
M104 S205 ; set temperature
M140 S55 ; set bed temperature
; printing object tool-1 id:0 copy 0
G1 X38.154 Y101.516
G1 E.8 F1800
;TYPE:Support material interface
;WIDTH:0.36
G1 F1588
G1 X38.023 Y101.516 E.00167
G1 X38.023 Y100.208 E.01667
G1 X38.308 Y100.208 E.00363
G1 X38.308 Y101.516 E.01667
G1 X38.541 Y101.516 E.00297
G1 X38.817 Y100.634 E.01178
G1 X38.817 Y100.208 E.00543
G1 X39.171 Y100.208 E.00451
G1 X38.94 Y100.541 F9000
G1 F1588
G1 X39.325 Y100.497 E.00494
G1 X39.325 Y100.208 E.00368
G1 X39.834 Y100.208 E.00649
G1 X39.834 Y100.497 E.00368
G1 X40.342 Y100.497 E.00648
G1 X40.342 Y100.208 E.00368
G1 X40.851 Y100.208 E.00649
G1 X40.851 Y100.498 E.0037
G1 X41.359 Y100.499 E.00648
G1 X41.359 Y100.208 E.00371
G1 X41.868 Y100.208 E.00649
G1 X41.868 Y100.5 E.00372
G1 X42.376 Y100.501 E.00648
G1 X42.376 Y100.208 E.00374
G1 X42.885 Y100.208 E.00649
G1 X42.885 Y100.545 E.0043
G1 X43.079 Y100.739 E.0035
G1 X43.079 Y101.516 E.0099
G1 X43.257 Y101.516 E.00227
G1 X43.257 Y100.208 E.01667
G1 X43.039 Y100.208 E.00278
; stop printing object tool-1 id:0 copy 0
;LAYER_CHANGE
;Z:0.365
;HEIGHT:0.075
;BEFORE_LAYER_CHANGE
G92 E0
;0.365


;WIPE_START
G1 F7200
G1 X43.257 Y100.208 E-.05177
G1 X43.257 Y101.516 E-.31065
G1 X43.079 Y101.516 E-.04227
G1 X43.079 Y100.739 E-.18454
G1 X42.885 Y100.545 E-.06516
G1 X42.885 Y100.208 E-.08004
G1 X42.609 Y100.208 E-.06557
;WIPE_END
G1 Z.365 F9000
;AFTER_LAYER_CHANGE
;0.365
; printing object tool-1 id:0 copy 0
G1 X43.079 Y100.386
G1 E.8 F1800
G1 F1588
G1 X43.079 Y101.516 E.01212
G1 X43.257 Y101.516 E.00191
G1 X43.257 Y100.208 E.01403
G1 X42.946 Y100.208 E.00333
G1 X43.079 Y100.34 E.00201
;WIPE_START
G1 F7200
G1 X42.946 Y100.208 E-.0445
G1 X43.257 Y100.208 E-.07386
G1 X43.257 Y101.516 E-.31065
G1 X43.079 Y101.516 E-.04227
G1 X43.079 Y100.386 E-.26838
;WIPE_END
G1 E-.06034 F1800
G1 X38.817 Y100.208 F9000
G1 E.8 F1800
G1 F1588
G1 X38.817 Y100.542 E.00358
G1 X38.541 Y101.516 E.01086
G1 X38.308 Y101.516 E.0025
G1 X38.308 Y100.208 E.01403
G1 X38.023 Y100.208 E.00306
G1 X38.023 Y101.516 E.01403
G1 X38.154 Y101.516 E.0014
G1 X32.789 Y101.516 F9000
;TYPE:Support material
;HEIGHT:0.165
G1 F1588
G1 X30.172 Y101.516 E.05827
G1 X30.172 Y102.825 E.02915
G1 X32.789 Y102.825 E.05827
G1 X32.789 Y101.563 E.0281
;WIPE_START
G1 F7200
G1 X32.789 Y102.825 E-.29973
G1 X30.683 Y102.825 E-.50027
;WIPE_END
G1 X30.172 Y104.38 F9000
G1 E.8 F1800
G1 F1588
G1 X30.172 Y105.442 E.02365
G1 X36.715 Y105.442 E.14569
G1 X36.715 Y104.133 E.02915
G1 X17.087 Y104.133 E.43705
G1 X17.087 Y102.825 E.02912
G1 X38.023 Y102.825 E.46617
G1 X38.023 Y101.85 E.02171
;HEIGHT:0.075
G1 X37.715 Y101.825 E.00331
G1 X37.689 Y101.516 E.00333
;HEIGHT:0.165
G1 X17.087 Y101.516 E.45874
G1 X17.087 Y100.362 E.0257
G1 X18.396 Y104.38 F9000
G1 F1588
G1 X18.396 Y105.442 E.02365
G1 X21.013 Y105.442 E.05827
G1 X21.013 Y104.38 E.02365
G1 X23.63 Y99.961 F9000
G1 F1588
G1 X23.63 Y98.899 E.02365
G1 X17.087 Y98.899 E.14569
G1 X17.087 Y100.208 E.02915
G1 X37.689 Y100.208 E.45874
;HEIGHT:0.075
G1 X37.715 Y99.899 E.00333
G1 X38.023 Y99.873 E.00331
;HEIGHT:0.165
G1 X38.023 Y98.899 E.02169
G1 X27.555 Y98.899 E.23309
G1 X27.555 Y99.961 E.02365
; stop printing object tool-1 id:0 copy 0
;LAYER_CHANGE
;Z:0.44
;HEIGHT:0.075
;BEFORE_LAYER_CHANGE
G92 E0
;0.44


;WIPE_START
G1 F7200
G1 X27.555 Y98.899 E-.25222
G1 X29.861 Y98.899 E-.54778
;WIPE_END
G1 Z.44 F9000
;AFTER_LAYER_CHANGE
;0.44
G1 X29.861 Y92.201
G1 E.8 F1800
;TYPE:Skirt/Brim
;WIDTH:0.42
;HEIGHT:0.24
G1 F1588
G1 X40.967 Y92.201 E.40835
G1 X42.643 Y92.596 E.06331
G1 X44.273 Y94.175 E.08344
G1 X46.563 Y98.428 E.1776
G1 X47.011 Y100.208 E.06749
G1 X46.969 Y102.079 E.06881
G1 X45.038 Y114.813 E.47356
G1 X44.397 Y116.411 E.06331
G1 X43.11 Y117.554 E.06329
G1 X41.326 Y118.004 E.06765
G1 X37.672 Y118.004 E.13435
G1 X36.714 Y117.88 E.03552
G1 X14.494 Y112.016 E.84497
G1 X12.797 Y111.04 E.07198
G1 X11.489 Y109.732 E.06801
