; generated by PrusaSlicer 2.7.1+win64 on 2024-05-20 at 16:23:58 UTC

; 

; external perimeters extrusion width = 0.42mm
; perimeters extrusion width = 0.44mm
; infill extrusion width = 0.44mm
; solid infill extrusion width = 0.44mm
; top infill extrusion width = 0.40mm
; support material extrusion width = 0.36mm
; first layer extrusion width = 0.42mm

M201 X500 Y500 Z100 E5000 ; sets maximum accelerations, mm/sec^2
M203 X500 Y500 Z10 E60 ; sets maximum feedrates, mm / sec
M204 S500 T1000 ; sets acceleration (S) and retract acceleration (R), mm/sec^2
M205 X8.00 Y8.00 Z0.40 E5.00 ; sets the jerk limits, mm/sec
M205 S0 T0 ; sets the minimum extruding and travel feed rate, mm/sec

; printing object spacing-front id:0 copy 0
; stop printing object spacing-front id:0 copy 0

;TYPE:Custom
G90 ; use absolute coordinates
M83 ; extruder relative mode
M104 S150 ; set temporary nozzle temp to prevent oozing during homing
M140 S60 ; set final bed temp
G4 S30 ; allow partial nozzle warmup
G28 ; home all axis and restore leveling
G1 Z50 F240
G1 X2.0 Y10 F3000
M104 S215 ; set final nozzle temp
M190 S60 ; wait for bed temp to stabilize
M109 S215 ; wait for nozzle temp to stabilize
G1 Z0.28 F240
G92 E0
G1 X2.0 Y140 E10 F1500 ; prime the nozzle
G1 X2.3 Y140 F5000
G92 E0
G1 X2.3 Y10 E10 F1200 ; prime the nozzle
G92 E0
G21 ; set units to millimeters
G90 ; use absolute coordinates
M83 ; use relative distances for extrusion
; Filament gcode
M107
;LAYER_CHANGE
;Z:0.2
;HEIGHT:0.2
;BEFORE_LAYER_CHANGE
G92 E0
;0.2


G1 E-.8 F1800
G1 Z.2 F9000
;AFTER_LAYER_CHANGE
;0.2
G1 X97.693 Y8.845
G1 Z.2
G1 E.8 F1800
M204 S500
;TYPE:Skirt/Brim
;WIDTH:0.42
G1 F1200
G1 X98.088 Y7.169 E.05399
G1 X98.793 Y6.19 E.03783
G1 X102.795 Y2.188 E.17746
G1 X104.259 Y1.282 E.05398
G1 X105.45 Y1.088 E.03784
G1 X119.37 Y1.088 E.43645
G1 X121.045 Y1.483 E.05396
G1 X122.024 Y2.188 E.03783
G1 X126.027 Y6.19 E.17748
G1 X126.933 Y7.654 E.05398
G1 X127.126 Y8.845 E.03783
G1 X127.126 Y22.765 E.43645
G1 X126.732 Y24.44 E.05395
G1 X126.027 Y25.419 E.03783
G1 X122.024 Y29.422 E.1775
G1 X120.56 Y30.328 E.05398
G1 X119.37 Y30.521 E.0378
G1 X105.45 Y30.521 E.43645
G1 X103.774 Y30.127 E.05398
G1 X102.795 Y29.422 E.03783
G1 X98.793 Y25.419 E.17748
G1 X97.887 Y23.955 E.05398
G1 X97.693 Y22.765 E.0378
G1 X97.693 Y8.905 E.43457
G1 X98.07 Y8.905 F9000
G1 F1200
G1 X98.07 Y8.845 E.00188
G1 X98.464 Y7.262 E.05115
G1 X99.059 Y6.457 E.03139
G1 X103.062 Y2.454 E.1775
G1 X104.46 Y1.613 E.05115
G1 X105.45 Y1.465 E.03139
G1 X119.37 Y1.465 E.43645
G1 X120.953 Y1.859 E.05115
G1 X121.758 Y2.454 E.03139
G1 X125.76 Y6.457 E.17748
G1 X126.601 Y7.855 E.05115
G1 X126.749 Y8.845 E.03139
G1 X126.749 Y22.765 E.43645
G1 X126.355 Y24.348 E.05115
G1 X125.76 Y25.152 E.03136
G1 X121.758 Y29.155 E.17748
G1 X120.359 Y29.996 E.05118
G1 X119.37 Y30.144 E.03135
G1 X105.45 Y30.144 E.43645
G1 X103.867 Y29.75 E.05115
G1 X103.062 Y29.155 E.03139
G1 X99.059 Y25.152 E.1775
G1 X98.219 Y23.754 E.05114
G1 X98.07 Y22.765 E.03136
G1 X98.07 Y8.965 E.43269
; printing object spacing-front id:0 copy 0
;WIPE_START
G1 F7200
G1 X98.07 Y8.905 E-.01425
G1 X98.07 Y8.845 E-.01425
G1 X98.464 Y7.262 E-.38743
G1 X99.059 Y6.457 E-.23774
G1 X99.495 Y6.021 E-.14633
;WIPE_END
G1 X119.37 Y6.176 F9000
G1 E.8 F1800
;TYPE:Support material
G1 F1200
G1 X120.704 Y6.176 E.04183
G1 X120.704 Y7.511 E.04186
G1 X122.038 Y7.511 E.04183
G1 X122.038 Y8.845 E.04183
G1 X123.372 Y8.845 E.04183
G1 X123.372 Y22.765 E.43645
G1 X122.038 Y22.765 E.04183
G1 X122.038 Y24.099 E.04183
G1 X120.704 Y24.099 E.04183
G1 X120.704 Y25.433 E.04183
G1 X119.37 Y25.433 E.04183
G1 X119.37 Y26.767 E.04183
G1 X105.45 Y26.767 E.43645
G1 X105.45 Y25.433 E.04183
G1 X104.116 Y25.433 E.04183
G1 X104.116 Y24.099 E.04183
G1 X102.782 Y24.099 E.04183
G1 X102.782 Y22.765 E.04183
G1 X101.447 Y22.765 E.04186
G1 X101.447 Y8.845 E.43645
G1 X102.782 Y8.845 E.04186
G1 X102.782 Y7.511 E.04183
G1 X104.116 Y7.511 E.04183
G1 X104.116 Y6.176 E.04186
G1 X105.45 Y6.176 E.04183
G1 X105.45 Y4.842 E.04183
G1 X119.37 Y4.842 E.43645
G1 X119.37 Y6.12 E.04007
G1 X112.385 Y9.093 F9000
G1 F1200
G1 X113.524 Y9.186 E.03583
G1 X114.921 Y9.581 E.04552
G1 X115.965 Y10.112 E.03672
G1 X116.88 Y10.798 E.03586
G1 X117.876 Y11.91 E.04681
G1 X118.458 Y12.894 E.03585
G1 X118.951 Y14.302 E.04677
G1 X119.112 Y15.434 E.03585
G1 X119.027 Y16.929 E.04695
G1 X118.739 Y18.039 E.03596
G1 X118.272 Y19.073 E.03557
G1 X117.401 Y20.292 E.04697
G1 X116.564 Y21.077 E.03598
G1 X115.291 Y21.867 E.04698
G1 X114.216 Y22.269 E.03599
G1 X112.913 Y22.506 E.04152
G1 X112.598 Y22.23 E.01313
G1 X112.598 Y20.592 E.05136
G1 X112.818 Y20.334 E.01063
G1 X114.097 Y20.017 E.04132
G1 X114.61 Y19.774 E.0178
G1 X115.312 Y19.293 E.02668
G1 X115.902 Y18.702 E.02618
G1 X116.246 Y18.229 E.01834
G1 X116.631 Y17.47 E.02668
G1 X116.806 Y16.93 E.0178
G1 X116.937 Y16.105 E.02619
G1 X116.939 Y15.52 E.01834
G1 X116.726 Y14.404 E.03562
G1 X116.243 Y13.375 E.03564
G1 X115.908 Y12.915 E.01784
G1 X115.305 Y12.311 E.02676
G1 X114.347 Y11.701 E.03561
G1 X113.266 Y11.349 E.03565
G1 X112.417 Y11.267 E.02674
G1 X111.289 Y11.407 E.03564
G1 X110.232 Y11.824 E.03563
G1 X109.311 Y12.489 E.03562
G1 X108.585 Y13.363 E.03562
G1 X108.098 Y14.39 E.03564
G1 X107.91 Y15.222 E.02674
G1 X107.88 Y16.075 E.02676
G1 X108.011 Y16.918 E.02675
G1 X108.297 Y17.722 E.02676
G1 X108.902 Y18.683 E.03561
G1 X109.727 Y19.465 E.03564
G1 X110.721 Y20.016 E.03563
G1 X112.002 Y20.334 E.04138
G1 X112.222 Y20.592 E.01063
G1 X112.222 Y22.23 E.05136
G1 X111.907 Y22.506 E.01313
G1 X110.608 Y22.27 E.0414
G1 X109.548 Y21.876 E.03546
G1 X108.56 Y21.303 E.03581
G1 X107.692 Y20.579 E.03544
G1 X106.957 Y19.719 E.03547
G1 X106.227 Y18.417 E.0468
G1 X105.876 Y17.343 E.03543
G1 X105.71 Y16.212 E.03584
G1 X105.786 Y14.721 E.04681
G1 X106.066 Y13.613 E.03583
G1 X106.707 Y12.265 E.0468
G1 X107.391 Y11.348 E.03587
G1 X108.5 Y10.349 E.0468
G1 X109.482 Y9.765 E.03582
G1 X110.889 Y9.267 E.0468
G1 X112.328 Y9.095 E.04544
;WIPE_START
G1 F7200
G1 X110.889 Y9.267 E-.3442
G1 X109.482 Y9.765 E-.35448
G1 X109.115 Y9.983 E-.10132
;WIPE_END
G1 X111.364 Y14.759 F9000
G1 E.8 F1800
G1 F1200
G1 X113.456 Y14.759 E.06559
G1 X113.456 Y16.85 E.06556
G1 X111.364 Y16.85 E.06559
G1 X111.364 Y14.816 E.06377
;WIPE_START
G1 F7200
G1 X111.364 Y16.85 E-.48308
G1 X112.698 Y16.85 E-.31692
;WIPE_END
G1 X122.884 Y22.595 F9000
G1 E.8 F1800
G1 F1200
G1 X122.884 Y9.184 E.42049
G1 X122.465 Y9.184 E.01314
G1 X122.465 Y22.425 E.41516
G1 X122.046 Y22.425 E.01314
G1 X122.046 Y9.184 E.41516
G1 X121.699 Y9.184 E.01088
G1 X121.699 Y7.85 E.04183
G1 X121.627 Y7.85 E.00226
G1 X121.627 Y23.759 E.49882
G1 X121.208 Y23.759 E.01314
G1 X121.208 Y7.85 E.49882
G1 X120.789 Y7.85 E.01314
G1 X120.789 Y23.759 E.49882
G1 X120.37 Y23.759 E.01314
G1 X120.364 Y6.516 E.54064
G1 X119.951 Y6.516 E.01295
G1 X119.951 Y25.094 E.5825
G1 X119.532 Y25.094 E.01314
G1 X119.532 Y6.516 E.5825
G1 X119.113 Y6.516 E.01314
G1 X119.113 Y13.625 E.2229
G1 X118.694 Y12.612 E.03437
G1 X118.694 Y5.182 E.23296
G1 X118.275 Y5.182 E.01314
G1 X118.275 Y11.896 E.21051
G1 X117.856 Y11.329 E.02211
G1 X117.856 Y5.182 E.19273
G1 X117.438 Y5.182 E.01311
G1 X117.438 Y10.863 E.17812
G1 X117.019 Y10.47 E.01801
G1 X117.019 Y5.182 E.1658
G1 X116.6 Y5.182 E.01314
G1 X116.6 Y10.136 E.15533
G1 X116.181 Y9.847 E.01596
G1 X116.181 Y5.182 E.14627
G1 X115.762 Y5.182 E.01314
G1 X115.762 Y9.602 E.13859
G1 X115.343 Y9.395 E.01465
G1 X115.343 Y5.182 E.1321
G1 X114.924 Y5.182 E.01314
G1 X114.924 Y9.219 E.12658
G1 X114.505 Y9.074 E.0139
G1 X114.505 Y5.182 E.12203
G1 X114.086 Y5.182 E.01314
G1 X114.086 Y8.958 E.11839
G1 X113.667 Y8.868 E.01344
G1 X113.667 Y5.182 E.11557
G1 X113.248 Y5.182 E.01314
G1 X113.248 Y8.805 E.1136
G1 X112.829 Y8.767 E.01319
G1 X112.829 Y5.182 E.11241
G1 X112.41 Y5.182 E.01314
G1 X112.41 Y8.754 E.112
G1 X111.991 Y8.766 E.01314
G1 X111.991 Y5.182 E.11237
G1 X111.572 Y5.182 E.01314
G1 X111.572 Y8.804 E.11357
G1 X111.153 Y8.867 E.01329
G1 X111.153 Y5.182 E.11554
G1 X110.734 Y5.182 E.01314
G1 X110.734 Y8.957 E.11836
G1 X110.315 Y9.074 E.01364
G1 X110.315 Y5.182 E.12203
G1 X109.896 Y5.182 E.01314
G1 X109.896 Y9.219 E.12658
G1 X109.477 Y9.395 E.01425
G1 X109.477 Y5.182 E.1321
G1 X109.058 Y5.182 E.01314
G1 X109.058 Y9.603 E.13862
G1 X108.639 Y9.846 E.01519
G1 X108.639 Y5.182 E.14624
G1 X108.22 Y5.182 E.01314
G1 X108.22 Y10.135 E.1553
G1 X107.801 Y10.471 E.01684
G1 X107.801 Y5.182 E.16583
G1 X107.382 Y5.182 E.01314
G1 X107.382 Y10.861 E.17806
G1 X106.963 Y11.33 E.01972
G1 X106.963 Y5.182 E.19277
G1 X106.544 Y5.182 E.01314
G1 X106.544 Y11.896 E.21051
G1 X106.125 Y12.612 E.02601
G1 X106.125 Y5.182 E.23296
G1 X105.789 Y5.182 E.01054
G1 X105.789 Y6.516 E.04183
G1 X105.706 Y6.516 E.0026
G1 X105.706 Y13.624 E.22287
G1 X105.45 Y14.671 E.0338
G1 X105.358 Y15.832 E.03652
G1 X105.463 Y17.015 E.03724
G1 X105.706 Y17.984 E.03132
G1 X105.706 Y25.094 E.22293
G1 X105.287 Y25.094 E.01314
G1 X105.287 Y6.516 E.5825
G1 X104.868 Y6.516 E.01314
G1 X104.868 Y25.094 E.5825
G1 X104.455 Y25.094 E.01295
G1 X104.449 Y7.85 E.54067
G1 X104.03 Y7.85 E.01314
G1 X104.03 Y23.759 E.49882
G1 X103.611 Y23.759 E.01314
G1 X103.611 Y7.85 E.49882
G1 X103.192 Y7.85 E.01314
G1 X103.192 Y23.759 E.49882
G1 X103.121 Y23.759 E.00223
G1 X103.121 Y22.425 E.04183
G1 X102.773 Y22.425 E.01091
G1 X102.773 Y9.184 E.41516
G1 X102.354 Y9.184 E.01314
G1 X102.354 Y22.425 E.41516
G1 X101.935 Y22.425 E.01314
G1 X101.935 Y9.015 E.42046
;WIPE_START
G1 F7200
G1 X101.935 Y12.383 E-.8
;WIPE_END
G1 X119.113 Y26.598 F9000
G1 E.8 F1800
G1 F1200
G1 X119.113 Y17.984 E.27009
G1 X118.694 Y18.998 E.0344
G1 X118.694 Y26.428 E.23296
G1 X118.275 Y26.428 E.01314
G1 X118.275 Y19.714 E.21051
G1 X117.856 Y20.281 E.02211
G1 X117.856 Y26.428 E.19273
G1 X117.438 Y26.428 E.01311
G1 X117.438 Y20.746 E.17816
G1 X117.019 Y21.139 E.01801
G1 X117.019 Y26.428 E.16583
G1 X116.6 Y26.428 E.01314
G1 X116.6 Y21.473 E.15536
G1 X116.181 Y21.762 E.01596
G1 X116.181 Y26.428 E.1463
G1 X115.762 Y26.428 E.01314
G1 X115.762 Y22.008 E.13859
G1 X115.343 Y22.215 E.01465
G1 X115.343 Y26.428 E.1321
G1 X114.924 Y26.428 E.01314
G1 X114.924 Y22.39 E.12661
G1 X114.505 Y22.535 E.0139
G1 X114.505 Y26.428 E.12206
G1 X114.086 Y26.428 E.01314
G1 X114.086 Y22.652 E.11839
G1 X113.667 Y22.741 E.01343
G1 X113.667 Y26.428 E.1156
G1 X113.248 Y26.428 E.01314
G1 X113.248 Y22.804 E.11363
G1 X112.829 Y22.86 E.01325
G1 X112.829 Y26.428 E.11187
G1 X112.41 Y26.428 E.01314
G1 X112.41 Y17.19 E.28965
G1 X112.829 Y17.19 E.01314
G1 X112.829 Y19.988 E.08773
G1 X113.215 Y19.925 E.01226
G1 X113.248 Y17.02 E.09109
G1 X116.6 Y17.032 F9000
G1 F1200
G1 X116.575 Y15.279 E.05497
G1 X116.403 Y14.509 E.02474
G1 X116.181 Y13.963 E.01848
G1 X116.181 Y17.647 E.11551
G1 X115.762 Y18.33 E.02512
G1 X115.762 Y13.28 E.15834
G1 X115.343 Y12.803 E.01991
G1 X115.343 Y18.806 E.18822
G1 X114.924 Y19.166 E.01732
G1 X114.924 Y12.444 E.21076
G1 X114.505 Y12.169 E.01571
G1 X114.505 Y19.441 E.22801
G1 X114.086 Y19.652 E.01471
G1 X114.086 Y11.958 E.24124
G1 X113.667 Y11.8 E.01404
G1 X113.667 Y19.986 E.25667
G1 X113.248 Y14.589 F9000
G1 F1200
G1 X113.248 Y11.692 E.09083
G1 X112.829 Y11.629 E.01329
G1 X112.829 Y14.42 E.08751
G1 X112.41 Y14.42 E.01314
G1 X112.41 Y11.607 E.0882
G1 X111.991 Y11.629 E.01316
G1 X111.991 Y14.42 E.08751
G1 X111.572 Y14.42 E.01314
G1 X111.572 Y11.692 E.08553
G1 X111.153 Y11.8 E.01357
G1 X111.153 Y19.809 E.25112
G1 X111.572 Y19.918 E.01357
G1 X111.572 Y17.19 E.08553
G1 X111.991 Y17.19 E.01314
G1 X111.991 Y20.16 E.09312
;WIPE_START
G1 F7200
G1 X111.991 Y17.19 E-.70537
G1 X111.592 Y17.19 E-.09463
;WIPE_END
G1 X111.991 Y26.598 F9000
G1 E.8 F1800
G1 F1200
G1 X111.991 Y22.86 E.1172
G1 X111.572 Y22.804 E.01325
G1 X111.572 Y26.428 E.11363
G1 X111.153 Y26.428 E.01314
G1 X111.153 Y22.741 E.1156
G1 X110.734 Y22.652 E.01343
G1 X110.734 Y26.428 E.11839
G1 X110.315 Y26.428 E.01314
G1 X110.315 Y22.535 E.12206
G1 X109.896 Y22.39 E.0139
G1 X109.896 Y26.428 E.12661
G1 X109.477 Y26.428 E.01314
G1 X109.477 Y22.215 E.1321
G1 X109.058 Y22.008 E.01465
G1 X109.058 Y26.428 E.13859
G1 X108.639 Y26.428 E.01314
G1 X108.639 Y21.762 E.1463
G1 X108.22 Y21.473 E.01596
G1 X108.22 Y26.428 E.15536
G1 X107.801 Y26.428 E.01314
G1 X107.801 Y21.14 E.1658
G1 X107.382 Y20.746 E.01803
G1 X107.382 Y26.428 E.17816
G1 X106.963 Y26.428 E.01314
G1 X106.963 Y20.281 E.19273
G1 X106.544 Y19.714 E.02211
G1 X106.544 Y26.428 E.21051
G1 X106.125 Y26.428 E.01314
G1 X106.125 Y18.603 E.24535
;WIPE_START
G1 F7200
G1 X106.125 Y21.971 E-.8
;WIPE_END
G1 X110.734 Y19.837 F9000
G1 E.8 F1800
G1 F1200
G1 X110.734 Y11.958 E.24704
G1 X110.315 Y12.169 E.01471
G1 X110.315 Y19.441 E.22801
G1 X109.896 Y19.166 E.01571
G1 X109.896 Y12.444 E.21076
G1 X109.477 Y12.803 E.0173
G1 X109.477 Y18.806 E.18822
G1 X109.058 Y18.33 E.01988
G1 X109.058 Y13.279 E.15837
G1 X108.639 Y13.962 E.02512
G1 X108.639 Y17.646 E.11551
G1 X108.412 Y17.088 E.01889
G1 X108.243 Y16.317 E.02475
G1 X108.22 Y14.577 E.05456
;WIPE_START
G1 F7200
G1 X108.243 Y16.317 E-.41329
G1 X108.412 Y17.088 E-.18746
G1 X108.639 Y17.646 E-.14307
G1 X108.639 Y17.409 E-.05618
;WIPE_END
G1 X111.383 Y21.067 F9000
G1 E.8 F1800
;TYPE:External perimeter
;WIDTH:0.553767
G1 F1200
G1 X111.383 Y21.58 E.02179
G1 X111.059 Y21.515 E.01404
G1 X110.498 Y21.36 E.02472
;WIDTH:0.547153
G1 X109.826 Y21.076 E.03059
;WIDTH:0.544026
G1 X108.907 Y20.516 E.04484
;WIDTH:0.5431
G1 X108.347 Y20.033 E.03076
;WIDTH:0.546848
G1 X107.828 Y19.482 E.03172
;WIDTH:0.556409
G1 X107.452 Y18.948 E.02789
G1 X107.128 Y18.373 E.02818
;WIDTH:0.550517
G1 X106.873 Y17.764 E.02787
;WIDTH:0.549274
G1 X106.721 Y17.215 E.02398
;WIDTH:0.536979
G1 X106.587 Y16.481 E.03065
;WIDTH:0.544703
G1 X106.538 Y15.727 E.03153
;WIDTH:0.557037
G1 X106.576 Y15.164 E.02412
G1 X106.663 Y14.659 E.02191
;WIDTH:0.542105
G1 X106.844 Y13.942 E.03069
G1 X107.137 Y13.246 E.03134
;WIDTH:0.556508
G1 X107.437 Y12.686 E.02713
G1 X107.811 Y12.151 E.02788
;WIDTH:0.549881
G1 X108.168 Y11.761 E.02229
;WIDTH:0.537608
G1 X108.715 Y11.253 E.03071
;WIDTH:0.545389
G1 X109.312 Y10.814 E.03096
G1 X109.959 Y10.469 E.03063
;WIDTH:0.543816
G1 X110.651 Y10.209 E.03079
;WIDTH:0.547831
G1 X111.429 Y10.013 E.03368
G1 X112.097 Y9.938 E.02822
;WIDTH:0.545946
G1 X112.851 Y9.955 E.03155
;WIDTH:0.542555
G1 X113.914 Y10.131 E.04476
G1 X114.609 Y10.363 E.03044
;WIDTH:0.542054
G1 X115.285 Y10.698 E.03131
;WIDTH:0.55663
G1 X115.816 Y11.024 E.02662
G1 X116.328 Y11.429 E.02789
;WIDTH:0.549994
G1 X116.794 Y11.895 E.02779
;WIDTH:0.548756
G1 X117.206 Y12.411 E.02777
;WIDTH:0.547032
G1 X117.586 Y13.031 E.03048
;WIDTH:0.557025
G1 X117.837 Y13.568 E.02534
G1 X118.057 Y14.19 E.0282
;WIDTH:0.549761
G1 X118.203 Y14.833 E.02779
;WIDTH:0.55531
G1 X118.272 Y15.489 E.0281
;WIDTH:0.555527
G1 X118.27 Y16.15 E.02817
G1 X118.13 Y17.14 E.04262
;WIDTH:0.54962
G1 X117.946 Y17.768 E.02757
;WIDTH:0.54904
G1 X117.69 Y18.38 E.02792
;WIDTH:0.547151
G1 X117.352 Y18.957 E.02804
;WIDTH:0.537415
G1 X116.911 Y19.557 E.03062
;WIDTH:0.54293
G1 X116.411 Y20.1 E.03069
G1 X115.845 Y20.564 E.03043
;WIDTH:0.542239
G1 X115.226 Y20.954 E.03038
;WIDTH:0.541952
G1 X114.554 Y21.259 E.03062
;WIDTH:0.547707
G1 X113.975 Y21.466 E.02581
G1 X113.431 Y21.577 E.0233
;WIDTH:0.541694
G1 X113.431 Y21.069 E.02107
;WIDTH:0.547707
G1 X113.847 Y20.979 E.01786
;WIDTH:0.550755
G1 X114.714 Y20.65 E.03916
G1 X115.237 Y20.366 E.02513
G1 X115.73 Y20.022 E.02538
;WIDTH:0.550066
G1 X116.178 Y19.629 E.02513
;WIDTH:0.548609
G1 X116.563 Y19.205 E.02408
;WIDTH:0.536557
G1 X116.956 Y18.66 E.02758
;WIDTH:0.543975
G1 X117.28 Y18.071 E.02801
G1 X117.524 Y17.445 E.02799
;WIDTH:0.54287
G1 X117.681 Y16.82 E.02679
;WIDTH:0.555527
G1 X117.761 Y16.089 E.03134
G1 X117.761 Y15.513 E.02455
;WIDTH:0.55531
G1 X117.691 Y14.822 E.02959
;WIDTH:0.549761
G1 X117.565 Y14.309 E.02226
;WIDTH:0.557025
G1 X117.359 Y13.755 E.02527
G1 X117.112 Y13.205 E.02577
;WIDTH:0.546123
G1 X116.748 Y12.637 E.02823
;WIDTH:0.544364
G1 X116.339 Y12.142 E.02677
;WIDTH:0.549994
G1 X115.975 Y11.793 E.02126
;WIDTH:0.55663
G1 X115.512 Y11.438 E.02492
G1 X114.723 Y10.964 E.03932
;WIDTH:0.550797
G1 X114.176 Y10.737 E.02501
;WIDTH:0.551191
G1 X113.615 Y10.576 E.02467
