; generated by PrusaSlicer 2.7.1+win64 on 2024-05-26 at 12:39:34 UTC

; 

; external perimeters extrusion width = 0.42mm
; perimeters extrusion width = 0.44mm
; infill extrusion width = 0.44mm
; solid infill extrusion width = 0.44mm
; top infill extrusion width = 0.40mm
; support material extrusion width = 0.36mm
; first layer extrusion width = 0.42mm

M201 X500 Y500 Z100 E5000 ; sets maximum accelerations, mm/sec^2
M203 X500 Y500 Z10 E60 ; sets maximum feedrates, mm / sec
M204 S500 T1000 ; sets acceleration (S) and retract acceleration (R), mm/sec^2
M205 X8.00 Y8.00 Z0.40 E5.00 ; sets the jerk limits, mm/sec
M205 S0 T0 ; sets the minimum extruding and travel feed rate, mm/sec

; printing object Test-Cover-3 id:0 copy 0
; stop printing object Test-Cover-3 id:0 copy 0

;TYPE:Custom
G90 ; use absolute coordinates
M83 ; extruder relative mode
M104 S150 ; set temporary nozzle temp to prevent oozing during homing
M140 S60 ; set final bed temp
G4 S30 ; allow partial nozzle warmup
G28 ; home all axis and restore leveling
G1 Z50 F240
G1 X2.0 Y10 F3000
M104 S215 ; set final nozzle temp
M190 S60 ; wait for bed temp to stabilize
M109 S215 ; wait for nozzle temp to stabilize
G1 Z0.28 F240
G92 E0
G1 X2.0 Y140 E10 F1500 ; prime the nozzle
G1 X2.3 Y140 F5000
G92 E0
G1 X2.3 Y10 E10 F1200 ; prime the nozzle
G92 E0
G21 ; set units to millimeters
G90 ; use absolute coordinates
M83 ; use relative distances for extrusion
; Filament gcode
M107
;LAYER_CHANGE
;Z:0.2
;HEIGHT:0.2
;BEFORE_LAYER_CHANGE
G92 E0
;0.2


G1 E-.8 F1800
G1 Z.2 F9000
;AFTER_LAYER_CHANGE
;0.2
; printing object Test-Cover-3 id:0 copy 0
G1 X117.194 Y10.828
G1 Z.2
G1 E.8 F1800
M204 S500
;TYPE:Support material
;WIDTH:0.42
G1 F1200
G1 X122.364 Y11.334 E.16288
G1 X127.267 Y12.073 E.15547
G1 X132.127 Y13.055 E.15546
G1 X136.932 Y14.279 E.15547
G1 X141.67 Y15.74 E.15546
G1 X146.329 Y17.436 E.15546
G1 X150.898 Y19.362 E.15547
G1 X155.365 Y21.513 E.15545
G1 X159.719 Y23.884 E.15545
G1 X163.95 Y26.47 E.15548
G1 X168.046 Y29.263 E.15544
G1 X171.998 Y32.256 E.15544
G1 X175.797 Y35.443 E.15548
G1 X179.431 Y38.816 E.15546
G1 X182.893 Y42.365 E.15545
G1 X186.174 Y46.083 E.15548
G1 X189.265 Y49.959 E.15544
G1 X192.159 Y53.985 E.15546
G1 X194.849 Y58.15 E.15546
G1 X197.328 Y62.443 E.15543
G1 X199.59 Y66.856 E.15548
G1 X201.63 Y71.375 E.15546
G1 X203.441 Y75.99 E.15544
G1 X205.02 Y80.69 E.15546
G1 X206.363 Y85.463 E.15547
G1 X207.466 Y90.297 E.15546
G1 X208.327 Y95.18 E.15546
G1 X208.944 Y100.099 E.15544
G1 X209.314 Y105.043 E.15545
G1 X209.438 Y110 E.15547
G1 X209.314 Y114.957 E.15547
G1 X208.944 Y119.901 E.15545
G1 X208.327 Y124.82 E.15544
G1 X207.466 Y129.703 E.15546
G1 X206.363 Y134.537 E.15546
G1 X205.02 Y139.31 E.15547
G1 X203.441 Y144.01 E.15546
G1 X201.63 Y148.625 E.15544
G1 X199.59 Y153.144 E.15546
G1 X197.328 Y157.557 E.15548
G1 X194.849 Y161.85 E.15543
G1 X192.159 Y166.015 E.15546
G1 X189.265 Y170.041 E.15546
G1 X186.174 Y173.917 E.15544
G1 X182.893 Y177.635 E.15548
G1 X179.431 Y181.184 E.15545
G1 X175.797 Y184.557 E.15546
G1 X171.998 Y187.744 E.15548
G1 X168.046 Y190.737 E.15544
G1 X163.95 Y193.53 E.15544
G1 X159.719 Y196.116 E.15548
G1 X155.365 Y198.487 E.15545
G1 X150.898 Y200.638 E.15545
G1 X146.329 Y202.564 E.15547
G1 X141.67 Y204.26 E.15546
G1 X136.932 Y205.721 E.15546
G1 X132.127 Y206.945 E.15547
G1 X127.267 Y207.927 E.15546
G1 X122.364 Y208.666 E.15547
G1 X117.431 Y209.16 E.15544
G1 X112.479 Y209.407 E.15546
G1 X107.521 Y209.407 E.15545
G1 X102.569 Y209.16 E.15546
G1 X97.636 Y208.666 E.15544
G1 X92.733 Y207.927 E.15547
G1 X87.873 Y206.945 E.15546
G1 X83.068 Y205.721 E.15547
G1 X78.33 Y204.26 E.15546
G1 X73.671 Y202.564 E.15546
G1 X69.102 Y200.638 E.15547
G1 X64.635 Y198.487 E.15545
G1 X60.281 Y196.116 E.15545
G1 X56.05 Y193.53 E.15548
G1 X51.764 Y190.594 E.16289
G1 X48.002 Y187.744 E.14798
G1 X44.203 Y184.557 E.15548
G1 X40.569 Y181.184 E.15546
G1 X37.107 Y177.635 E.15545
G1 X33.826 Y173.917 E.15548
G1 X30.735 Y170.041 E.15544
G1 X27.841 Y166.015 E.15546
G1 X25.151 Y161.85 E.15546
G1 X22.672 Y157.557 E.15543
G1 X20.41 Y153.144 E.15548
G1 X18.37 Y148.625 E.15546
G1 X16.559 Y144.01 E.15544
G1 X14.98 Y139.31 E.15546
G1 X13.637 Y134.537 E.15547
G1 X12.534 Y129.703 E.15546
G1 X11.673 Y124.82 E.15546
G1 X11.056 Y119.901 E.15544
G1 X10.686 Y114.957 E.15545
G1 X10.562 Y110 E.15547
G1 X10.686 Y105.043 E.15547
G1 X11.056 Y100.099 E.15545
G1 X11.673 Y95.18 E.15544
G1 X12.534 Y90.297 E.15546
G1 X13.637 Y85.463 E.15546
G1 X14.98 Y80.69 E.15547
G1 X16.559 Y75.99 E.15546
G1 X18.37 Y71.375 E.15544
G1 X20.41 Y66.856 E.15546
G1 X22.672 Y62.443 E.15548
G1 X25.151 Y58.15 E.15543
G1 X27.841 Y53.985 E.15546
G1 X30.735 Y49.959 E.15546
G1 X33.826 Y46.083 E.15544
G1 X37.107 Y42.365 E.15548
G1 X40.569 Y38.816 E.15545
G1 X44.203 Y35.443 E.15546
G1 X48.002 Y32.256 E.15548
G1 X51.954 Y29.263 E.15544
G1 X56.05 Y26.47 E.15544
G1 X60.281 Y23.884 E.15548
G1 X64.635 Y21.513 E.15545
G1 X69.102 Y19.362 E.15545
G1 X73.671 Y17.436 E.15547
G1 X78.33 Y15.74 E.15546
G1 X83.068 Y14.279 E.15546
G1 X87.873 Y13.055 E.15547
G1 X92.733 Y12.073 E.15546
G1 X97.636 Y11.334 E.15547
G1 X102.569 Y10.84 E.15544
G1 X107.521 Y10.593 E.15546
G1 X112.479 Y10.593 E.15545
G1 X117.137 Y10.826 E.14623
G1 X99.941 Y15.447 F9000
G1 F1200
G1 X120.059 Y15.447 E.63079
G1 X120.059 Y16.746 E.04073
G1 X127.859 Y16.746 E.24456
G1 X127.859 Y18.046 E.04076
G1 X133.058 Y18.046 E.16301
G1 X133.058 Y19.346 E.04076
G1 X136.958 Y19.346 E.12228
G1 X136.958 Y20.646 E.04076
G1 X140.858 Y20.646 E.12228
G1 X140.858 Y21.946 E.04076
G1 X143.458 Y21.946 E.08152
G1 X143.458 Y23.246 E.04076
G1 X147.357 Y23.246 E.12225
G1 X147.357 Y24.546 E.04076
G1 X149.957 Y24.546 E.08152
G1 X149.957 Y25.846 E.04076
G1 X152.557 Y25.846 E.08152
G1 X152.557 Y27.146 E.04076
G1 X155.157 Y27.146 E.08152
G1 X155.157 Y28.446 E.04076
G1 X156.457 Y28.446 E.04076
G1 X156.457 Y29.746 E.04076
G1 X159.057 Y29.746 E.08152
G1 X159.057 Y31.045 E.04073
G1 X161.656 Y31.045 E.08149
G1 X161.656 Y32.345 E.04076
G1 X162.956 Y32.345 E.04076
G1 X162.956 Y33.645 E.04076
G1 X164.256 Y33.645 E.04076
G1 X164.256 Y34.945 E.04076
G1 X166.856 Y34.945 E.08152
G1 X166.856 Y36.245 E.04076
G1 X168.156 Y36.245 E.04076
G1 X168.156 Y37.545 E.04076
G1 X169.456 Y37.545 E.04076
G1 X169.456 Y38.845 E.04076
G1 X170.756 Y38.845 E.04076
G1 X170.756 Y40.145 E.04076
G1 X173.356 Y40.145 E.08152
G1 X173.356 Y41.445 E.04076
G1 X174.656 Y41.445 E.04076
G1 X174.656 Y42.745 E.04076
G1 X175.955 Y42.745 E.04073
G1 X175.955 Y44.045 E.04076
G1 X177.255 Y44.045 E.04076
G1 X177.255 Y45.345 E.04076
G1 X178.555 Y45.345 E.04076
G1 X178.555 Y46.644 E.04073
G1 X179.855 Y46.644 E.04076
G1 X179.855 Y49.244 E.08152
G1 X181.155 Y49.244 E.04076
G1 X181.155 Y50.544 E.04076
G1 X182.455 Y50.544 E.04076
G1 X182.455 Y51.844 E.04076
G1 X183.755 Y51.844 E.04076
G1 X183.755 Y53.144 E.04076
G1 X185.055 Y53.144 E.04076
G1 X185.055 Y55.744 E.08152
G1 X186.355 Y55.744 E.04076
G1 X186.355 Y57.044 E.04076
G1 X187.655 Y57.044 E.04076
G1 X187.655 Y58.344 E.04076
G1 X188.955 Y58.344 E.04076
G1 X188.955 Y60.943 E.08149
G1 X190.255 Y60.943 E.04076
G1 X190.255 Y63.543 E.08152
G1 X191.554 Y63.543 E.04073
G1 X191.554 Y64.843 E.04076
G1 X192.854 Y64.843 E.04076
G1 X192.854 Y67.443 E.08152
G1 X194.154 Y67.443 E.04076
G1 X194.154 Y70.043 E.08152
G1 X195.454 Y70.043 E.04076
G1 X195.454 Y72.643 E.08152
G1 X196.754 Y72.643 E.04076
G1 X196.754 Y76.542 E.12225
G1 X198.054 Y76.542 E.04076
G1 X198.054 Y79.142 E.08152
G1 X199.354 Y79.142 E.04076
G1 X199.354 Y83.042 E.12228
G1 X200.654 Y83.042 E.04076
G1 X200.654 Y86.942 E.12228
G1 X201.954 Y86.942 E.04076
G1 X201.954 Y92.141 E.16301
G1 X203.254 Y92.141 E.04076
G1 X203.254 Y99.941 E.24456
G1 X204.554 Y99.941 E.04076
G1 X204.554 Y120.059 E.63079
G1 X203.254 Y120.059 E.04076
G1 X203.254 Y127.859 E.24456
G1 X201.954 Y127.859 E.04076
G1 X201.954 Y133.058 E.16301
G1 X200.654 Y133.058 E.04076
G1 X200.654 Y136.958 E.12228
G1 X199.354 Y136.958 E.04076
G1 X199.354 Y140.858 E.12228
G1 X198.054 Y140.858 E.04076
G1 X198.054 Y143.458 E.08152
G1 X196.754 Y143.458 E.04076
G1 X196.754 Y147.357 E.12225
G1 X195.454 Y147.357 E.04076
G1 X195.454 Y149.957 E.08152
G1 X194.154 Y149.957 E.04076
G1 X194.154 Y152.557 E.08152
G1 X192.854 Y152.557 E.04076
G1 X192.854 Y155.157 E.08152
G1 X191.554 Y155.157 E.04076
G1 X191.554 Y156.457 E.04076
G1 X190.255 Y156.457 E.04073
G1 X190.255 Y159.057 E.08152
G1 X188.955 Y159.057 E.04076
G1 X188.955 Y161.656 E.08149
G1 X187.655 Y161.656 E.04076
G1 X187.655 Y162.956 E.04076
G1 X186.355 Y162.956 E.04076
G1 X186.355 Y164.256 E.04076
G1 X185.055 Y164.256 E.04076
G1 X185.055 Y166.856 E.08152
G1 X183.755 Y166.856 E.04076
G1 X183.755 Y168.156 E.04076
G1 X182.455 Y168.156 E.04076
G1 X182.455 Y169.456 E.04076
G1 X181.155 Y169.456 E.04076
G1 X181.155 Y170.756 E.04076
G1 X179.855 Y170.756 E.04076
G1 X179.855 Y173.356 E.08152
G1 X178.555 Y173.356 E.04076
G1 X178.555 Y174.656 E.04076
G1 X177.255 Y174.656 E.04076
G1 X177.255 Y175.955 E.04073
G1 X175.955 Y175.955 E.04076
G1 X175.955 Y177.255 E.04076
G1 X174.656 Y177.255 E.04073
G1 X174.656 Y178.555 E.04076
G1 X173.356 Y178.555 E.04076
G1 X173.356 Y179.855 E.04076
G1 X170.756 Y179.855 E.08152
G1 X170.756 Y181.155 E.04076
G1 X169.456 Y181.155 E.04076
G1 X169.456 Y182.455 E.04076
G1 X168.156 Y182.455 E.04076
G1 X168.156 Y183.755 E.04076
G1 X166.856 Y183.755 E.04076
G1 X166.856 Y185.055 E.04076
G1 X164.256 Y185.055 E.08152
G1 X164.256 Y186.355 E.04076
G1 X162.956 Y186.355 E.04076
G1 X162.956 Y187.655 E.04076
G1 X161.656 Y187.655 E.04076
G1 X161.656 Y188.955 E.04076
G1 X159.057 Y188.955 E.08149
G1 X159.057 Y190.255 E.04076
G1 X156.457 Y190.255 E.08152
G1 X156.457 Y191.554 E.04073
G1 X155.157 Y191.554 E.04076
G1 X155.157 Y192.854 E.04076
G1 X152.557 Y192.854 E.08152
G1 X152.557 Y194.154 E.04076
G1 X149.957 Y194.154 E.08152
G1 X149.957 Y195.454 E.04076
G1 X147.357 Y195.454 E.08152
G1 X147.357 Y196.754 E.04076
G1 X143.458 Y196.754 E.12225
G1 X143.458 Y198.054 E.04076
G1 X140.858 Y198.054 E.08152
G1 X140.858 Y199.354 E.04076
G1 X136.958 Y199.354 E.12228
G1 X136.958 Y200.654 E.04076
G1 X133.058 Y200.654 E.12228
G1 X133.058 Y201.954 E.04076
G1 X127.859 Y201.954 E.16301
G1 X127.859 Y203.254 E.04076
G1 X120.059 Y203.254 E.24456
G1 X120.059 Y204.554 E.04076
G1 X99.941 Y204.554 E.63079
G1 X99.941 Y203.254 E.04076
G1 X92.141 Y203.254 E.24456
G1 X92.141 Y201.954 E.04076
G1 X86.942 Y201.954 E.16301
G1 X86.942 Y200.654 E.04076
G1 X83.042 Y200.654 E.12228
G1 X83.042 Y199.354 E.04076
G1 X79.142 Y199.354 E.12228
G1 X79.142 Y198.054 E.04076
G1 X76.542 Y198.054 E.08152
G1 X76.542 Y196.754 E.04076
G1 X72.643 Y196.754 E.12225
G1 X72.643 Y195.454 E.04076
G1 X70.043 Y195.454 E.08152
G1 X70.043 Y194.154 E.04076
G1 X67.443 Y194.154 E.08152
G1 X67.443 Y192.854 E.04076
G1 X64.843 Y192.854 E.08152
G1 X64.843 Y191.554 E.04076
G1 X63.543 Y191.554 E.04076
G1 X63.543 Y190.255 E.04073
G1 X60.943 Y190.255 E.08152
G1 X60.943 Y188.955 E.04076
G1 X58.344 Y188.955 E.08149
G1 X58.344 Y187.655 E.04076
G1 X57.044 Y187.655 E.04076
G1 X57.044 Y186.355 E.04076
G1 X55.744 Y186.355 E.04076
G1 X55.744 Y185.055 E.04076
G1 X53.144 Y185.055 E.08152
G1 X53.144 Y183.755 E.04076
G1 X51.844 Y183.755 E.04076
G1 X51.844 Y182.455 E.04076
G1 X50.544 Y182.455 E.04076
G1 X50.544 Y181.155 E.04076
G1 X49.244 Y181.155 E.04076
G1 X49.244 Y179.855 E.04076
G1 X46.644 Y179.855 E.08152
G1 X46.644 Y178.555 E.04076
G1 X45.345 Y178.555 E.04073
G1 X45.345 Y177.255 E.04076
G1 X44.045 Y177.255 E.04076
G1 X44.045 Y175.955 E.04076
G1 X42.745 Y175.955 E.04076
G1 X42.745 Y174.656 E.04073
G1 X41.445 Y174.656 E.04076
G1 X41.445 Y173.356 E.04076
G1 X40.145 Y173.356 E.04076
G1 X40.145 Y170.756 E.08152
G1 X38.845 Y170.756 E.04076
G1 X38.845 Y169.456 E.04076
G1 X37.545 Y169.456 E.04076
G1 X37.545 Y168.156 E.04076
G1 X36.245 Y168.156 E.04076
G1 X36.245 Y166.856 E.04076
G1 X34.945 Y166.856 E.04076
G1 X34.945 Y164.256 E.08152
G1 X33.645 Y164.256 E.04076
G1 X33.645 Y162.956 E.04076
G1 X32.345 Y162.956 E.04076
G1 X32.345 Y161.656 E.04076
G1 X31.045 Y161.656 E.04076
G1 X31.045 Y159.057 E.08149
G1 X29.746 Y159.057 E.04073
G1 X29.746 Y156.457 E.08152
G1 X28.446 Y156.457 E.04076
G1 X28.446 Y155.157 E.04076
G1 X27.146 Y155.157 E.04076
G1 X27.146 Y152.557 E.08152
G1 X25.846 Y152.557 E.04076
G1 X25.846 Y149.957 E.08152
G1 X24.546 Y149.957 E.04076
G1 X24.546 Y147.357 E.08152
G1 X23.246 Y147.357 E.04076
G1 X23.246 Y143.458 E.12225
G1 X21.946 Y143.458 E.04076
G1 X21.946 Y140.858 E.08152
G1 X20.646 Y140.858 E.04076
G1 X20.646 Y136.958 E.12228
G1 X19.346 Y136.958 E.04076
G1 X19.346 Y133.058 E.12228
G1 X18.046 Y133.058 E.04076
G1 X18.046 Y127.859 E.16301
G1 X16.746 Y127.859 E.04076
G1 X16.746 Y120.059 E.24456
G1 X15.447 Y120.059 E.04073
G1 X15.447 Y99.941 E.63079
G1 X16.746 Y99.941 E.04073
G1 X16.746 Y92.141 E.24456
G1 X18.046 Y92.141 E.04076
G1 X18.046 Y86.942 E.16301
G1 X19.346 Y86.942 E.04076
G1 X19.346 Y83.042 E.12228
G1 X20.646 Y83.042 E.04076
G1 X20.646 Y79.142 E.12228
G1 X21.946 Y79.142 E.04076
G1 X21.946 Y76.542 E.08152
G1 X23.246 Y76.542 E.04076
G1 X23.246 Y72.643 E.12225
G1 X24.546 Y72.643 E.04076
G1 X24.546 Y70.043 E.08152
G1 X25.846 Y70.043 E.04076
G1 X25.846 Y67.443 E.08152
G1 X27.146 Y67.443 E.04076
G1 X27.146 Y64.843 E.08152
G1 X28.446 Y64.843 E.04076
G1 X28.446 Y63.543 E.04076
G1 X29.746 Y63.543 E.04076
G1 X29.746 Y60.943 E.08152
G1 X31.045 Y60.943 E.04073
G1 X31.045 Y58.344 E.08149
G1 X32.345 Y58.344 E.04076
G1 X32.345 Y57.044 E.04076
G1 X33.645 Y57.044 E.04076
G1 X33.645 Y55.744 E.04076
G1 X34.945 Y55.744 E.04076
G1 X34.945 Y53.144 E.08152
G1 X36.245 Y53.144 E.04076
G1 X36.245 Y51.844 E.04076
G1 X37.545 Y51.844 E.04076
G1 X37.545 Y50.544 E.04076
G1 X38.845 Y50.544 E.04076
G1 X38.845 Y49.244 E.04076
G1 X40.145 Y49.244 E.04076
G1 X40.145 Y46.644 E.08152
G1 X41.445 Y46.644 E.04076
G1 X41.445 Y45.345 E.04073
G1 X42.745 Y45.345 E.04076
G1 X42.745 Y44.045 E.04076
G1 X44.045 Y44.045 E.04076
G1 X44.045 Y42.745 E.04076
G1 X45.345 Y42.745 E.04076
G1 X45.345 Y41.445 E.04076
G1 X46.644 Y41.445 E.04073
G1 X46.644 Y40.145 E.04076
G1 X49.244 Y40.145 E.08152
G1 X49.244 Y38.845 E.04076
G1 X50.544 Y38.845 E.04076
G1 X50.544 Y37.545 E.04076
G1 X51.844 Y37.545 E.04076
G1 X51.844 Y36.245 E.04076
G1 X53.144 Y36.245 E.04076
G1 X53.144 Y34.945 E.04076
G1 X55.744 Y34.945 E.08152
G1 X55.744 Y33.645 E.04076
G1 X57.044 Y33.645 E.04076
G1 X57.044 Y32.345 E.04076
G1 X58.344 Y32.345 E.04076
G1 X58.344 Y31.045 E.04076
G1 X60.943 Y31.045 E.08149
G1 X60.943 Y29.746 E.04073
G1 X63.543 Y29.746 E.08152
G1 X63.543 Y28.446 E.04076
G1 X64.843 Y28.446 E.04076
G1 X64.843 Y27.146 E.04076
G1 X67.443 Y27.146 E.08152
G1 X67.443 Y25.846 E.04076
G1 X70.043 Y25.846 E.08152
G1 X70.043 Y24.546 E.04076
G1 X72.643 Y24.546 E.08152
G1 X72.643 Y23.246 E.04076
G1 X76.542 Y23.246 E.12225
G1 X76.542 Y21.946 E.04076
G1 X79.142 Y21.946 E.08152
G1 X79.142 Y20.646 E.04076
G1 X83.042 Y20.646 E.12228
G1 X83.042 Y19.346 E.04076
G1 X86.942 Y19.346 E.12228
G1 X86.942 Y18.046 E.04076
G1 X92.141 Y18.046 E.16301
G1 X92.141 Y16.746 E.04076
G1 X99.941 Y16.746 E.24456
G1 X99.941 Y15.503 E.03897
;WIPE_START
G1 F7200
G1 X99.941 Y16.746 E-.29521
G1 X97.816 Y16.746 E-.50479
;WIPE_END
G1 X208.879 Y118.5 F9000
G1 E.8 F1800
G1 F1200
G1 X208.879 Y103.771 E.46182
G1 X208.46 Y98.965 E.15126
G1 X208.46 Y121.035 E.69199
G1 X208.041 Y124.378 E.10564
G1 X208.041 Y95.622 E.90162
G1 X207.622 Y93.132 E.07917
G1 X207.622 Y126.868 E1.05777
G1 X207.203 Y129.244 E.07565
G1 X207.203 Y90.756 E1.20676
G1 X206.784 Y88.832 E.06174
G1 X206.784 Y131.169 E1.32745
G1 X206.365 Y133.004 E.05902
G1 X206.365 Y86.996 E1.44255
G1 X205.946 Y85.233 E.05682
G1 X205.946 Y134.767 E1.5531
G1 X205.527 Y136.256 E.0485
G1 X205.527 Y83.744 E1.64648
G1 X205.108 Y82.255 E.0485
G1 X205.108 Y137.745 E1.73985
G1 X204.689 Y139.23 E.04838
G1 X204.689 Y120.399 E.59043
G1 X204.27 Y120.399 E.01314
G1 X204.27 Y140.477 E.62953
G1 X203.851 Y141.724 E.04125
G1 X203.851 Y120.399 E.66863
G1 X203.593 Y120.399 E.00809
G1 X203.593 Y128.198 E.24453
G1 X203.432 Y128.198 E.00505
G1 X203.432 Y142.971 E.4632
G1 X203.013 Y144.172 E.03988
G1 X203.013 Y128.198 E.50085
