; generated by PrusaSlicer 2.7.1+win64 on 2024-05-26 at 14:09:03 UTC

; 

; external perimeters extrusion width = 0.42mm
; perimeters extrusion width = 0.44mm
; infill extrusion width = 0.44mm
; solid infill extrusion width = 0.44mm
; top infill extrusion width = 0.40mm
; support material extrusion width = 0.36mm
; first layer extrusion width = 0.42mm

M201 X500 Y500 Z100 E5000 ; sets maximum accelerations, mm/sec^2
M203 X500 Y500 Z10 E60 ; sets maximum feedrates, mm / sec
M204 S500 T1000 ; sets acceleration (S) and retract acceleration (R), mm/sec^2
M205 X8.00 Y8.00 Z0.40 E5.00 ; sets the jerk limits, mm/sec
M205 S0 T0 ; sets the minimum extruding and travel feed rate, mm/sec

; printing object Test-Cover-4 id:0 copy 0
; stop printing object Test-Cover-4 id:0 copy 0

;TYPE:Custom
G90 ; use absolute coordinates
M83 ; extruder relative mode
M104 S150 ; set temporary nozzle temp to prevent oozing during homing
M140 S60 ; set final bed temp
G4 S30 ; allow partial nozzle warmup
G28 ; home all axis and restore leveling
G1 Z50 F240
G1 X2.0 Y10 F3000
M104 S215 ; set final nozzle temp
M190 S60 ; wait for bed temp to stabilize
M109 S215 ; wait for nozzle temp to stabilize
G1 Z0.28 F240
G92 E0
G1 X2.0 Y140 E10 F1500 ; prime the nozzle
G1 X2.3 Y140 F5000
G92 E0
G1 X2.3 Y10 E10 F1200 ; prime the nozzle
G92 E0
G21 ; set units to millimeters
G90 ; use absolute coordinates
M83 ; use relative distances for extrusion
; Filament gcode
M107
;LAYER_CHANGE
;Z:0.2
;HEIGHT:0.2
;BEFORE_LAYER_CHANGE
G92 E0
;0.2


G1 E-.8 F1800
G1 Z.2 F9000
;AFTER_LAYER_CHANGE
;0.2
; printing object Test-Cover-4 id:0 copy 0
G1 X117.176 Y11.078
G1 Z.2
G1 E.8 F1800
M204 S500
;TYPE:Support material
;WIDTH:0.42
G1 F1200
G1 X122.333 Y11.582 E.16246
G1 X127.224 Y12.319 E.15509
G1 X132.071 Y13.299 E.15505
G1 X136.864 Y14.519 E.15507
G1 X141.59 Y15.977 E.15507
G1 X146.237 Y17.669 E.15506
G1 X150.795 Y19.59 E.15509
G1 X155.251 Y21.736 E.15507
G1 X159.594 Y24.101 E.15505
G1 X163.814 Y26.68 E.15507
G1 X167.9 Y29.466 E.15506
G1 X171.843 Y32.452 E.15508
G1 X175.631 Y35.631 E.15505
G1 X179.257 Y38.995 E.15508
G1 X182.71 Y42.535 E.15505
G1 X185.982 Y46.243 E.15505
G1 X189.066 Y50.11 E.15508
G1 X191.953 Y54.126 E.15508
G1 X194.636 Y58.28 E.15505
G1 X197.109 Y62.563 E.15507
G1 X199.365 Y66.964 E.15506
G1 X201.399 Y71.472 E.15507
G1 X203.206 Y76.076 E.15508
G1 X204.781 Y80.764 E.15506
G1 X206.121 Y85.525 E.15508
G1 X207.221 Y90.346 E.15504
G1 X208.08 Y95.217 E.15508
G1 X208.695 Y100.124 E.15506
G1 X209.065 Y105.056 E.15507
G1 X209.188 Y110 E.15506
G1 X209.065 Y114.944 E.15506
G1 X208.695 Y119.876 E.15507
G1 X208.08 Y124.783 E.15506
G1 X207.221 Y129.654 E.15508
G1 X206.121 Y134.475 E.15504
G1 X204.781 Y139.236 E.15508
G1 X203.206 Y143.924 E.15506
G1 X201.399 Y148.528 E.15508
G1 X199.365 Y153.036 E.15507
G1 X197.109 Y157.437 E.15506
G1 X194.636 Y161.72 E.15507
G1 X191.953 Y165.874 E.15505
G1 X189.066 Y169.89 E.15508
G1 X185.982 Y173.757 E.15508
G1 X182.71 Y177.465 E.15505
G1 X179.257 Y181.005 E.15505
G1 X175.631 Y184.369 E.15508
G1 X171.843 Y187.548 E.15505
G1 X167.9 Y190.534 E.15508
G1 X163.814 Y193.32 E.15506
G1 X159.594 Y195.899 E.15507
G1 X155.251 Y198.264 E.15505
G1 X150.795 Y200.41 E.15507
G1 X146.237 Y202.331 E.15509
G1 X141.59 Y204.023 E.15506
G1 X136.864 Y205.481 E.15507
G1 X132.071 Y206.701 E.15507
G1 X127.224 Y207.681 E.15505
G1 X122.333 Y208.418 E.15509
G1 X117.412 Y208.911 E.15507
G1 X112.473 Y209.157 E.15505
G1 X107.527 Y209.157 E.15508
G1 X102.588 Y208.911 E.15505
G1 X97.667 Y208.418 E.15507
G1 X92.776 Y207.681 E.15509
G1 X87.929 Y206.701 E.15505
G1 X83.136 Y205.481 E.15507
G1 X78.41 Y204.023 E.15507
G1 X73.763 Y202.331 E.15506
G1 X69.205 Y200.41 E.15509
G1 X64.749 Y198.264 E.15507
G1 X60.406 Y195.899 E.15505
G1 X56.186 Y193.32 E.15507
G1 X52.1 Y190.534 E.15506
G1 X48.157 Y187.548 E.15508
G1 X44.369 Y184.369 E.15505
G1 X40.743 Y181.005 E.15508
G1 X37.29 Y177.465 E.15505
G1 X34.018 Y173.757 E.15505
G1 X30.934 Y169.89 E.15508
G1 X28.047 Y165.874 E.15508
G1 X25.364 Y161.72 E.15505
G1 X22.891 Y157.437 E.15507
G1 X20.635 Y153.036 E.15506
G1 X18.601 Y148.528 E.15507
G1 X16.794 Y143.924 E.15508
G1 X15.219 Y139.236 E.15506
G1 X13.879 Y134.475 E.15508
G1 X12.779 Y129.654 E.15504
G1 X11.92 Y124.783 E.15508
G1 X11.305 Y119.876 E.15506
G1 X10.935 Y114.944 E.15507
G1 X10.812 Y110 E.15506
G1 X10.935 Y105.056 E.15506
G1 X11.305 Y100.124 E.15507
G1 X11.92 Y95.217 E.15506
G1 X12.779 Y90.346 E.15508
G1 X13.879 Y85.525 E.15504
G1 X15.219 Y80.764 E.15508
G1 X16.794 Y76.076 E.15506
G1 X18.601 Y71.472 E.15508
G1 X20.635 Y66.964 E.15507
G1 X22.891 Y62.563 E.15506
G1 X25.364 Y58.28 E.15507
G1 X28.047 Y54.126 E.15505
G1 X30.934 Y50.11 E.15508
G1 X34.018 Y46.243 E.15508
G1 X37.29 Y42.535 E.15505
G1 X40.743 Y38.995 E.15505
G1 X44.369 Y35.631 E.15508
G1 X48.157 Y32.452 E.15505
G1 X52.1 Y29.466 E.15508
G1 X56.186 Y26.68 E.15506
G1 X60.406 Y24.101 E.15507
G1 X64.749 Y21.736 E.15505
G1 X69.205 Y19.59 E.15507
G1 X73.763 Y17.669 E.15509
G1 X78.41 Y15.977 E.15506
G1 X83.136 Y14.519 E.15507
G1 X87.929 Y13.299 E.15507
G1 X92.776 Y12.319 E.15505
G1 X97.667 Y11.582 E.15509
G1 X102.588 Y11.089 E.15507
G1 X107.527 Y10.843 E.15505
G1 X112.473 Y10.843 E.15508
G1 X117.119 Y11.075 E.14585
G1 X102.541 Y15.447 F9000
G1 F1200
G1 X117.459 Y15.447 E.46774
G1 X117.459 Y16.746 E.04073
G1 X125.259 Y16.746 E.24456
G1 X125.259 Y18.046 E.04076
G1 X131.759 Y18.046 E.2038
G1 X131.759 Y19.346 E.04076
G1 X135.658 Y19.346 E.12225
G1 X135.658 Y20.646 E.04076
G1 X139.558 Y20.646 E.12228
G1 X139.558 Y21.946 E.04076
G1 X143.458 Y21.946 E.12228
G1 X143.458 Y23.246 E.04076
G1 X146.058 Y23.246 E.08152
G1 X146.058 Y24.546 E.04076
G1 X148.657 Y24.546 E.08149
G1 X148.657 Y25.846 E.04076
G1 X151.257 Y25.846 E.08152
G1 X151.257 Y27.146 E.04076
G1 X153.857 Y27.146 E.08152
G1 X153.857 Y28.446 E.04076
G1 X156.457 Y28.446 E.08152
G1 X156.457 Y29.746 E.04076
G1 X159.057 Y29.746 E.08152
G1 X159.057 Y31.045 E.04073
G1 X160.357 Y31.045 E.04076
G1 X160.357 Y32.345 E.04076
G1 X162.956 Y32.345 E.08149
G1 X162.956 Y33.645 E.04076
G1 X164.256 Y33.645 E.04076
G1 X164.256 Y34.945 E.04076
G1 X165.556 Y34.945 E.04076
G1 X165.556 Y36.245 E.04076
G1 X168.156 Y36.245 E.08152
G1 X168.156 Y37.545 E.04076
G1 X169.456 Y37.545 E.04076
G1 X169.456 Y38.845 E.04076
G1 X170.756 Y38.845 E.04076
G1 X170.756 Y40.145 E.04076
G1 X172.056 Y40.145 E.04076
G1 X172.056 Y41.445 E.04076
G1 X173.356 Y41.445 E.04076
G1 X173.356 Y42.745 E.04076
G1 X174.656 Y42.745 E.04076
G1 X174.656 Y44.045 E.04076
G1 X175.955 Y44.045 E.04073
G1 X175.955 Y45.345 E.04076
G1 X177.255 Y45.345 E.04076
G1 X177.255 Y46.644 E.04073
G1 X178.555 Y46.644 E.04076
G1 X178.555 Y47.944 E.04076
G1 X179.855 Y47.944 E.04076
G1 X179.855 Y49.244 E.04076
G1 X181.155 Y49.244 E.04076
G1 X181.155 Y50.544 E.04076
G1 X182.455 Y50.544 E.04076
G1 X182.455 Y51.844 E.04076
G1 X183.755 Y51.844 E.04076
G1 X183.755 Y54.444 E.08152
G1 X185.055 Y54.444 E.04076
G1 X185.055 Y55.744 E.04076
G1 X186.355 Y55.744 E.04076
G1 X186.355 Y57.044 E.04076
G1 X187.655 Y57.044 E.04076
G1 X187.655 Y59.644 E.08152
G1 X188.955 Y59.644 E.04076
G1 X188.955 Y60.943 E.04073
G1 X190.255 Y60.943 E.04076
G1 X190.255 Y63.543 E.08152
G1 X191.554 Y63.543 E.04073
G1 X191.554 Y66.143 E.08152
G1 X192.854 Y66.143 E.04076
G1 X192.854 Y68.743 E.08152
G1 X194.154 Y68.743 E.04076
G1 X194.154 Y71.343 E.08152
G1 X195.454 Y71.343 E.04076
G1 X195.454 Y73.943 E.08152
G1 X196.754 Y73.943 E.04076
G1 X196.754 Y76.542 E.08149
G1 X198.054 Y76.542 E.04076
G1 X198.054 Y80.442 E.12228
G1 X199.354 Y80.442 E.04076
G1 X199.354 Y84.342 E.12228
G1 X200.654 Y84.342 E.04076
G1 X200.654 Y88.242 E.12228
G1 X201.954 Y88.242 E.04076
G1 X201.954 Y94.741 E.20377
G1 X203.254 Y94.741 E.04076
G1 X203.254 Y102.541 E.24456
G1 X204.554 Y102.541 E.04076
G1 X204.554 Y117.459 E.46774
G1 X203.254 Y117.459 E.04076
G1 X203.254 Y125.259 E.24456
G1 X201.954 Y125.259 E.04076
G1 X201.954 Y131.759 E.2038
G1 X200.654 Y131.759 E.04076
G1 X200.654 Y135.658 E.12225
G1 X199.354 Y135.658 E.04076
G1 X199.354 Y139.558 E.12228
G1 X198.054 Y139.558 E.04076
G1 X198.054 Y143.458 E.12228
G1 X196.754 Y143.458 E.04076
G1 X196.754 Y146.058 E.08152
G1 X195.454 Y146.058 E.04076
G1 X195.454 Y148.657 E.08149
G1 X194.154 Y148.657 E.04076
G1 X194.154 Y151.257 E.08152
G1 X192.854 Y151.257 E.04076
G1 X192.854 Y153.857 E.08152
G1 X191.554 Y153.857 E.04076
G1 X191.554 Y156.457 E.08152
G1 X190.255 Y156.457 E.04073
G1 X190.255 Y159.057 E.08152
G1 X188.955 Y159.057 E.04076
G1 X188.955 Y160.357 E.04076
G1 X187.655 Y160.357 E.04076
G1 X187.655 Y162.956 E.08149
G1 X186.355 Y162.956 E.04076
G1 X186.355 Y164.256 E.04076
G1 X185.055 Y164.256 E.04076
G1 X185.055 Y165.556 E.04076
G1 X183.755 Y165.556 E.04076
G1 X183.755 Y168.156 E.08152
G1 X182.455 Y168.156 E.04076
G1 X182.455 Y169.456 E.04076
G1 X181.155 Y169.456 E.04076
G1 X181.155 Y170.756 E.04076
G1 X179.855 Y170.756 E.04076
G1 X179.855 Y172.056 E.04076
G1 X178.555 Y172.056 E.04076
G1 X178.555 Y173.356 E.04076
G1 X177.255 Y173.356 E.04076
G1 X177.255 Y174.656 E.04076
G1 X175.955 Y174.656 E.04076
G1 X175.955 Y175.955 E.04073
G1 X174.656 Y175.955 E.04073
G1 X174.656 Y177.255 E.04076
G1 X173.356 Y177.255 E.04076
G1 X173.356 Y178.555 E.04076
G1 X172.056 Y178.555 E.04076
G1 X172.056 Y179.855 E.04076
G1 X170.756 Y179.855 E.04076
G1 X170.756 Y181.155 E.04076
G1 X169.456 Y181.155 E.04076
G1 X169.456 Y182.455 E.04076
G1 X168.156 Y182.455 E.04076
G1 X168.156 Y183.755 E.04076
G1 X165.556 Y183.755 E.08152
G1 X165.556 Y185.055 E.04076
G1 X164.256 Y185.055 E.04076
G1 X164.256 Y186.355 E.04076
G1 X162.956 Y186.355 E.04076
G1 X162.956 Y187.655 E.04076
G1 X160.357 Y187.655 E.08149
G1 X160.357 Y188.955 E.04076
G1 X159.057 Y188.955 E.04076
G1 X159.057 Y190.255 E.04076
G1 X156.457 Y190.255 E.08152
G1 X156.457 Y191.554 E.04073
G1 X153.857 Y191.554 E.08152
G1 X153.857 Y192.854 E.04076
G1 X151.257 Y192.854 E.08152
G1 X151.257 Y194.154 E.04076
G1 X148.657 Y194.154 E.08152
G1 X148.657 Y195.454 E.04076
G1 X146.058 Y195.454 E.08149
G1 X146.058 Y196.754 E.04076
G1 X143.458 Y196.754 E.08152
G1 X143.458 Y198.054 E.04076
G1 X139.558 Y198.054 E.12228
G1 X139.558 Y199.354 E.04076
G1 X135.658 Y199.354 E.12228
G1 X135.658 Y200.654 E.04076
G1 X131.759 Y200.654 E.12225
G1 X131.759 Y201.954 E.04076
G1 X125.259 Y201.954 E.2038
G1 X125.259 Y203.254 E.04076
G1 X117.459 Y203.254 E.24456
G1 X117.459 Y204.554 E.04076
G1 X102.541 Y204.554 E.46774
G1 X102.541 Y203.254 E.04076
G1 X94.741 Y203.254 E.24456
G1 X94.741 Y201.954 E.04076
G1 X88.242 Y201.954 E.20377
G1 X88.242 Y200.654 E.04076
G1 X84.342 Y200.654 E.12228
G1 X84.342 Y199.354 E.04076
G1 X80.442 Y199.354 E.12228
G1 X80.442 Y198.054 E.04076
G1 X76.542 Y198.054 E.12228
G1 X76.542 Y196.754 E.04076
G1 X73.943 Y196.754 E.08149
G1 X73.943 Y195.454 E.04076
G1 X71.343 Y195.454 E.08152
G1 X71.343 Y194.154 E.04076
G1 X68.743 Y194.154 E.08152
G1 X68.743 Y192.854 E.04076
G1 X66.143 Y192.854 E.08152
G1 X66.143 Y191.554 E.04076
G1 X63.543 Y191.554 E.08152
G1 X63.543 Y190.255 E.04073
G1 X60.943 Y190.255 E.08152
G1 X60.943 Y188.955 E.04076
G1 X59.644 Y188.955 E.04073
G1 X59.644 Y187.655 E.04076
G1 X57.044 Y187.655 E.08152
G1 X57.044 Y186.355 E.04076
G1 X55.744 Y186.355 E.04076
G1 X55.744 Y185.055 E.04076
G1 X54.444 Y185.055 E.04076
G1 X54.444 Y183.755 E.04076
G1 X51.844 Y183.755 E.08152
G1 X51.844 Y182.455 E.04076
G1 X50.544 Y182.455 E.04076
G1 X50.544 Y181.155 E.04076
G1 X49.244 Y181.155 E.04076
G1 X49.244 Y179.855 E.04076
G1 X47.944 Y179.855 E.04076
G1 X47.944 Y178.555 E.04076
G1 X46.644 Y178.555 E.04076
G1 X46.644 Y177.255 E.04076
G1 X45.345 Y177.255 E.04073
G1 X45.345 Y175.955 E.04076
G1 X44.045 Y175.955 E.04076
G1 X44.045 Y174.656 E.04073
G1 X42.745 Y174.656 E.04076
G1 X42.745 Y173.356 E.04076
G1 X41.445 Y173.356 E.04076
G1 X41.445 Y172.056 E.04076
G1 X40.145 Y172.056 E.04076
G1 X40.145 Y170.756 E.04076
G1 X38.845 Y170.756 E.04076
G1 X38.845 Y169.456 E.04076
G1 X37.545 Y169.456 E.04076
G1 X37.545 Y168.156 E.04076
G1 X36.245 Y168.156 E.04076
G1 X36.245 Y165.556 E.08152
G1 X34.945 Y165.556 E.04076
G1 X34.945 Y164.256 E.04076
G1 X33.645 Y164.256 E.04076
G1 X33.645 Y162.956 E.04076
G1 X32.345 Y162.956 E.04076
G1 X32.345 Y160.357 E.08149
G1 X31.045 Y160.357 E.04076
G1 X31.045 Y159.057 E.04076
G1 X29.746 Y159.057 E.04073
G1 X29.746 Y156.457 E.08152
G1 X28.446 Y156.457 E.04076
G1 X28.446 Y153.857 E.08152
G1 X27.146 Y153.857 E.04076
G1 X27.146 Y151.257 E.08152
G1 X25.846 Y151.257 E.04076
G1 X25.846 Y148.657 E.08152
G1 X24.546 Y148.657 E.04076
G1 X24.546 Y146.058 E.08149
G1 X23.246 Y146.058 E.04076
G1 X23.246 Y143.458 E.08152
G1 X21.946 Y143.458 E.04076
G1 X21.946 Y139.558 E.12228
G1 X20.646 Y139.558 E.04076
G1 X20.646 Y135.658 E.12228
G1 X19.346 Y135.658 E.04076
G1 X19.346 Y131.759 E.12225
G1 X18.046 Y131.759 E.04076
G1 X18.046 Y125.259 E.2038
G1 X16.746 Y125.259 E.04076
G1 X16.746 Y117.459 E.24456
G1 X15.447 Y117.459 E.04073
G1 X15.447 Y102.541 E.46774
G1 X16.746 Y102.541 E.04073
G1 X16.746 Y94.741 E.24456
G1 X18.046 Y94.741 E.04076
G1 X18.046 Y88.242 E.20377
G1 X19.346 Y88.242 E.04076
G1 X19.346 Y84.342 E.12228
G1 X20.646 Y84.342 E.04076
G1 X20.646 Y80.442 E.12228
G1 X21.946 Y80.442 E.04076
G1 X21.946 Y76.542 E.12228
G1 X23.246 Y76.542 E.04076
G1 X23.246 Y73.943 E.08149
G1 X24.546 Y73.943 E.04076
G1 X24.546 Y71.343 E.08152
G1 X25.846 Y71.343 E.04076
G1 X25.846 Y68.743 E.08152
G1 X27.146 Y68.743 E.04076
G1 X27.146 Y66.143 E.08152
G1 X28.446 Y66.143 E.04076
G1 X28.446 Y63.543 E.08152
G1 X29.746 Y63.543 E.04076
G1 X29.746 Y60.943 E.08152
G1 X31.045 Y60.943 E.04073
G1 X31.045 Y59.644 E.04073
G1 X32.345 Y59.644 E.04076
G1 X32.345 Y57.044 E.08152
G1 X33.645 Y57.044 E.04076
G1 X33.645 Y55.744 E.04076
G1 X34.945 Y55.744 E.04076
G1 X34.945 Y54.444 E.04076
G1 X36.245 Y54.444 E.04076
G1 X36.245 Y51.844 E.08152
G1 X37.545 Y51.844 E.04076
G1 X37.545 Y50.544 E.04076
G1 X38.845 Y50.544 E.04076
G1 X38.845 Y49.244 E.04076
G1 X40.145 Y49.244 E.04076
G1 X40.145 Y47.944 E.04076
G1 X41.445 Y47.944 E.04076
G1 X41.445 Y46.644 E.04076
G1 X42.745 Y46.644 E.04076
G1 X42.745 Y45.345 E.04073
G1 X44.045 Y45.345 E.04076
G1 X44.045 Y44.045 E.04076
G1 X45.345 Y44.045 E.04076
G1 X45.345 Y42.745 E.04076
G1 X46.644 Y42.745 E.04073
G1 X46.644 Y41.445 E.04076
G1 X47.944 Y41.445 E.04076
G1 X47.944 Y40.145 E.04076
G1 X49.244 Y40.145 E.04076
G1 X49.244 Y38.845 E.04076
G1 X50.544 Y38.845 E.04076
G1 X50.544 Y37.545 E.04076
G1 X51.844 Y37.545 E.04076
G1 X51.844 Y36.245 E.04076
G1 X54.444 Y36.245 E.08152
G1 X54.444 Y34.945 E.04076
G1 X55.744 Y34.945 E.04076
G1 X55.744 Y33.645 E.04076
G1 X57.044 Y33.645 E.04076
G1 X57.044 Y32.345 E.04076
G1 X59.644 Y32.345 E.08152
G1 X59.644 Y31.045 E.04076
G1 X60.943 Y31.045 E.04073
G1 X60.943 Y29.746 E.04073
G1 X63.543 Y29.746 E.08152
G1 X63.543 Y28.446 E.04076
G1 X66.143 Y28.446 E.08152
G1 X66.143 Y27.146 E.04076
G1 X68.743 Y27.146 E.08152
G1 X68.743 Y25.846 E.04076
G1 X71.343 Y25.846 E.08152
G1 X71.343 Y24.546 E.04076
G1 X73.943 Y24.546 E.08152
G1 X73.943 Y23.246 E.04076
G1 X76.542 Y23.246 E.08149
G1 X76.542 Y21.946 E.04076
G1 X80.442 Y21.946 E.12228
G1 X80.442 Y20.646 E.04076
G1 X84.342 Y20.646 E.12228
G1 X84.342 Y19.346 E.04076
G1 X88.242 Y19.346 E.12228
G1 X88.242 Y18.046 E.04076
G1 X94.741 Y18.046 E.20377
G1 X94.741 Y16.746 E.04076
G1 X102.541 Y16.746 E.24456
G1 X102.541 Y15.503 E.03897
;WIPE_START
G1 F7200
G1 X102.541 Y16.746 E-.29521
G1 X100.416 Y16.746 E-.50479
;WIPE_END
G1 X208.46 Y120.389 F9000
G1 E.8 F1800
G1 F1200
G1 X208.46 Y101.525 E.59147
G1 X208.041 Y97.632 E.12277
G1 X208.041 Y122.368 E.77558
G1 X207.622 Y125.428 E.09684
G1 X207.622 Y94.572 E.96747
G1 X207.203 Y92.195 E.07568
G1 X207.203 Y127.805 E1.11653
G1 X206.784 Y130.046 E.07148
G1 X206.784 Y89.954 E1.25706
G1 X206.365 Y88.119 E.05902
G1 X206.365 Y131.881 E1.37213
G1 X205.946 Y133.717 E.05905
G1 X205.946 Y86.283 E1.48726
G1 X205.527 Y84.667 E.05234
G1 X205.527 Y135.333 E1.5886
G1 X205.108 Y136.823 E.04853
G1 X205.108 Y83.177 E1.68203
G1 X204.689 Y81.688 E.0485
G1 X204.689 Y102.201 E.64317
G1 X204.27 Y102.201 E.01314
G1 X204.27 Y80.307 E.68647
G1 X203.851 Y79.06 E.04125
G1 X203.851 Y102.201 E.72557
