; generated by PrusaSlicer 2.7.1+win64 on 2024-05-15 at 15:15:16 UTC

; 

; external perimeters extrusion width = 0.42mm
; perimeters extrusion width = 0.44mm
; infill extrusion width = 0.44mm
; solid infill extrusion width = 0.44mm
; top infill extrusion width = 0.40mm
; support material extrusion width = 0.36mm
; first layer extrusion width = 0.42mm

M201 X500 Y500 Z100 E5000 ; sets maximum accelerations, mm/sec^2
M203 X500 Y500 Z10 E60 ; sets maximum feedrates, mm / sec
M204 S500 T1000 ; sets acceleration (S) and retract acceleration (R), mm/sec^2
M205 X8.00 Y8.00 Z0.40 E5.00 ; sets the jerk limits, mm/sec
M205 S0 T0 ; sets the minimum extruding and travel feed rate, mm/sec

; printing object Jet Engine-Minor-Shaft-Bearing-Transformer-2 id:0 copy 0
; stop printing object Jet Engine-Minor-Shaft-Bearing-Transformer-2 id:0 copy 0

;TYPE:Custom
G90 ; use absolute coordinates
M83 ; extruder relative mode
M104 S150 ; set temporary nozzle temp to prevent oozing during homing
M140 S60 ; set final bed temp
G4 S30 ; allow partial nozzle warmup
G28 ; home all axis and restore leveling
G1 Z50 F240
G1 X2.0 Y10 F3000
M104 S215 ; set final nozzle temp
M190 S60 ; wait for bed temp to stabilize
M109 S215 ; wait for nozzle temp to stabilize
G1 Z0.28 F240
G92 E0
G1 X2.0 Y140 E10 F1500 ; prime the nozzle
G1 X2.3 Y140 F5000
G92 E0
G1 X2.3 Y10 E10 F1200 ; prime the nozzle
G92 E0
G21 ; set units to millimeters
G90 ; use absolute coordinates
M83 ; use relative distances for extrusion
; Filament gcode
M107
;LAYER_CHANGE
;Z:0.2
;HEIGHT:0.2
;BEFORE_LAYER_CHANGE
G92 E0
;0.2


G1 E-.8 F1800
G1 Z.2 F9000
;AFTER_LAYER_CHANGE
;0.2
G1 X89.462 Y22.416
G1 Z.2
G1 E.8 F1800
M204 S500
;TYPE:Skirt/Brim
;WIDTH:0.42
G1 F1200
G1 X89.967 Y20.425 E.0644
G1 X90.669 Y18.493 E.06445
G1 X91.561 Y16.642 E.06442
G1 X92.634 Y14.889 E.06444
G1 X93.877 Y13.253 E.06442
G1 X95.277 Y11.749 E.06443
G1 X96.821 Y10.393 E.06443
G1 X98.492 Y9.198 E.06441
G1 X100.275 Y8.176 E.06444
G1 X102.152 Y7.338 E.06445
G1 X104.103 Y6.692 E.06444
G1 X106.108 Y6.245 E.06441
G1 X108.149 Y6 E.06445
G1 X109.8 Y5.955 E.05179
G1 X111.662 Y6.059 E.05847
G1 X113.693 Y6.372 E.06443
G1 X115.683 Y6.886 E.06444
G1 X117.611 Y7.597 E.06443
G1 X119.377 Y8.452 E.06152
G1 X121.13 Y9.525 E.06444
G1 X122.767 Y10.768 E.06445
G1 X124.271 Y12.168 E.06443
G1 X125.627 Y13.712 E.06443
G1 X126.822 Y15.384 E.06444
G1 X127.567 Y16.642 E.04584
G1 X128.459 Y18.493 E.06442
G1 X129.161 Y20.425 E.06445
G1 X129.666 Y22.416 E.0644
G1 X129.969 Y24.449 E.06445
G1 X130.068 Y26.501 E.06441
G1 X129.96 Y28.554 E.06446
G1 X129.648 Y30.585 E.06443
G1 X129.161 Y32.486 E.06153
G1 X128.459 Y34.417 E.06442
G1 X127.567 Y36.269 E.06445
G1 X126.494 Y38.021 E.06442
G1 X125.251 Y39.658 E.06445
G1 X123.851 Y41.162 E.06443
G1 X122.307 Y42.518 E.06443
G1 X121.13 Y43.386 E.04585
G1 X119.377 Y44.458 E.06443
G1 X117.526 Y45.35 E.06442
G1 X115.595 Y46.052 E.06442
G1 X113.603 Y46.557 E.06443
G1 X111.571 Y46.861 E.06442
G1 X109.518 Y46.959 E.06444
G1 X107.557 Y46.861 E.06156
G1 X105.525 Y46.557 E.06442
G1 X103.533 Y46.052 E.06443
G1 X101.602 Y45.35 E.06442
G1 X99.751 Y44.458 E.06442
G1 X97.998 Y43.386 E.06443
G1 X96.361 Y42.143 E.06445
G1 X94.857 Y40.743 E.06443
G1 X93.876 Y39.658 E.04586
G1 X92.634 Y38.021 E.06443
G1 X91.561 Y36.269 E.06442
G1 X90.669 Y34.417 E.06445
G1 X89.967 Y32.486 E.06442
G1 X89.462 Y30.494 E.06443
G1 X89.159 Y28.462 E.06442
G1 X89.06 Y26.409 E.06445
G1 X89.168 Y24.357 E.06443
G1 X89.453 Y22.476 E.05965
G1 X89.826 Y22.532 F9000
G1 F1200
G1 X89.833 Y22.485 E.00149
G1 X90.329 Y20.53 E.06324
G1 X91.019 Y18.635 E.06323
G1 X91.895 Y16.818 E.06325
G1 X92.948 Y15.097 E.06326
G1 X94.168 Y13.491 E.06324
G1 X95.543 Y12.015 E.06325
G1 X97.059 Y10.685 E.06323
G1 X98.701 Y9.512 E.06327
G1 X100.451 Y8.51 E.06323
G1 X102.293 Y7.688 E.06324
G1 X104.208 Y7.054 E.06325
G1 X106.177 Y6.616 E.06325
G1 X108.18 Y6.376 E.06325
G1 X109.793 Y6.332 E.05059
G1 X111.618 Y6.434 E.05731
G1 X113.612 Y6.74 E.06325
G1 X115.565 Y7.244 E.06324
G1 X117.458 Y7.941 E.06325
G1 X119.202 Y8.786 E.06076
G1 X120.922 Y9.84 E.06325
G1 X122.528 Y11.06 E.06324
G1 X124.004 Y12.435 E.06325
G1 X125.335 Y13.951 E.06325
G1 X126.507 Y15.592 E.06323
G1 X127.233 Y16.818 E.04467
G1 X128.109 Y18.635 E.06325
G1 X128.799 Y20.53 E.06323
G1 X129.295 Y22.485 E.06324
G1 X129.594 Y24.48 E.06325
G1 X129.691 Y26.495 E.06325
G1 X129.586 Y28.509 E.06323
G1 X129.279 Y30.503 E.06326
G1 X128.775 Y32.456 E.06324
G1 X128.109 Y34.276 E.06077
G1 X127.233 Y36.093 E.06325
G1 X126.18 Y37.813 E.06323
G1 X124.959 Y39.419 E.06326
G1 X123.584 Y40.895 E.06325
G1 X122.069 Y42.226 E.06323
G1 X120.922 Y43.071 E.04467
G1 X119.202 Y44.125 E.06325
G1 X117.385 Y45.001 E.06325
G1 X115.489 Y45.69 E.06325
G1 X113.534 Y46.187 E.06325
G1 X111.539 Y46.485 E.06325
G1 X109.524 Y46.582 E.06325
G1 X107.589 Y46.485 E.06075
G1 X105.594 Y46.187 E.06325
G1 X103.639 Y45.69 E.06325
G1 X101.743 Y45.001 E.06325
G1 X99.926 Y44.125 E.06325
G1 X98.206 Y43.071 E.06325
G1 X96.6 Y41.851 E.06324
G1 X95.124 Y40.476 E.06325
G1 X93.793 Y38.96 E.06325
G1 X92.621 Y37.319 E.06323
G1 X91.618 Y35.568 E.06327
G1 X90.948 Y34.1 E.0506
G1 X90.329 Y32.38 E.05732
G1 X89.833 Y30.425 E.06324
G1 X89.534 Y28.43 E.06325
G1 X89.437 Y26.416 E.06322
G1 X89.542 Y24.401 E.06326
G1 X89.817 Y22.591 E.0574
; printing object Jet Engine-Minor-Shaft-Bearing-Transformer-2 id:0 copy 0
;WIPE_START
G1 F7200
G1 X89.826 Y22.532 E-.01417
G1 X89.833 Y22.485 E-.01129
G1 X90.329 Y20.53 E-.47902
G1 X90.755 Y19.361 E-.29552
;WIPE_END
G1 X93.214 Y23.125 F9000
G1 E.8 F1800
;TYPE:Perimeter
;WIDTH:0.419999
G1 F1200
G1 X93.345 Y22.541 E.01877
G1 X93.63 Y21.505 E.03369
G1 X93.799 Y20.99 E.01699
G1 X94.206 Y19.934 E.03548
G1 X94.425 Y19.439 E.01697
G1 X94.935 Y18.43 E.03545
G1 X95.204 Y17.959 E.01701
G1 X95.812 Y17.006 E.03544
G1 X96.126 Y16.564 E.017
G1 X96.822 Y15.683 E.0352
G1 X97.576 Y14.85 E.03523
G1 X97.959 Y14.467 E.01698
G1 X98.755 Y13.745 E.0337
G1 X99.224 Y13.36 E.01903
G1 X99.66 Y13.027 E.0172
G1 X100.591 Y12.388 E.03541
G1 X101.102 Y12.076 E.01877
G1 X102.044 Y11.56 E.03368
G1 X102.584 Y11.301 E.01878
G1 X103.567 Y10.885 E.03347
G1 X104.575 Y10.534 E.03347
G1 X105.149 Y10.364 E.01877
G1 X106.248 Y10.103 E.03542
G1 X106.789 Y10.002 E.01726
G1 X107.332 Y9.92 E.01722
G1 X108.448 Y9.807 E.03517
G1 X109.62 Y9.771 E.03676
G1 X110.686 Y9.808 E.03344
G1 X111.234 Y9.853 E.01724
G1 X111.78 Y9.918 E.01724
G1 X112.894 Y10.106 E.03542
G1 X113.478 Y10.236 E.01876
G1 X114.513 Y10.521 E.03366
G1 X115.082 Y10.71 E.0188
G1 X116.085 Y11.097 E.03371
G1 X116.58 Y11.317 E.01698
G1 X117.59 Y11.827 E.03548
G1 X118.06 Y12.095 E.01696
G1 X119.007 Y12.699 E.03522
G1 X119.911 Y13.366 E.03522
G1 X120.337 Y13.713 E.01723
G1 X120.75 Y14.075 E.01722
G1 X121.564 Y14.862 E.0355
G1 X121.933 Y15.257 E.01695
G1 X122.664 Y16.121 E.03549
G1 X122.992 Y16.551 E.01696
G1 X123.628 Y17.477 E.03522
G1 X124.196 Y18.437 E.03497
G1 X124.703 Y19.439 E.03521
G1 X124.925 Y19.94 E.01718
G1 X125.151 Y20.503 E.01902
G1 X125.503 Y21.519 E.03371
G1 X125.655 Y22.039 E.01699
G1 X125.915 Y23.132 E.03523
G1 X126.111 Y24.319 E.03772
G1 X126.17 Y24.857 E.01697
G1 X126.242 Y25.987 E.0355
G1 X126.249 Y26.509 E.01637
G1 X126.24 Y27.005 E.01555
G1 X126.165 Y28.134 E.03548
G1 X126.102 Y28.671 E.01695
G1 X125.915 Y29.779 E.03523
G1 X125.655 Y30.871 E.0352
G1 X125.503 Y31.391 E.01699
G1 X125.132 Y32.46 E.03548
G1 X124.929 Y32.962 E.01698
G1 X124.453 Y33.988 E.03546
G1 X124.2 Y34.467 E.01698
G1 X123.624 Y35.44 E.03545
G1 X123.325 Y35.892 E.01699
G1 X122.654 Y36.803 E.03548
G1 X122.311 Y37.222 E.01698
G1 X121.552 Y38.061 E.03547
G1 X121.169 Y38.444 E.01698
G1 X120.336 Y39.197 E.03521
G1 X119.455 Y39.893 E.0352
G1 X119.014 Y40.207 E.01697
G1 X118.06 Y40.816 E.03549
G1 X117.59 Y41.084 E.01696
G1 X116.58 Y41.594 E.03548
G1 X116.078 Y41.817 E.01722
G1 X115.568 Y42.023 E.01725
G1 X114.5 Y42.394 E.03545
G1 X113.98 Y42.546 E.01699
G1 X112.887 Y42.806 E.03523
G1 X111.78 Y42.993 E.0352
G1 X111.242 Y43.056 E.01698
G1 X110.113 Y43.132 E.03548
G1 X109.564 Y43.141 E.01722
G1 X109.014 Y43.132 E.01725
G1 X107.886 Y43.056 E.03545
G1 X107.348 Y42.993 E.01698
G1 X106.241 Y42.806 E.0352
G1 X105.148 Y42.546 E.03523
G1 X104.62 Y42.392 E.01724
G1 X104.098 Y42.22 E.01723
G1 X103.043 Y41.814 E.03544
G1 X102.548 Y41.594 E.01698
G1 X101.538 Y41.084 E.03548
G1 X101.065 Y40.814 E.01708
G1 X100.353 Y40.365 E.02639
G1 X99.662 Y39.885 E.02638
G1 X99.229 Y39.555 E.01707
G1 X98.366 Y38.825 E.03544
G1 X97.97 Y38.455 E.01699
G1 X97.184 Y37.642 E.03546
G1 X96.827 Y37.234 E.017
G1 X96.126 Y36.346 E.03547
G1 X95.812 Y35.905 E.01697
G1 X95.204 Y34.952 E.03544
G1 X94.935 Y34.481 E.01701
G1 X94.425 Y33.472 E.03545
G1 X94.203 Y32.971 E.01718
G1 X93.977 Y32.407 E.01905
G1 X93.625 Y31.392 E.03368
G1 X93.473 Y30.871 E.01702
G1 X93.213 Y29.779 E.0352
G1 X93.026 Y28.671 E.03523
G1 X92.963 Y28.134 E.01695
G1 X92.887 Y27.005 E.03548
G1 X92.878 Y26.455 E.01725
G1 X92.887 Y25.906 E.01722
G1 X92.963 Y24.777 E.03548
G1 X93.026 Y24.239 E.01698
G1 X93.204 Y23.185 E.03352
G1 X92.844 Y23.053 F9000
G1 F1200
G1 X92.979 Y22.45 E.01937
G1 X93.269 Y21.396 E.03428
G1 X93.444 Y20.863 E.01759
G1 X93.857 Y19.79 E.03605
G1 X94.084 Y19.278 E.01756
G1 X94.603 Y18.251 E.03608
G1 X94.881 Y17.764 E.01758
G1 X95.499 Y16.795 E.03604
G1 X95.824 Y16.338 E.01758
G1 X96.534 Y15.439 E.03592
G1 X97.302 Y14.59 E.0359
G1 X97.699 Y14.193 E.0176
G1 X98.509 Y13.459 E.03427
G1 X98.99 Y13.064 E.01951
G1 X99.439 Y12.722 E.0177
G1 X100.386 Y12.071 E.03603
G1 X100.913 Y11.749 E.01936
G1 X101.872 Y11.225 E.03426
G1 X102.429 Y10.957 E.01938
G1 X103.432 Y10.533 E.03414
G1 X104.46 Y10.175 E.03413
G1 X105.052 Y10 E.01936
G1 X106.17 Y9.734 E.03603
G1 X106.726 Y9.63 E.01774
G1 X107.285 Y9.546 E.01772
G1 X108.424 Y9.431 E.03589
G1 X109.621 Y9.394 E.03755
G1 X110.708 Y9.431 E.0341
G1 X111.272 Y9.478 E.01775
G1 X111.833 Y9.544 E.01771
G1 X112.967 Y9.735 E.03606
G1 X113.569 Y9.87 E.01934
G1 X114.623 Y10.16 E.03428
G1 X115.209 Y10.355 E.01936
G1 X116.229 Y10.748 E.03427
G1 X116.742 Y10.976 E.0176
G1 X117.768 Y11.495 E.03605
G1 X118.255 Y11.772 E.01757
G1 X119.22 Y12.388 E.0359
G1 X120.142 Y13.068 E.03592
G1 X120.58 Y13.425 E.01772
G1 X121.006 Y13.797 E.01773
G1 X121.832 Y14.597 E.03605
G1 X122.215 Y15.006 E.01757
G1 X122.958 Y15.885 E.03609
G1 X123.298 Y16.33 E.01756
G1 X123.946 Y17.274 E.0359
G1 X124.527 Y18.255 E.03575
G1 X125.044 Y19.278 E.03594
G1 X125.272 Y19.793 E.01766
G1 X125.504 Y20.371 E.01953
G1 X125.862 Y21.405 E.03431
G1 X126.019 Y21.943 E.01757
G1 X126.285 Y23.057 E.03591
G1 X126.486 Y24.275 E.03871
G1 X126.547 Y24.832 E.01757
G1 X126.619 Y25.981 E.0361
G1 X126.626 Y26.516 E.01678
G1 X126.617 Y27.021 E.01584
G1 X126.541 Y28.168 E.03604
G1 X126.475 Y28.725 E.01759
G1 X126.285 Y29.854 E.0359
G1 X126.019 Y30.968 E.03591
G1 X125.862 Y31.506 E.01757
G1 X125.485 Y32.592 E.03604
G1 X125.275 Y33.112 E.01758
G1 X124.791 Y34.155 E.03605
G1 X124.529 Y34.651 E.01759
G1 X123.943 Y35.641 E.03607
G1 X123.634 Y36.108 E.01756
G1 X122.952 Y37.034 E.03606
G1 X122.597 Y37.468 E.01758
G1 X121.826 Y38.321 E.03605
G1 X121.429 Y38.717 E.01758
G1 X120.58 Y39.485 E.0359
G1 X119.681 Y40.195 E.03592
G1 X119.225 Y40.52 E.01756
G1 X118.255 Y41.139 E.03608
G1 X117.768 Y41.416 E.01757
G1 X116.742 Y41.935 E.03605
G1 X116.225 Y42.164 E.01773
G1 X115.701 Y42.376 E.01772
G1 X114.615 Y42.754 E.03605
G1 X114.077 Y42.911 E.01757
G1 X112.963 Y43.176 E.0359
G1 X111.833 Y43.367 E.03593
G1 X111.277 Y43.432 E.01755
G1 X110.129 Y43.509 E.03608
G1 X109.564 Y43.518 E.01772
G1 X108.999 Y43.509 E.01772
G1 X107.851 Y43.432 E.03608
G1 X107.295 Y43.367 E.01755
G1 X106.165 Y43.176 E.03593
G1 X105.051 Y42.911 E.0359
G1 X104.509 Y42.752 E.01771
G1 X103.972 Y42.576 E.01772
G1 X102.898 Y42.162 E.03609
G1 X102.386 Y41.935 E.01756
G1 X101.36 Y41.416 E.03605
G1 X100.871 Y41.138 E.01764
G1 X100.145 Y40.68 E.02691
G1 X99.44 Y40.19 E.02692
G1 X98.993 Y39.849 E.01763
G1 X98.115 Y39.107 E.03604
G1 X97.706 Y38.724 E.01757
G1 X96.906 Y37.897 E.03608
G1 X96.537 Y37.475 E.01758
G1 X95.824 Y36.573 E.03605
G1 X95.499 Y36.116 E.01758
G1 X94.881 Y35.147 E.03604
G1 X94.603 Y34.66 E.01758
G1 X94.084 Y33.633 E.03608
G1 X93.855 Y33.117 E.0177
G1 X93.624 Y32.539 E.01952
G1 X93.266 Y31.506 E.03428
G1 X93.109 Y30.968 E.01757
G1 X92.843 Y29.854 E.03591
G1 X92.653 Y28.725 E.0359
G1 X92.587 Y28.168 E.01759
G1 X92.511 Y27.021 E.03604
G1 X92.501 Y26.455 E.01775
G1 X92.511 Y25.89 E.01772
G1 X92.587 Y24.743 E.03604
G1 X92.653 Y24.186 E.01759
G1 X92.834 Y23.112 E.03415
G1 X92.474 Y22.98 F9000
;TYPE:External perimeter
G1 F1200
G1 X92.613 Y22.359 E.01995
G1 X92.908 Y21.287 E.03486
G1 X93.088 Y20.736 E.01817
G1 X93.509 Y19.645 E.03667
G1 X93.744 Y19.116 E.01815
G1 X94.271 Y18.072 E.03667
G1 X94.558 Y17.569 E.01816
G1 X95.187 Y16.584 E.03664
G1 X95.523 Y16.112 E.01817
G1 X96.246 Y15.196 E.03659
G1 X97.029 Y14.33 E.03661
G1 X97.439 Y13.92 E.01818
G1 X98.262 Y13.174 E.03483
G1 X98.756 Y12.768 E.02005
G1 X99.218 Y12.416 E.01821
G1 X100.181 Y11.755 E.03662
G1 X100.725 Y11.423 E.01998
G1 X101.7 Y10.889 E.03486
G1 X102.274 Y10.613 E.01997
G1 X103.296 Y10.181 E.03479
G1 X104.344 Y9.816 E.0348
G1 X104.955 Y9.636 E.01997
G1 X106.092 Y9.365 E.03665
G1 X106.663 Y9.258 E.01821
G1 X107.238 Y9.171 E.01823
G1 X108.399 Y9.054 E.03659
G1 X109.621 Y9.016 E.03833
G1 X110.73 Y9.055 E.03479
G1 X111.31 Y9.103 E.01825
G1 X111.887 Y9.171 E.01822
G1 X113.039 Y9.365 E.03663
G1 X113.661 Y9.504 E.01998
G1 X114.732 Y9.799 E.03483
G1 X115.337 Y10 E.01999
G1 X116.374 Y10.4 E.03485
G1 X116.903 Y10.635 E.01815
G1 X117.947 Y11.162 E.03667
G1 X118.45 Y11.449 E.01816
G1 X119.434 Y12.077 E.0366
G1 X120.374 Y12.77 E.03662
G1 X120.824 Y13.137 E.01821
G1 X121.261 Y13.52 E.01822
G1 X122.101 Y14.333 E.03665
G1 X122.497 Y14.756 E.01817
G1 X123.252 Y15.648 E.03664
G1 X123.603 Y16.109 E.01817
G1 X124.264 Y17.071 E.0366
G1 X124.858 Y18.074 E.03655
G1 X125.384 Y19.116 E.0366
G1 X125.62 Y19.647 E.01822
G1 X125.858 Y20.239 E.02001
G1 X126.221 Y21.29 E.03486
G1 X126.384 Y21.846 E.01817
G1 X126.654 Y22.982 E.03661
G1 X126.86 Y24.231 E.03969
G1 X126.923 Y24.807 E.01817
G1 X126.996 Y25.974 E.03666
G1 X127.003 Y26.522 E.01718
G1 X126.994 Y27.036 E.01612
G1 X126.916 Y28.203 E.03667
G1 X126.849 Y28.778 E.01815
G1 X126.654 Y29.929 E.0366
G1 X126.384 Y31.065 E.03661
G1 X126.221 Y31.621 E.01817
G1 X125.838 Y32.725 E.03664
G1 X125.621 Y33.262 E.01816
G1 X125.129 Y34.323 E.03667
G1 X124.859 Y34.835 E.01815
G1 X124.263 Y35.841 E.03666
G1 X123.943 Y36.324 E.01817
G1 X123.25 Y37.265 E.03664
G1 X122.883 Y37.714 E.01818
G1 X122.099 Y38.581 E.03665
G1 X121.689 Y38.99 E.01816
G1 X120.824 Y39.773 E.03658
G1 X119.908 Y40.497 E.03661
G1 X119.435 Y40.833 E.01819
G1 X118.45 Y41.462 E.03664
G1 X117.947 Y41.748 E.01814
G1 X116.903 Y42.276 E.03668
G1 X116.372 Y42.511 E.01821
G1 X115.834 Y42.729 E.0182
G1 X114.729 Y43.113 E.03668
G1 X114.173 Y43.275 E.01816
G1 X113.038 Y43.546 E.03659
G1 X111.887 Y43.74 E.0366
G1 X111.311 Y43.808 E.01819
G1 X110.145 Y43.886 E.03664
G1 X109.564 Y43.895 E.01822
G1 X108.983 Y43.886 E.01822
G1 X107.817 Y43.808 E.03664
G1 X107.241 Y43.74 E.01819
G1 X106.09 Y43.546 E.0366
G1 X104.955 Y43.275 E.03659
G1 X104.397 Y43.112 E.01823
G1 X103.845 Y42.931 E.01821
G1 X102.754 Y42.511 E.03665
G1 X102.224 Y42.276 E.01818
G1 X101.181 Y41.748 E.03665
G1 X100.677 Y41.461 E.01819
G1 X99.937 Y40.994 E.02744
G1 X99.218 Y40.495 E.02744
G1 X98.757 Y40.143 E.01819
G1 X97.864 Y39.389 E.03665
G1 X97.441 Y38.993 E.01817
G1 X96.628 Y38.153 E.03665
G1 X96.247 Y37.716 E.01818
G1 X95.523 Y36.799 E.03663
G1 X95.187 Y36.327 E.01817
G1 X94.558 Y35.342 E.03664
G1 X94.271 Y34.838 E.01819
G1 X93.744 Y33.795 E.03664
G1 X93.508 Y33.264 E.01822
G1 X93.27 Y32.671 E.02003
G1 X92.907 Y31.621 E.03483
G1 X92.744 Y31.065 E.01817
G1 X92.474 Y29.929 E.03661
G1 X92.279 Y28.778 E.0366
G1 X92.212 Y28.203 E.01815
G1 X92.134 Y27.036 E.03667
G1 X92.124 Y26.455 E.01822
G1 X92.134 Y25.874 E.01822
G1 X92.212 Y24.708 E.03664
G1 X92.279 Y24.133 E.01815
G1 X92.464 Y23.039 E.03479
;WIPE_START
G1 F7200
G1 X92.474 Y22.98 E-.01421
G1 X92.613 Y22.359 E-.15114
G1 X92.908 Y21.287 E-.26406
