; generated by PrusaSlicer 2.7.1+win64 on 2024-05-10 at 06:32:12 UTC

; 

; external perimeters extrusion width = 0.42mm
; perimeters extrusion width = 0.44mm
; infill extrusion width = 0.44mm
; solid infill extrusion width = 0.44mm
; top infill extrusion width = 0.40mm
; support material extrusion width = 0.36mm
; first layer extrusion width = 0.42mm

; external perimeters extrusion width = 0.42mm
; perimeters extrusion width = 0.44mm
; infill extrusion width = 0.44mm
; solid infill extrusion width = 0.44mm
; top infill extrusion width = 0.40mm
; support material extrusion width = 0.36mm
; first layer extrusion width = 0.42mm

M201 X500 Y500 Z100 E5000 ; sets maximum accelerations, mm/sec^2
M203 X500 Y500 Z10 E60 ; sets maximum feedrates, mm / sec
M204 S500 T1000 ; sets acceleration (S) and retract acceleration (R), mm/sec^2
M205 X8.00 Y8.00 Z0.40 E5.00 ; sets the jerk limits, mm/sec
M205 S0 T0 ; sets the minimum extruding and travel feed rate, mm/sec

; printing object inner-thread-test id:0 copy 0
; stop printing object inner-thread-test id:0 copy 0
; printing object outer-thread-test id:1 copy 0
; stop printing object outer-thread-test id:1 copy 0

;TYPE:Custom
G90 ; use absolute coordinates
M83 ; extruder relative mode
M104 S150 ; set temporary nozzle temp to prevent oozing during homing
M140 S60 ; set final bed temp
G4 S30 ; allow partial nozzle warmup
G28 ; home all axis and restore leveling
G1 Z50 F240
G1 X2.0 Y10 F3000
M104 S215 ; set final nozzle temp
M190 S60 ; wait for bed temp to stabilize
M109 S215 ; wait for nozzle temp to stabilize
G1 Z0.28 F240
G92 E0
G1 X2.0 Y140 E10 F1500 ; prime the nozzle
G1 X2.3 Y140 F5000
G92 E0
G1 X2.3 Y10 E10 F1200 ; prime the nozzle
G92 E0
G21 ; set units to millimeters
G90 ; use absolute coordinates
M83 ; use relative distances for extrusion
; Filament gcode
M107
;LAYER_CHANGE
;Z:0.2
;HEIGHT:0.2
;BEFORE_LAYER_CHANGE
G92 E0
;0.2


G1 E-.8 F1800
G1 Z.2 F9000
;AFTER_LAYER_CHANGE
;0.2
G1 X86.337 Y12.88
G1 Z.2
G1 E.8 F1800
M204 S500
;TYPE:Skirt/Brim
;WIDTH:0.42
G1 F1200
G1 X86.505 Y11.816 E.03377
G1 X86.835 Y10.548 E.04108
G1 X87.362 Y9.179 E.04599
G1 X87.851 Y8.218 E.03381
G1 X88.556 Y7.114 E.04107
G1 X89.174 Y6.324 E.03145
G1 X90.188 Y5.263 E.04602
G1 X91.195 Y4.425 E.04108
G1 X92.023 Y3.859 E.03145
G1 X93.17 Y3.224 E.04111
G1 X94.158 Y2.796 E.03376
G1 X96.084 Y2.237 E.06288
G1 X97.917 Y2.005 E.05793
G1 X124.087 Y1.612 E.82063
G1 X129.564 Y1.612 E.17173
G1 X131.245 Y2.308 E.05705
G1 X134.383 Y5.476 E.13981
G1 X136.764 Y8.602 E.12321
G1 X137.351 Y9.484 E.03322
G1 X138.053 Y10.827 E.04751
G1 X138.709 Y12.685 E.06178
G1 X139.017 Y14.243 E.0498
G1 X139.12 Y15.756 E.04755
G1 X139.004 Y17.514 E.05524
G1 X138.549 Y19.532 E.06486
G1 X137.898 Y21.171 E.05529
G1 X136.888 Y22.89 E.06251
G1 X135.88 Y24.143 E.05042
G1 X134.596 Y25.351 E.05528
G1 X132.952 Y26.481 E.06255
G1 X131.294 Y27.274 E.05763
G1 X130.056 Y27.681 E.04086
G1 X128.628 Y27.979 E.04574
G1 X127.562 Y28.088 E.0336
G1 X126.333 Y28.099 E.03854
G1 X97.842 Y26.524 E.89468
G1 X96.157 Y26.312 E.05325
G1 X94.666 Y25.919 E.04835
G1 X93.237 Y25.342 E.04832
G1 X91.89 Y24.59 E.04837
G1 X90.649 Y23.676 E.04833
G1 X89.532 Y22.614 E.04833
G1 X88.556 Y21.419 E.04838
G1 X87.739 Y20.112 E.04833
G1 X87.065 Y18.643 E.05068
G1 X86.683 Y17.468 E.03874
G1 X86.461 Y16.49 E.03144
G1 X86.293 Y15.19 E.0411
G1 X86.259 Y14.113 E.03379
G1 X86.333 Y12.94 E.03685
;WIPE_START
G1 F7200
G1 X86.337 Y12.88 E-.01428
G1 X86.505 Y11.816 E-.25583
G1 X86.835 Y10.548 E-.31118
G1 X87.166 Y9.688 E-.21871
;WIPE_END
G1 X117.231 Y15.773 F9000
G1 E.8 F1800
G1 F1200
G1 X117.409 Y13.991 E.05615
G1 X117.664 Y12.974 E.03287
G1 X118.09 Y11.857 E.03748
G1 X118.979 Y10.303 E.05613
G1 X120.153 Y8.928 E.05669
G1 X121.033 Y8.173 E.03636
G1 X121.606 Y7.791 E.02159
G1 X121.92 Y6.919 E.02906
G1 X122.593 Y5.918 E.03782
G1 X123.614 Y5.002 E.04301
G1 X124.29 Y4.638 E.02407
G1 X124.985 Y4.389 E.02315
G1 X128.479 Y4.342 E.10956
G1 X129.259 Y4.583 E.0256
G1 X130.003 Y4.956 E.0261
G1 X131.265 Y6.125 E.05394
G1 X131.91 Y7.255 E.0408
G1 X132.071 Y7.774 E.01704
G1 X132.981 Y8.435 E.03527
G1 X133.59 Y8.986 E.02575
G1 X134.305 Y9.773 E.03334
G1 X135.371 Y11.397 E.06091
G1 X135.782 Y12.295 E.03097
G1 X136.279 Y13.99 E.05538
G1 X136.447 Y15.395 E.04437
G1 X136.447 Y16.238 E.02643
G1 X136.243 Y17.839 E.0506
G1 X135.698 Y19.57 E.0569
G1 X135.199 Y20.586 E.03549
G1 X134.694 Y21.378 E.02945
G1 X133.433 Y22.831 E.06032
G1 X132.667 Y23.481 E.0315
G1 X131.724 Y24.112 E.03558
G1 X131.058 Y24.474 E.02377
G1 X129.711 Y25.008 E.04543
G1 X128.709 Y25.263 E.03242
G1 X127.674 Y25.409 E.03277
G1 X126.712 Y25.444 E.03018
G1 X124.899 Y25.245 E.05719
G1 X123.79 Y24.948 E.036
G1 X122.837 Y24.571 E.03213
G1 X121.929 Y24.095 E.03214
G1 X120.991 Y23.457 E.03557
G1 X119.666 Y22.226 E.05671
G1 X118.594 Y20.767 E.05677
G1 X118.141 Y19.917 E.0302
G1 X117.749 Y18.949 E.03275
G1 X117.466 Y17.954 E.03243
G1 X117.253 Y16.522 E.04539
G1 X117.233 Y15.833 E.02161
G1 X117.644 Y15.842 F9000
G1 F1200
G1 X117.668 Y14.763 E.03384
G1 X118.021 Y13.098 E.05337
G1 X118.429 Y12.023 E.03605
G1 X118.959 Y11.018 E.03562
G1 X119.639 Y10.052 E.03704
G1 X120.424 Y9.191 E.03653
G1 X121.269 Y8.467 E.03489
G1 X121.92 Y8.035 E.0245
G1 X122.248 Y7.107 E.03086
G1 X122.864 Y6.181 E.03487
G1 X123.814 Y5.322 E.04016
G1 X124.43 Y4.988 E.02197
G1 X125.083 Y4.755 E.02174
G1 X128.396 Y4.711 E.10389
G1 X129.133 Y4.938 E.02418
G1 X129.809 Y5.28 E.02375
G1 X130.985 Y6.38 E.05049
G1 X131.571 Y7.42 E.03743
G1 X131.75 Y8.02 E.01963
G1 X132.747 Y8.731 E.03839
G1 X133.318 Y9.246 E.02411
G1 X134.005 Y10.001 E.03201
G1 X134.678 Y10.941 E.03625
G1 X135.427 Y12.425 E.05212
G1 X135.91 Y14.067 E.05366
G1 X136.07 Y15.406 E.04228
G1 X136.005 Y17 E.05002
G1 X135.609 Y18.745 E.0561
G1 X134.875 Y20.393 E.05657
G1 X133.857 Y21.84 E.05547
G1 X133.181 Y22.55 E.03074
G1 X132.431 Y23.186 E.03083
G1 X130.888 Y24.137 E.05683
G1 X129.606 Y24.646 E.04325
G1 X128.645 Y24.891 E.0311
G1 X127.65 Y25.032 E.03151
G1 X126.727 Y25.067 E.02896
G1 X125.693 Y24.998 E.03249
G1 X123.918 Y24.593 E.05708
G1 X123.003 Y24.233 E.03083
G1 X122.114 Y23.767 E.03147
G1 X120.662 Y22.697 E.05655
G1 X119.49 Y21.424 E.05425
G1 X118.912 Y20.565 E.03246
G1 X118.479 Y19.749 E.02896
G1 X118.102 Y18.817 E.03152
G1 X117.832 Y17.863 E.03109
G1 X117.629 Y16.5 E.04321
G1 X117.643 Y15.902 E.01876
G1 X117.988 Y15.891 F9000
G1 F1200
G1 X117.985 Y15.8 E.00285
G1 X118.145 Y14.157 E.05176
G1 X118.378 Y13.22 E.03027
G1 X118.768 Y12.188 E.03459
G1 X119.589 Y10.746 E.05203
G1 X120.694 Y9.454 E.0533
G1 X121.505 Y8.762 E.03343
G1 X122.281 Y8.248 E.02918
G1 X122.576 Y7.294 E.03131
G1 X123.136 Y6.443 E.03194
G1 X124.015 Y5.642 E.03729
G1 X125.18 Y5.12 E.04003
G1 X128.314 Y5.08 E.09827
G1 X128.977 Y5.282 E.02173
G1 X129.614 Y5.604 E.02238
G1 X130.704 Y6.634 E.04702
G1 X131.23 Y7.583 E.03402
G1 X131.428 Y8.265 E.02227
G1 X132.514 Y9.027 E.0416
G1 X133.046 Y9.508 E.02249
G1 X133.705 Y10.23 E.03065
G1 X134.692 Y11.727 E.05622
G1 X135.08 Y12.572 E.02915
G1 X135.54 Y14.143 E.05133
G1 X135.693 Y15.417 E.04023
G1 X135.692 Y16.222 E.02524
G1 X135.51 Y17.661 E.04548
G1 X135.012 Y19.255 E.05236
G1 X134.551 Y20.2 E.03297
G1 X134.088 Y20.93 E.0271
G1 X132.915 Y22.283 E.05615
G1 X132.196 Y22.891 E.02952
G1 X131.321 Y23.475 E.03298
G1 X130.718 Y23.8 E.02148
G1 X129.501 Y24.284 E.04107
G1 X128.582 Y24.519 E.02974
G1 X126.742 Y24.69 E.05794
G1 X125.076 Y24.512 E.05253
G1 X124.046 Y24.239 E.03341
G1 X123.151 Y23.886 E.03017
G1 X122.299 Y23.438 E.03018
G1 X121.431 Y22.844 E.03298
G1 X120.214 Y21.708 E.0522
G1 X119.231 Y20.363 E.05223
G1 X118.456 Y18.686 E.05792
G1 X118.198 Y17.772 E.02978
G1 X118.006 Y16.477 E.04105
G1 X117.99 Y15.951 E.0165
G1 X118.393 Y15.96 F9000
G1 F1200
G1 X118.416 Y14.861 E.03447
G1 X118.735 Y13.343 E.04864
G1 X119.107 Y12.353 E.03316
G1 X119.6 Y11.417 E.03317
G1 X120.231 Y10.52 E.03439
G1 X120.965 Y9.717 E.03411
G1 X121.741 Y9.056 E.03196
G1 X122.643 Y8.461 E.03388
G1 X122.905 Y7.479 E.03187
G1 X123.409 Y6.704 E.02899
G1 X124.217 Y5.961 E.03442
G1 X125.278 Y5.486 E.03645
G1 X128.234 Y5.449 E.09269
G1 X128.822 Y5.626 E.01925
G1 X129.418 Y5.928 E.02095
G1 X130.422 Y6.885 E.04349
G1 X130.888 Y7.743 E.03061
G1 X131.051 Y8.477 E.02357
G1 X131.618 Y8.823 E.02083
G1 X132.786 Y9.781 E.04736
G1 X133.406 Y10.459 E.02881
G1 X134.033 Y11.332 E.0337
G1 X134.733 Y12.72 E.04874
G1 X135.171 Y14.219 E.04897
G1 X135.316 Y15.428 E.03818
G1 X135.259 Y16.89 E.04587
G1 X134.896 Y18.496 E.05163
G1 X134.227 Y20.007 E.05181
G1 X133.297 Y21.334 E.05081
G1 X132.664 Y22.002 E.02885
G1 X131.961 Y22.596 E.02886
G1 X130.549 Y23.463 E.05195
G1 X129.396 Y23.921 E.0389
G1 X127.601 Y24.28 E.0574
G1 X125.798 Y24.251 E.05654
G1 X124.174 Y23.884 E.0522
G1 X123.299 Y23.539 E.02949
G1 X122.485 Y23.11 E.02885
G1 X121.158 Y22.129 E.05174
G1 X120.084 Y20.959 E.0498
G1 X119.155 Y19.414 E.05653
G1 X118.564 Y17.682 E.05738
G1 X118.383 Y16.454 E.03892
G1 X118.392 Y16.02 E.01361
G1 X118.756 Y15.98 F9000
G1 F1200
G1 X118.739 Y15.825 E.00489
G1 X118.881 Y14.322 E.04734
G1 X119.092 Y13.464 E.0277
G1 X119.447 Y12.518 E.03168
G1 X120.206 Y11.18 E.04823
G1 X121.235 Y9.981 E.04954
G1 X121.961 Y9.363 E.02989
G1 X123.006 Y8.703 E.03875
G1 X123.037 Y8.264 E.0138
G1 X123.255 Y7.623 E.02123
G1 X123.683 Y6.964 E.02464
G1 X124.421 Y6.279 E.03157
G1 X125.375 Y5.851 E.03278
G1 X128.154 Y5.819 E.08714
G1 X128.668 Y5.971 E.01681
G1 X129.222 Y6.251 E.01946
G1 X130.138 Y7.135 E.03991
G1 X130.545 Y7.9 E.02717
G1 X130.683 Y8.694 E.02527
G1 X131.399 Y9.13 E.02628
G1 X132.526 Y10.054 E.04569
G1 X133.106 Y10.688 E.02694
G1 X134.014 Y12.057 E.05151
G1 X134.386 Y12.867 E.02795
G1 X134.801 Y14.295 E.04663
G1 X134.939 Y15.439 E.03613
G1 X134.938 Y16.206 E.02405
G1 X134.776 Y17.484 E.04039
G1 X134.326 Y18.941 E.04781
G1 X133.48 Y20.482 E.05512
G1 X132.412 Y21.721 E.05129
G1 X131.726 Y22.301 E.02817
G1 X130.919 Y22.836 E.03036
G1 X129.29 Y23.559 E.05588
G1 X128.434 Y23.78 E.02772
G1 X126.771 Y23.936 E.05237
G1 X125.25 Y23.778 E.04795
G1 X124.301 Y23.529 E.03076
G1 X122.671 Y22.781 E.05623
G1 X121.407 Y21.845 E.04931
G1 X120.381 Y20.726 E.0476
G1 X119.501 Y19.264 E.0535
G1 X118.931 Y17.592 E.05539
G1 X118.762 Y16.04 E.04895
G1 X119.143 Y16.047 F9000
G1 F1200
G1 X119.164 Y14.957 E.03418
G1 X119.449 Y13.586 E.04391
G1 X119.796 Y12.661 E.03098
G1 X120.241 Y11.815 E.02997
G1 X120.822 Y10.988 E.03169
G1 X121.488 Y10.26 E.03094
G1 X122.181 Y9.669 E.02856
G1 X123.374 Y8.934 E.04393
G1 X123.403 Y8.359 E.01805
G1 X123.604 Y7.766 E.01963
G1 X123.958 Y7.223 E.02032
G1 X124.626 Y6.596 E.02873
G1 X125.473 Y6.217 E.02909
G1 X128.076 Y6.189 E.08162
G1 X129.026 Y6.574 E.03214
G1 X129.852 Y7.383 E.03625
G1 X130.186 Y8.02 E.02255
G1 X130.293 Y8.405 E.01253
G1 X130.313 Y8.945 E.01694
G1 X131.177 Y9.435 E.03114
G1 X131.811 Y9.914 E.02491
G1 X132.807 Y10.918 E.04434
G1 X133.389 Y11.725 E.0312
G1 X134.038 Y13.015 E.04528
G1 X134.432 Y14.371 E.04427
G1 X134.561 Y15.451 E.0341
G1 X134.512 Y16.781 E.04173
G1 X134.183 Y18.249 E.04717
G1 X133.577 Y19.623 E.04708
G1 X132.736 Y20.83 E.04613
G1 X131.491 Y22.006 E.0537
G1 X130.212 Y22.788 E.047
G1 X129.184 Y23.197 E.03469
G1 X127.514 Y23.53 E.05339
G1 X125.901 Y23.503 E.05058
G1 X124.429 Y23.174 E.04729
G1 X122.857 Y22.453 E.05423
G1 X121.656 Y21.562 E.04689
G1 X120.679 Y20.494 E.04538
G1 X119.847 Y19.113 E.05055
G1 X119.297 Y17.501 E.0534
G1 X119.135 Y16.407 E.03468
G1 X119.141 Y16.107 E.00941
G1 X119.517 Y16.066 F9000
G1 F1200
G1 X119.493 Y15.848 E.00688
G1 X119.618 Y14.484 E.04295
G1 X119.806 Y13.707 E.02507
G1 X120.135 Y12.826 E.02949
G1 X120.823 Y11.614 E.0437
G1 X121.742 Y10.539 E.04434
G1 X122.4 Y9.976 E.02715
G1 X123.746 Y9.163 E.0493
G1 X123.77 Y8.452 E.02231
G1 X123.954 Y7.91 E.01795
G1 X124.234 Y7.481 E.01606
G1 X124.833 Y6.912 E.0259
G1 X125.57 Y6.583 E.02531
G1 X128.001 Y6.559 E.07623
G1 X128.361 Y6.66 E.01172
G1 X128.829 Y6.897 E.01645
G1 X129.565 Y7.628 E.03252
G1 X129.923 Y8.482 E.02903
G1 X129.94 Y9.184 E.02202
G1 X130.957 Y9.742 E.03637
G1 X132.005 Y10.6 E.04247
G1 X132.508 Y11.148 E.02332
G1 X133.336 Y12.388 E.04675
G1 X133.691 Y13.162 E.0267
G1 X134.062 Y14.446 E.04191
G1 X134.184 Y15.462 E.03208
G1 X134.184 Y16.19 E.02283
G1 X134.043 Y17.309 E.03536
G1 X133.639 Y18.629 E.04328
G1 X132.862 Y20.051 E.05081
G1 X131.894 Y21.173 E.04646
G1 X131.257 Y21.71 E.02612
G1 X130.044 Y22.45 E.04455
G1 X129.078 Y22.835 E.03261
G1 X128.286 Y23.04 E.02565
G1 X126.799 Y23.182 E.04684
G1 X125.423 Y23.044 E.04336
G1 X124.556 Y22.818 E.02809
G1 X123.043 Y22.125 E.05218
G1 X121.905 Y21.279 E.04446
G1 X120.977 Y20.263 E.04314
G1 X120.193 Y18.963 E.0476
G1 X119.663 Y17.411 E.05142
G1 X119.523 Y16.126 E.04053
G1 X119.892 Y16.133 F9000
G1 F1200
G1 X119.912 Y15.052 E.0339
G1 X120.163 Y13.828 E.03918
G1 X120.475 Y12.99 E.02804
G1 X120.882 Y12.212 E.02753
G1 X121.414 Y11.456 E.02898
G1 X121.997 Y10.817 E.02712
G1 X123.283 Y9.836 E.05071
G1 X124.119 Y9.424 E.02922
G1 X124.137 Y8.541 E.02769
G1 X124.285 Y8.091 E.01485
G1 X124.512 Y7.736 E.01321
G1 X125.043 Y7.226 E.02308
G1 X125.667 Y6.948 E.02142
G1 X127.927 Y6.93 E.07086
G1 X128.631 Y7.219 E.02386
G1 X129.274 Y7.87 E.02869
G1 X129.552 Y8.555 E.02318
G1 X129.566 Y9.423 E.02722
G1 X130.285 Y9.768 E.025
G1 X131.33 Y10.494 E.0399
G1 X132.222 Y11.395 E.03975
G1 X132.746 Y12.12 E.02805
G1 X133.344 Y13.309 E.04173
G1 X133.693 Y14.521 E.03955
G1 X133.807 Y15.473 E.03006
G1 X133.764 Y16.687 E.03809
G1 X133.47 Y18.004 E.04231
G1 X132.928 Y19.239 E.04229
G1 X132.175 Y20.326 E.04146
G1 X131.023 Y21.414 E.04968
G1 X129.876 Y22.112 E.0421
G1 X128.972 Y22.473 E.03052
G1 X127.427 Y22.781 E.0494
G1 X126.003 Y22.756 E.04466
G1 X124.682 Y22.463 E.04243
G1 X123.23 Y21.797 E.05009
G1 X122.155 Y20.996 E.04203
G1 X121.275 Y20.032 E.04093
G1 X120.539 Y18.812 E.04467
G1 X120.03 Y17.321 E.0494
G1 X119.888 Y16.359 E.03049
G1 X119.891 Y16.193 E.00521
G1 X120.267 Y16.199 F9000
G1 F1200
G1 X120.287 Y15.098 E.03453
G1 X120.521 Y13.948 E.0368
G1 X120.815 Y13.153 E.02658
G1 X121.203 Y12.411 E.02625
G1 X121.71 Y11.69 E.02764
G1 X122.857 Y10.576 E.05013
G1 X123.485 Y10.155 E.02371
G1 X124.495 Y9.674 E.03508
G1 X124.505 Y8.63 E.03274
G1 X124.791 Y7.991 E.02195
G1 X125.257 Y7.537 E.0204
G1 X125.764 Y7.314 E.01737
G1 X128.057 Y7.352 E.07191
G1 X128.431 Y7.541 E.01314
G1 X128.98 Y8.108 E.02475
G1 X129.181 Y8.624 E.01736
G1 X129.19 Y9.662 E.03255
G1 X130.096 Y10.094 E.03147
G1 X131.083 Y10.78 E.03769
G1 X131.937 Y11.641 E.03802
G1 X132.658 Y12.719 E.04066
G1 X132.996 Y13.456 E.02542
G1 X133.323 Y14.596 E.03719
G1 X133.43 Y15.484 E.02804
G1 X133.389 Y16.647 E.03649
G1 X133.113 Y17.883 E.03971
G1 X132.603 Y19.047 E.03985
G1 X131.893 Y20.075 E.03917
G1 X130.789 Y21.118 E.04762
G1 X129.708 Y21.774 E.03965
G1 X128.866 Y22.111 E.02844
G1 X127.384 Y22.406 E.04738
G1 X126.053 Y22.382 E.04174
G1 X124.808 Y22.107 E.03998
G1 X123.417 Y21.47 E.04797
G1 X122.405 Y20.714 E.03961
G1 X121.573 Y19.801 E.03873
G1 X120.884 Y18.662 E.04174
G1 X120.396 Y17.232 E.04738
G1 X120.265 Y16.334 E.02845
G1 X120.266 Y16.259 E.00235
G1 X120.642 Y16.266 F9000
G1 F1200
G1 X120.661 Y15.144 E.03518
G1 X120.879 Y14.067 E.03445
G1 X121.155 Y13.317 E.02506
G1 X121.524 Y12.609 E.02503
G1 X121.995 Y11.937 E.02573
G1 X123.094 Y10.869 E.04805
G1 X124.066 Y10.267 E.03585
G1 X124.873 Y9.923 E.02751
G1 X124.873 Y8.718 E.03778
G1 X125.07 Y8.245 E.01607
G1 X125.475 Y7.845 E.01785
G1 X125.861 Y7.68 E.01316
G1 X127.795 Y7.673 E.06064
G1 X128.233 Y7.864 E.01498
G1 X128.652 Y8.297 E.01889
G1 X128.781 Y8.57 E.00947
G1 X128.813 Y9.945 E.04312
G1 X129.905 Y10.419 E.03733
G1 X130.836 Y11.065 E.03553
G1 X131.651 Y11.888 E.03632
G1 X132.319 Y12.885 E.03763
G1 X132.649 Y13.603 E.02478
G1 X132.953 Y14.67 E.03479
G1 X133.053 Y15.496 E.02609
G1 X133.014 Y16.607 E.03486
G1 X132.756 Y17.761 E.03708
G1 X132.278 Y18.855 E.03743
G1 X131.613 Y19.823 E.03682
G1 X130.555 Y20.822 E.04562
G1 X129.541 Y21.436 E.03717
G1 X128.759 Y21.749 E.02641
G1 X127.342 Y22.031 E.0453
G1 X126.102 Y22.008 E.03889
G1 X124.934 Y21.752 E.03749
G1 X123.604 Y21.142 E.04588
G1 X122.656 Y20.432 E.03714
G1 X121.872 Y19.571 E.03651
